; generated by PrusaSlicer 2.6.0-beta4+linux-x64-GTK3 on 2023-06-09 at 17:00:07 UTC

; 

; external perimeters extrusion width = 0.23mm
; perimeters extrusion width = 0.23mm
; infill extrusion width = 0.23mm
; solid infill extrusion width = 0.23mm
; top infill extrusion width = 0.20mm

; external perimeters extrusion width = 0.23mm
; perimeters extrusion width = 0.23mm
; infill extrusion width = 0.23mm
; solid infill extrusion width = 0.23mm
; top infill extrusion width = 0.20mm

;TYPE:Custom
G90 ; use absolute coordinates
M83 ; extruder relative mode
M140 S55 ; set final bed temp
;M104 S150 ; set temporary nozzle temp to prevent oozing during homing
G4 S10 ; allow partial nozzle warmup
G28 ; home all axis
G1 Z50 F240
G1 X2 Y10 F3000
M104 S175 ; set final nozzle temp
M190 S55 ; wait for bed temp to stabilize
M109 S175 ; wait for nozzle temp to stabilize
G92 E0
G21 ; set units to millimeters
G90 ; use absolute coordinates
M83 ; use relative distances for extrusion
; Filament gcode
M107
;LAYER_CHANGE
;Z:0.14
;HEIGHT:0.14
;BEFORE_LAYER_CHANGE
G92 E0
;0.14


G1 Z.14 F4200
;AFTER_LAYER_CHANGE
;0.14
G1 E-3 F3000
G1 X41.681 Y137.872 F4200
G1 E3 F2400
M204 P500
;TYPE:Skirt/Brim
;WIDTH:0.225
G1 F1200
G1 X43.357 Y137.375 E.01865
G1 X45.077 Y137.221 E.01842
G1 X46.492 Y137.348 E.01515
G1 X47.889 Y137.709 E.01539
G1 X49.189 Y138.284 E.01516
G1 X50.379 Y139.061 E.01516
G1 X51.444 Y140.036 E.0154
G1 X52.321 Y141.154 E.01516
G1 X53.007 Y142.399 E.01516
G1 X53.489 Y143.76 E.0154
G1 X53.699 Y144.811 E.01143
G1 X53.779 Y145.88 E.01143
G1 X53.78 Y170 E.25728
G1 X53.612 Y171.708 E.01831
G1 X53.095 Y173.4 E.01887
G1 X52.26 Y174.937 E.01866
G1 X51.185 Y176.232 E.01795
G1 X49.882 Y177.297 E.01795
G1 X48.32 Y178.128 E.01887
G1 X46.708 Y178.612 E.01795
G1 X44.967 Y178.78 E.01866
G1 X43.594 Y178.666 E.0147
G1 X42.173 Y178.312 E.01562
G1 X40.849 Y177.737 E.0154
G1 X39.621 Y176.939 E.01562
G1 X38.556 Y175.964 E.0154
G1 X37.655 Y174.809 E.01563
G1 X36.966 Y173.541 E.01539
G1 X36.511 Y172.24 E.0147
G1 X36.301 Y171.189 E.01143
G1 X36.221 Y170.12 E.01143
G1 X36.22 Y146 E.25728
G1 X36.388 Y144.292 E.01831
G1 X36.905 Y142.6 E.01887
G1 X37.703 Y141.118 E.01795
G1 X38.815 Y139.769 E.01865
G1 X40.118 Y138.703 E.01796
G1 X41.654 Y137.886 E.01856
G1 X41.745 Y138.057 F4200
G1 F1200
G1 X43.393 Y137.567 E.01834
G1 X45.075 Y137.416 E.01801
G1 X46.46 Y137.54 E.01483
G1 X47.824 Y137.893 E.01503
G1 X49.058 Y138.435 E.01438
G1 X50.261 Y139.216 E.0153
G1 X51.3 Y140.168 E.01503
G1 X52.159 Y141.262 E.01484
G1 X52.83 Y142.48 E.01483
G1 X53.3 Y143.808 E.01503
G1 X53.506 Y144.836 E.01118
G1 X53.584 Y145.881 E.01118
G1 X53.585 Y170 E.25727
G1 X53.421 Y171.669 E.01789
G1 X52.915 Y173.326 E.01848
G1 X52.135 Y174.775 E.01755
G1 X51.048 Y176.092 E.01821
G1 X49.775 Y177.135 E.01755
G1 X48.245 Y177.948 E.01848
G1 X46.669 Y178.421 E.01755
G1 X44.969 Y178.585 E.01822
G1 X43.626 Y178.474 E.01437
G1 X42.235 Y178.127 E.01529
G1 X40.942 Y177.565 E.01504
G1 X39.739 Y176.784 E.0153
G1 X38.743 Y175.878 E.01436
G1 X37.865 Y174.775 E.01504
G1 X37.17 Y173.52 E.0153
G1 X36.7 Y172.192 E.01503
G1 X36.494 Y171.164 E.01118
G1 X36.416 Y170.119 E.01118
G1 X36.415 Y146 E.25727
G1 X36.579 Y144.331 E.01789
G1 X37.085 Y142.674 E.01848
G1 X37.865 Y141.225 E.01755
G1 X38.952 Y139.908 E.01821
G1 X40.225 Y138.865 E.01755
G1 X41.719 Y138.071 E.01805
G1 X41.81 Y138.243 F4200
G1 F1200
G1 X43.428 Y137.759 E.01801
G1 X45.073 Y137.611 E.01762
G1 X46.428 Y137.733 E.01451
G1 X47.759 Y138.077 E.01466
G1 X49.042 Y138.648 E.01498
G1 X50.189 Y139.407 E.01467
G1 X51.156 Y140.3 E.01404
G1 X52.02 Y141.406 E.01497
G1 X52.676 Y142.615 E.01467
G1 X53.133 Y143.942 E.01497
G1 X53.318 Y144.905 E.01046
G1 X53.389 Y145.883 E.01046
G1 X53.39 Y170 E.25725
G1 X53.23 Y171.63 E.01747
G1 X52.734 Y173.251 E.01808
G1 X51.972 Y174.667 E.01715
G1 X50.912 Y175.953 E.01778
G1 X49.667 Y176.972 E.01716
G1 X48.17 Y177.768 E.01808
G1 X46.63 Y178.23 E.01715
G1 X44.97 Y178.39 E.01779
G1 X43.658 Y178.282 E.01404
G1 X42.296 Y177.942 E.01497
G1 X41.035 Y177.394 E.01467
G1 X39.858 Y176.629 E.01497
G1 X38.844 Y175.7 E.01467
G1 X37.98 Y174.594 E.01497
G1 X37.324 Y173.386 E.01466
G1 X36.867 Y172.058 E.01498
G1 X36.688 Y171.138 E.01
G1 X36.611 Y170.117 E.01092
G1 X36.61 Y146 E.25725
G1 X36.77 Y144.37 E.01747
G1 X37.266 Y142.749 E.01808
G1 X38.061 Y141.284 E.01778
G1 X39.088 Y140.047 E.01715
G1 X40.333 Y139.028 E.01716
G1 X41.783 Y138.257 E.01752
G1 X41.874 Y138.428 F4200
G1 F1200
G1 X43.464 Y137.95 E.01771
G1 X45.071 Y137.806 E.01721
G1 X46.396 Y137.925 E.01419
G1 X47.694 Y138.261 E.0143
G1 X48.949 Y138.819 E.01465
G1 X50.067 Y139.56 E.01431
G1 X51.012 Y140.431 E.01371
G1 X51.858 Y141.513 E.01465
G1 X52.498 Y142.692 E.01431
G1 X52.945 Y143.99 E.01464
G1 X53.125 Y144.93 E.01021
G1 X53.194 Y145.885 E.01021
G1 X53.195 Y170 E.25723
G1 X53.039 Y171.591 E.01705
G1 X52.554 Y173.176 E.01768
G1 X51.809 Y174.559 E.01676
G1 X50.775 Y175.814 E.01734
G1 X49.559 Y176.809 E.01676
G1 X48.096 Y177.588 E.01768
G1 X46.591 Y178.039 E.01676
G1 X44.972 Y178.195 E.01735
G1 X43.604 Y178.075 E.01465
G1 X42.306 Y177.739 E.0143
G1 X41.052 Y177.181 E.01464
G1 X39.977 Y176.475 E.01372
G1 X38.988 Y175.569 E.01431
G1 X38.142 Y174.487 E.01465
G1 X37.502 Y173.308 E.01431
G1 X37.055 Y172.009 E.01465
G1 X36.875 Y171.07 E.0102
G1 X36.806 Y170.115 E.01021
G1 X36.805 Y146 E.25723
G1 X36.961 Y144.409 E.01705
G1 X37.446 Y142.824 E.01768
G1 X38.191 Y141.441 E.01676
G1 X39.225 Y140.186 E.01734
G1 X40.441 Y139.191 E.01676
G1 X41.848 Y138.442 E.017
G1 E-2.1 F3000
;WIPE_START
G1 F3360
G1 X42.863 Y138.133 E-.9
;WIPE_END
G1 X44.083 Y165.222 F4200
G1 E3 F2400
;TYPE:External perimeter
;WIDTH:0.267988
G1 F1200
G1 X44.943 Y165.15 E.01124
;WIDTH:0.27662
G1 X45.52 Y165.167 E.00779
G1 X46.018 Y165.243 E.0068
;WIDTH:0.267983
G1 X46.912 Y165.526 E.01221
G1 X47.662 Y165.945 E.01118
;WIDTH:0.274206
G1 X48.134 Y166.283 E.00776
G1 X48.503 Y166.626 E.00673
;WIDTH:0.270841
G1 X49.085 Y167.361 E.01235
;WIDTH:0.273028
G1 X49.336 Y167.798 E.0067
;WIDTH:0.273624
G1 X49.541 Y168.264 E.00678
G1 X49.791 Y169.167 E.01249
;WIDTH:0.270839
G1 X49.863 Y170.096 E.01228
G1 X49.776 Y170.872 E.01029
;WIDTH:0.27666
G1 X49.645 Y171.431 E.00775
G1 X49.476 Y171.907 E.00682
;WIDTH:0.267919
G1 X49.055 Y172.662 E.01125
;WIDTH:0.274208
G1 X48.717 Y173.134 E.00776
G1 X48.374 Y173.503 E.00673
;WIDTH:0.270801
G1 X47.762 Y173.992 E.01032
;WIDTH:0.276687
G1 X47.273 Y174.297 E.00778
G1 X46.817 Y174.513 E.00681
;WIDTH:0.267979
G1 X45.917 Y174.778 E.01221
;WIDTH:0.274416
G1 X45.417 Y174.844 E.00674
G1 X44.909 Y174.863 E.0068
;WIDTH:0.270815
G1 X44.128 Y174.773 E.01036
;WIDTH:0.275334
G1 X43.509 Y174.626 E.00854
G1 X43.16 Y174.488 E.00504
;WIDTH:0.274207
G1 X42.633 Y174.247 E.00774
G1 X42.205 Y173.981 E.00673
;WIDTH:0.270809
G1 X41.609 Y173.474 E.01031
;WIDTH:0.274252
G1 X41.215 Y173.052 E.00771
G1 X40.918 Y172.644 E.00674
;WIDTH:0.270979
G1 X40.487 Y171.811 E.01236
G1 X40.222 Y170.917 E.01229
;WIDTH:0.274418
G1 X40.156 Y170.417 E.00674
G1 X40.137 Y169.909 E.0068
;WIDTH:0.270805
G1 X40.226 Y169.131 E.01032
;WIDTH:0.272773
G1 X40.379 Y168.486 E.0088
;WIDTH:0.273625
G1 X40.561 Y168.017 E.0067
G1 X41.023 Y167.201 E.0125
;WIDTH:0.271038
G1 X41.63 Y166.494 E.01229
G1 X42.36 Y165.914 E.01229
;WIDTH:0.267537
G1 X43.188 Y165.485 E.01212
;WIDTH:0.267988
G1 X44.054 Y165.23 E.01175
G1 X44.027 Y165.474 F4200
;WIDTH:0.274393
G1 F1200
G1 X44.932 Y165.374 E.01217
;WIDTH:0.27662
G1 X45.49 Y165.412 E.00755
G1 X45.948 Y165.47 E.00623
;WIDTH:0.267579
G1 X46.726 Y165.704 E.01056
;WIDTH:0.274345
G1 X47.529 Y166.126 E.01213
;WIDTH:0.274206
G1 X47.975 Y166.468 E.00751
G1 X48.317 Y166.779 E.00618
;WIDTH:0.270513
G1 X48.785 Y167.336 E.00957
;WIDTH:0.273028
G1 X49.119 Y167.907 E.00879
;WIDTH:0.273624
G1 X49.308 Y168.334 E.00622
G1 X49.525 Y169.026 E.00967
;WIDTH:0.257841
G1 X49.628 Y169.908 E.01107
;WIDTH:0.273008
G1 X49.555 Y170.817 E.01212
;WIDTH:0.27666
G1 X49.411 Y171.355 E.00751
G1 X49.264 Y171.8 E.00632
;WIDTH:0.267919
G1 X48.886 Y172.511 E.01048
;WIDTH:0.274208
G1 X48.532 Y172.975 E.0078
G1 X48.217 Y173.321 E.00625
;WIDTH:0.270801
G1 X47.664 Y173.785 E.00951
;WIDTH:0.276687
G1 X47.161 Y174.077 E.00785
G1 X46.747 Y174.286 E.00626
;WIDTH:0.267577
G1 X45.971 Y174.527 E.01056
;WIDTH:0.274416
G1 X45.399 Y174.601 E.00771
G1 X44.927 Y174.623 E.00632
;WIDTH:0.270815
G1 X44.206 Y174.559 E.00954
;WIDTH:0.275334
G1 X43.257 Y174.286 E.01325
;WIDTH:0.274207
G1 X42.754 Y174.035 E.00751
G1 X42.354 Y173.792 E.00625
;WIDTH:0.272956
G1 X41.968 Y173.486 E.00655
;WIDTH:0.274252
G1 X41.406 Y172.901 E.01084
G1 X41.129 Y172.529 E.0062
;WIDTH:0.270522
G1 X40.776 Y171.891 E.00959
;WIDTH:0.260523
G1 X40.474 Y170.974 E.01217
;WIDTH:0.274418
G1 X40.399 Y170.399 E.00775
G1 X40.377 Y169.927 E.00632
;WIDTH:0.270805
G1 X40.441 Y169.207 E.00952
;WIDTH:0.272773
G1 X40.609 Y168.562 E.00885
;WIDTH:0.273625
G1 X40.775 Y168.132 E.00614
G1 X41.112 Y167.489 E.00967
;WIDTH:0.257846
G1 X41.663 Y166.793 E.01106
;WIDTH:0.260524
G1 X42.401 Y166.169 E.01219
G1 X43.181 Y165.743 E.01121
G1 X43.998 Y165.483 E.01081
G1 X44.089 Y165.284 F4200
G1 X44.997 Y166.397
;TYPE:Perimeter
;WIDTH:0.224999
G1 F1200
G1 X45.753 Y166.476 E.00811
G1 X46.408 Y166.683 E.00733
G1 X47.015 Y167.012 E.00736
G1 X47.548 Y167.452 E.00737
G1 X47.985 Y167.982 E.00733
G1 X48.342 Y168.654 E.00812
G1 X48.537 Y169.312 E.00732
G1 X48.604 Y170 E.00737
G1 X48.537 Y170.688 E.00737
G1 X48.341 Y171.35 E.00736
G1 X48.024 Y171.959 E.00732
G1 X47.545 Y172.551 E.00812
G1 X47.015 Y172.988 E.00733
G1 X46.408 Y173.317 E.00736
G1 X45.752 Y173.524 E.00734
G1 X44.996 Y173.603 E.00811
G1 X44.315 Y173.538 E.0073
G1 X43.589 Y173.315 E.0081
G1 X42.985 Y172.988 E.00733
G1 X42.452 Y172.548 E.00737
G1 X42.013 Y172.015 E.00737
G1 X41.684 Y171.41 E.00735
G1 X41.462 Y170.684 E.0081
G1 X41.396 Y170 E.00733
G1 X41.463 Y169.312 E.00737
G1 X41.659 Y168.65 E.00736
G1 X41.976 Y168.041 E.00732
G1 X42.455 Y167.449 E.00812
G1 X42.982 Y167.015 E.00728
G1 X43.654 Y166.658 E.00812
G1 X44.312 Y166.463 E.00732
G1 X44.967 Y166.4 E.00702
G1 X44.998 Y166.201 F4200
G1 F1200
G1 X45.793 Y166.284 E.00853
G1 X46.485 Y166.503 E.00774
G1 X47.125 Y166.85 E.00777
G1 X47.687 Y167.313 E.00777
G1 X48.148 Y167.873 E.00774
G1 X48.524 Y168.58 E.00854
G1 X48.73 Y169.275 E.00773
G1 X48.799 Y170 E.00777
G1 X48.73 Y170.725 E.00777
G1 X48.523 Y171.423 E.00777
G1 X48.188 Y172.067 E.00774
G1 X47.684 Y172.689 E.00854
G1 X47.125 Y173.15 E.00773
G1 X46.485 Y173.497 E.00777
G1 X45.792 Y173.716 E.00775
G1 X44.997 Y173.799 E.00853
G1 X44.277 Y173.73 E.00772
G1 X43.513 Y173.496 E.00852
G1 X42.875 Y173.15 E.00774
G1 X42.313 Y172.687 E.00777
G1 X41.85 Y172.125 E.00777
G1 X41.504 Y171.486 E.00775
G1 X41.27 Y170.722 E.00852
G1 X41.201 Y170 E.00774
G1 X41.27 Y169.275 E.00777
G1 X41.477 Y168.577 E.00777
G1 X41.812 Y167.933 E.00774
G1 X42.316 Y167.311 E.00854
G1 X42.873 Y166.852 E.0077
G1 X43.58 Y166.476 E.00854
G1 X44.275 Y166.27 E.00773
G1 X44.968 Y166.204 E.00743
G1 X44.999 Y166.005 F4200
G1 F1200
G1 X45.833 Y166.093 E.00895
G1 X46.561 Y166.322 E.00814
G1 X47.234 Y166.688 E.00817
G1 X47.825 Y167.175 E.00817
G1 X48.311 Y167.764 E.00815
G1 X48.705 Y168.505 E.00895
G1 X48.922 Y169.238 E.00815
G1 X48.995 Y170 E.00817
G1 X48.922 Y170.762 E.00817
G1 X48.704 Y171.497 E.00818
G1 X48.352 Y172.174 E.00814
G1 X47.823 Y172.826 E.00896
G1 X47.234 Y173.312 E.00815
G1 X46.561 Y173.678 E.00817
G1 X45.832 Y173.908 E.00815
G1 X44.998 Y173.995 E.00894
G1 X44.239 Y173.922 E.00813
G1 X43.437 Y173.677 E.00894
G1 X42.766 Y173.312 E.00815
G1 X42.175 Y172.825 E.00817
G1 X41.688 Y172.234 E.00817
G1 X41.323 Y171.562 E.00816
G1 X41.078 Y170.76 E.00894
G1 X41.005 Y170 E.00814
G1 X41.078 Y169.238 E.00817
G1 X41.296 Y168.503 E.00818
G1 X41.648 Y167.826 E.00814
G1 X42.177 Y167.173 E.00896
G1 X42.764 Y166.689 E.00812
G1 X43.505 Y166.295 E.00895
G1 X44.238 Y166.078 E.00815
G1 X44.969 Y166.008 E.00783
G1 X45 Y165.809 F4200
G1 F1200
G1 X45.873 Y165.901 E.00936
G1 X46.638 Y166.142 E.00856
G1 X47.344 Y166.525 E.00857
G1 X47.964 Y167.036 E.00857
G1 X48.474 Y167.655 E.00855
G1 X48.886 Y168.431 E.00937
G1 X49.114 Y169.2 E.00856
G1 X49.191 Y170 E.00857
G1 X49.114 Y170.8 E.00857
G1 X48.886 Y171.57 E.00857
G1 X48.516 Y172.281 E.00855
G1 X47.963 Y172.964 E.00937
G1 X47.344 Y173.475 E.00856
G1 X46.638 Y173.858 E.00857
G1 X45.871 Y174.099 E.00858
G1 X44.999 Y174.191 E.00935
G1 X44.2 Y174.114 E.00856
G1 X43.361 Y173.857 E.00936
G1 X42.656 Y173.475 E.00855
G1 X42.036 Y172.964 E.00857
G1 X41.525 Y172.344 E.00857
G1 X41.142 Y171.638 E.00857
G1 X40.886 Y170.798 E.00937
G1 X40.809 Y170 E.00855
G1 X40.886 Y169.2 E.00857
G1 X41.114 Y168.43 E.00857
G1 X41.484 Y167.718 E.00856
G1 X42.037 Y167.036 E.00937
G1 X42.655 Y166.526 E.00855
G1 X43.431 Y166.114 E.00937
G1 X44.2 Y165.886 E.00856
G1 X44.97 Y165.812 E.00825
G1 X45.001 Y165.613 F4200
;TYPE:External perimeter
G1 F1200
G1 X45.913 Y165.709 E.00978
G1 X46.714 Y165.962 E.00896
G1 X47.453 Y166.363 E.00897
G1 X48.102 Y166.898 E.00897
G1 X48.637 Y167.546 E.00896
G1 X49.068 Y168.357 E.0098
G1 X49.306 Y169.163 E.00896
G1 X49.387 Y170 E.00897
G1 X49.306 Y170.837 E.00897
G1 X49.068 Y171.643 E.00896
G1 X48.679 Y172.389 E.00897
G1 X48.102 Y173.102 E.00978
G1 X47.453 Y173.637 E.00897
G1 X46.714 Y174.038 E.00897
G1 X45.911 Y174.291 E.00898
G1 X45 Y174.387 E.00977
G1 X44.162 Y174.306 E.00898
G1 X43.285 Y174.038 E.00978
G1 X42.547 Y173.637 E.00896
G1 X41.898 Y173.102 E.00897
G1 X41.363 Y172.453 E.00897
G1 X40.961 Y171.713 E.00898
G1 X40.694 Y170.837 E.00977
G1 X40.613 Y170 E.00897
G1 X40.694 Y169.163 E.00897
G1 X40.932 Y168.357 E.00896
G1 X41.321 Y167.611 E.00897
G1 X41.898 Y166.898 E.00978
G1 X42.546 Y166.363 E.00896
G1 X43.357 Y165.932 E.0098
G1 X44.163 Y165.694 E.00896
G1 X44.971 Y165.616 E.00866
G1 X45.1 Y165.787 F4200
G1 E-3 F3000
G1 X46.908 Y167.021 F4200
G1 E3 F2400
;TYPE:Solid infill
;WIDTH:0.227523
G1 F1200
G1 X47.45 Y167.563 E.00828
G1 X47.863 Y168.064 E.00702
G1 X48.08 Y168.472 E.00499
G1 X46.516 Y166.908 E.0239
G1 X46.351 Y166.818 E.00203
G1 X46.053 Y166.724 E.00338
G1 X48.277 Y168.948 E.03398
G1 X48.394 Y169.344 E.00446
G1 X45.663 Y166.614 E.04172
G1 X45.351 Y166.581 E.00339
G1 X48.423 Y169.653 E.04694
G1 X48.453 Y169.962 E.00335
G1 X45.039 Y166.548 E.05217
G1 X44.777 Y166.565 E.00284
G1 X48.435 Y170.224 E.0559
G1 X48.411 Y170.478 E.00276
G1 X44.522 Y166.589 E.05942
G1 X44.278 Y166.625 E.00266
G1 X48.375 Y170.722 E.0626
G1 X48.311 Y170.937 E.00242
G1 X44.063 Y166.689 E.06491
G1 X43.847 Y166.753 E.00243
G1 X48.247 Y171.153 E.06723
G1 X48.173 Y171.357 E.00234
G1 X43.644 Y166.829 E.0692
G1 X43.462 Y166.926 E.00223
G1 X48.077 Y171.541 E.07052
G1 X47.981 Y171.725 E.00224
G1 X43.279 Y167.022 E.07185
G1 X43.097 Y167.119 E.00223
G1 X47.881 Y171.904 E.07311
G1 X47.756 Y172.058 E.00214
G1 X42.938 Y167.24 E.07362
G1 X42.785 Y167.366 E.00214
G1 X47.631 Y172.212 E.07405
G1 X47.506 Y172.366 E.00214
G1 X42.632 Y167.493 E.07447
G1 X42.494 Y167.634 E.00213
G1 X47.368 Y172.507 E.07447
G1 X47.215 Y172.634 E.00215
G1 X42.369 Y167.788 E.07405
G1 X42.244 Y167.942 E.00214
G1 X47.062 Y172.76 E.07362
G1 X46.904 Y172.881 E.00215
G1 X42.119 Y168.097 E.07311
G1 X42.019 Y168.275 E.00221
G1 X46.723 Y172.98 E.07189
G1 X46.542 Y173.078 E.00222
G1 X41.923 Y168.459 E.07058
G1 X41.827 Y168.643 E.00224
G1 X46.361 Y173.176 E.06927
G1 X46.15 Y173.245 E.0024
G1 X41.753 Y168.847 E.06719
G1 X41.689 Y169.063 E.00243
G1 X45.938 Y173.312 E.06493
G1 X45.726 Y173.379 E.0024
G1 X41.625 Y169.278 E.06266
G1 X41.589 Y169.522 E.00266
G1 X45.474 Y173.406 E.05936
G1 X45.221 Y173.433 E.00275
G1 X41.565 Y169.777 E.05586
G1 X41.547 Y170.038 E.00283
G1 X44.962 Y173.453 E.05218
G1 X44.653 Y173.423 E.00335
G1 X41.577 Y170.347 E.047
G1 X41.607 Y170.656 E.00335
G1 X44.344 Y173.393 E.04182
G1 X43.942 Y173.27 E.00454
G1 X41.73 Y171.058 E.0338
G1 X41.82 Y171.354 E.00334
G1 X41.908 Y171.516 E.00199
G1 X43.484 Y173.092 E.02408
G1 X43.067 Y172.866 E.00512
G1 X42.562 Y172.45 E.00707
G1 X42.021 Y171.909 E.00827
G1 E-2.1 F3000
;WIPE_START
G1 F3360
G1 X42.562 Y172.45 E-.64896
G1 X42.79 Y172.638 E-.25104
;WIPE_END
G1 X40.222 Y146.917 F4200
G1 E3 F2400
