; generated by PrusaSlicer 2.5.0+win64 on 2023-05-03 at 00:23:20 UTC

; 

; external perimeters extrusion width = 0.23mm
; perimeters extrusion width = 0.23mm
; infill extrusion width = 0.23mm
; solid infill extrusion width = 0.23mm
; top infill extrusion width = 0.20mm

M107
;TYPE:Custom
G90 ; use absolute coordinates
M83 ; extruder relative mode
M140 S55 ; set final bed temp
;M104 S150 ; set temporary nozzle temp to prevent oozing during homing
G4 S10 ; allow partial nozzle warmup
G28 ; home all axis
G1 Z50 F240
G1 X2 Y10 F3000
M104 S175 ; set final nozzle temp
M190 S55 ; wait for bed temp to stabilize
M109 S175 ; wait for nozzle temp to stabilize
G92 E0
G21 ; set units to millimeters
G90 ; use absolute coordinates
M83 ; use relative distances for extrusion
; Filament gcode
M107
;LAYER_CHANGE
;Z:0.14
;HEIGHT:0.14
;BEFORE_LAYER_CHANGE
G92 E0
;0.14


G1 Z.14 F4200
;AFTER_LAYER_CHANGE
;0.14
G1 E-3 F3000
G1 X37.533 Y92.645 F4200
G1 E3 F2400
M204 P500
;TYPE:Skirt/Brim
;WIDTH:0.225
G1 F1200
G1 X39.886 Y92.371 E.02527
G1 X42.255 Y92.323 E.02528
G1 X43.439 Y92.384 E.01264
G1 X45.613 Y92.645 E.02335
G1 X47.221 Y93.276 E.01843
G1 X48.38 Y94.557 E.01843
G1 X48.852 Y96.386 E.02015
G1 X48.853 Y137.799 E.44173
G1 X48.459 Y139.481 E.01843
G1 X47.357 Y140.811 E.01843
G1 X45.614 Y141.54 E.02015
G1 X43.261 Y141.814 E.02527
G1 X40.892 Y141.862 E.02528
G1 X39.708 Y141.801 E.01264
G1 X37.535 Y141.54 E.02335
G1 X35.927 Y140.909 E.01843
G1 X34.767 Y139.629 E.01843
G1 X34.295 Y137.799 E.02015
G1 X34.294 Y96.387 E.44173
G1 X34.688 Y94.705 E.01843
G1 X35.79 Y93.374 E.01843
G1 X37.505 Y92.657 E.01983
G1 X37.561 Y92.838 F4200
G1 F1200
G1 X39.896 Y92.566 E.02507
G1 X42.246 Y92.518 E.02508
G1 X43.42 Y92.578 E.01254
G1 X45.585 Y92.838 E.02325
G1 X47.146 Y93.462 E.01794
G1 X48.252 Y94.73 E.01794
G1 X48.657 Y96.386 E.01819
G1 X48.659 Y137.799 E.44173
G1 X48.264 Y139.434 E.01794
G1 X47.168 Y140.709 E.01794
G1 X45.586 Y141.347 E.01819
G1 X43.252 Y141.619 E.02507
G1 X40.901 Y141.667 E.02508
G1 X39.727 Y141.607 E.01254
G1 X37.562 Y141.347 E.02325
G1 X36.001 Y140.723 E.01794
G1 X34.896 Y139.456 E.01794
G1 X34.49 Y137.799 E.01819
G1 X34.489 Y96.387 E.44173
G1 X34.883 Y94.752 E.01794
G1 X35.98 Y93.477 E.01794
G1 X37.533 Y92.85 E.01787
G1 X37.589 Y93.031 F4200
G1 F1200
G1 X38.582 Y92.888 E.0107
G1 X39.905 Y92.761 E.01418
G1 X42.237 Y92.713 E.02488
G1 X43.402 Y92.772 E.01244
G1 X45.557 Y93.031 E.02315
G1 X47.071 Y93.648 E.01744
G1 X48.12 Y94.902 E.01744
G1 X48.462 Y96.386 E.01625
G1 X48.464 Y137.799 E.44173
G1 X48.069 Y139.385 E.01744
G1 X46.979 Y140.603 E.01744
G1 X45.559 Y141.154 E.01625
G1 X44.565 Y141.298 E.0107
G1 X43.242 Y141.425 E.01418
G1 X40.911 Y141.473 E.02488
G1 X39.745 Y141.413 E.01244
G1 X37.59 Y141.154 E.02315
G1 X36.077 Y140.537 E.01744
G1 X35.027 Y139.284 E.01744
G1 X34.685 Y137.799 E.01625
G1 X34.684 Y96.387 E.44173
G1 X35.078 Y94.8 E.01744
G1 X36.168 Y93.583 E.01744
G1 X37.561 Y93.042 E.01593
G1 X37.617 Y93.224 F4200
G1 F1200
G1 X38.61 Y93.081 E.0107
G1 X39.914 Y92.956 E.01398
G1 X42.227 Y92.907 E.02468
G1 X43.383 Y92.966 E.01235
G1 X45.529 Y93.224 E.02305
G1 X46.994 Y93.833 E.01692
G1 X47.985 Y95.072 E.01692
G1 X48.267 Y96.386 E.01434
G1 X48.269 Y137.799 E.44173
G1 X47.875 Y139.335 E.01692
G1 X46.791 Y140.493 E.01692
G1 X45.531 Y140.961 E.01434
G1 X44.537 Y141.105 E.0107
G1 X43.233 Y141.23 E.01398
G1 X40.92 Y141.278 E.02468
G1 X39.764 Y141.219 E.01235
G1 X37.618 Y140.961 E.02305
G1 X36.154 Y140.352 E.01692
G1 X35.163 Y139.113 E.01692
G1 X34.88 Y137.799 E.01434
G1 X34.879 Y96.387 E.44173
G1 X35.272 Y94.85 E.01692
G1 X36.357 Y93.692 E.01692
G1 X37.588 Y93.235 E.01402
G1 E-2.1 F3000
;WIPE_START
G1 F3360
G1 X38.585 Y93.084 E-.855
;WIPE_END
G1 E-.045 F3000
G1 X38.771 Y96.99 F4200
G1 E3 F2400
;TYPE:Perimeter
;WIDTH:0.224999
G1 F1200
G1 X39.151 Y96.935 E.0041
G1 X40.118 Y96.843 E.01036
G1 X41.031 Y96.799 E.00976
G1 X41.574 Y96.796 E.00578
G1 X42.116 Y96.799 E.00578
G1 X43.065 Y96.846 E.01013
G1 X44.376 Y96.99 E.01408
G1 X44.376 Y137.195 E.42885
G1 X43.996 Y137.25 E.0041
G1 X43.029 Y137.343 E.01036
G1 X42.116 Y137.387 E.00976
G1 X41.031 Y137.387 E.01157
G1 X40.083 Y137.34 E.01013
G1 X38.771 Y137.195 E.01408
G1 X38.771 Y97.02 E.42853
G1 X38.576 Y96.821 F4200
G1 F1200
G1 X39.128 Y96.742 E.00595
G1 X40.104 Y96.648 E.01046
G1 X41.084 Y96.601 E.01046
G1 X42.064 Y96.601 E.01046
G1 X43.044 Y96.648 E.01047
G1 X44.019 Y96.742 E.01045
G1 X44.571 Y96.821 E.00595
G1 X44.571 Y137.364 E.43245
G1 X44.019 Y137.444 E.00595
G1 X43.043 Y137.537 E.01046
G1 X42.064 Y137.584 E.01046
G1 X41.084 Y137.584 E.01046
G1 X40.103 Y137.537 E.01047
G1 X39.128 Y137.444 E.01045
G1 X38.576 Y137.364 E.00595
G1 X38.576 Y96.851 E.43213
G1 X38.381 Y96.653 F4200
G1 F1200
G1 X39.105 Y96.548 E.0078
G1 X40.09 Y96.454 E.01056
G1 X41.079 Y96.406 E.01056
G1 X42.068 Y96.406 E.01055
G1 X43.058 Y96.454 E.01057
G1 X44.043 Y96.548 E.01055
G1 X44.766 Y96.653 E.0078
G1 X44.766 Y137.533 E.43605
G1 X44.043 Y137.637 E.0078
G1 X43.057 Y137.732 E.01056
G1 X42.068 Y137.779 E.01056
G1 X41.079 Y137.779 E.01055
G1 X40.089 Y137.732 E.01057
G1 X39.105 Y137.637 E.01055
G1 X38.381 Y137.533 E.0078
G1 X38.381 Y96.683 E.43573
G1 X38.186 Y96.484 F4200
;TYPE:External perimeter
G1 F1200
G1 X39.081 Y96.354 E.00965
G1 X40.076 Y96.259 E.01066
G1 X41.074 Y96.211 E.01066
G1 X42.073 Y96.211 E.01065
G1 X43.072 Y96.259 E.01067
G1 X44.066 Y96.354 E.01065
G1 X44.961 Y96.484 E.00965
G1 X44.961 Y137.702 E.43965
G1 X44.066 Y137.831 E.00965
G1 X43.071 Y137.926 E.01066
G1 X42.073 Y137.974 E.01066
G1 X41.074 Y137.974 E.01065
G1 X40.075 Y137.926 E.01067
G1 X39.081 Y137.831 E.01065
G1 X38.186 Y137.702 E.00965
G1 X38.186 Y96.514 E.43933
G1 X38.369 Y96.566 F4200
G1 E-3 F3000
G1 X43.874 Y96.992 F4200
G1 E3 F2400
;TYPE:Solid infill
;WIDTH:0.225597
G1 F1200
G1 X44.23 Y97.348 E.00539
G1 X44.23 Y97.625 E.00296
G1 X43.663 Y97.058 E.00858
G1 X43.353 Y97.024 E.00333
G1 X44.23 Y97.901 E.01327
G1 X44.23 Y98.178 E.00296
G1 X43.043 Y96.991 E.01796
G1 X42.751 Y96.976 E.00313
G1 X44.23 Y98.455 E.02238
G1 X44.23 Y98.731 E.00296
G1 X42.461 Y96.962 E.02677
G1 X42.17 Y96.948 E.00311
G1 X44.23 Y99.008 E.03117
G1 X44.23 Y99.284 E.00296
G1 X41.89 Y96.944 E.0354
G1 X41.613 Y96.944 E.00297
G1 X44.23 Y99.561 E.0396
G1 X44.23 Y99.837 E.00296
G1 X41.336 Y96.943 E.04379
G1 X41.06 Y96.944 E.00295
G1 X44.23 Y100.114 E.04797
G1 X44.23 Y100.39 E.00296
G1 X40.796 Y96.956 E.05196
G1 X40.532 Y96.969 E.00283
G1 X44.23 Y100.667 E.05595
G1 X44.23 Y100.943 E.00296
G1 X40.268 Y96.982 E.05995
G1 X40.011 Y97.001 E.00276
G1 X44.23 Y101.22 E.06384
G1 X44.23 Y101.497 E.00296
G1 X39.761 Y97.028 E.06762
G1 X39.512 Y97.055 E.00269
G1 X44.23 Y101.773 E.0714
G1 X44.23 Y102.05 E.00296
G1 X39.262 Y97.081 E.07518
G1 X39.012 Y97.108 E.00269
G1 X44.23 Y102.326 E.07895
G1 X44.23 Y102.603 E.00296
G1 X38.917 Y97.29 E.08039
G1 X38.917 Y97.567 E.00296
G1 X44.23 Y102.879 E.08039
G1 X44.23 Y103.156 E.00296
G1 X38.917 Y97.843 E.08039
G1 X38.917 Y98.12 E.00296
G1 X44.23 Y103.432 E.08039
G1 X44.23 Y103.709 E.00296
G1 X38.917 Y98.396 E.08039
G1 X38.917 Y98.673 E.00296
G1 X44.23 Y103.986 E.08039
G1 X44.23 Y104.262 E.00296
G1 X38.917 Y98.949 E.08039
G1 X38.917 Y99.226 E.00296
G1 X44.23 Y104.539 E.08039
G1 X44.23 Y104.815 E.00296
G1 X38.917 Y99.502 E.08039
G1 X38.917 Y99.779 E.00296
G1 X44.23 Y105.092 E.08039
G1 X44.23 Y105.368 E.00296
G1 X38.917 Y100.055 E.08039
G1 X38.917 Y100.332 E.00296
G1 X44.23 Y105.645 E.08039
G1 X44.23 Y105.921 E.00296
G1 X38.917 Y100.609 E.08039
G1 X38.917 Y100.885 E.00296
G1 X44.23 Y106.198 E.08039
G1 X44.23 Y106.475 E.00296
G1 X38.917 Y101.162 E.08039
G1 X38.917 Y101.438 E.00296
G1 X44.23 Y106.751 E.08039
G1 X44.23 Y107.028 E.00296
G1 X38.917 Y101.715 E.08039
G1 X38.917 Y101.991 E.00296
G1 X44.23 Y107.304 E.08039
G1 X44.23 Y107.581 E.00296
G1 X38.917 Y102.268 E.08039
G1 X38.917 Y102.544 E.00296
G1 X44.23 Y107.857 E.08039
G1 X44.23 Y108.134 E.00296
G1 X38.917 Y102.821 E.08039
G1 X38.917 Y103.098 E.00296
G1 X44.23 Y108.41 E.08039
G1 X44.23 Y108.687 E.00296
G1 X38.917 Y103.374 E.08039
G1 X38.917 Y103.651 E.00296
G1 X44.23 Y108.964 E.08039
G1 X44.23 Y109.24 E.00296
G1 X38.917 Y103.927 E.08039
G1 X38.917 Y104.204 E.00296
G1 X44.23 Y109.517 E.08039
G1 X44.23 Y109.793 E.00296
G1 X38.917 Y104.48 E.08039
G1 X38.917 Y104.757 E.00296
G1 X44.23 Y110.07 E.08039
G1 X44.23 Y110.346 E.00296
G1 X38.917 Y105.033 E.08039
G1 X38.917 Y105.31 E.00296
G1 X44.23 Y110.623 E.08039
G1 X44.23 Y110.899 E.00296
G1 X38.917 Y105.587 E.08039
G1 X38.917 Y105.863 E.00296
G1 X44.23 Y111.176 E.08039
G1 X44.23 Y111.453 E.00296
G1 X38.917 Y106.14 E.08039
G1 X38.917 Y106.416 E.00296
G1 X44.23 Y111.729 E.08039
G1 X44.23 Y112.006 E.00296
G1 X38.917 Y106.693 E.08039
G1 X38.917 Y106.969 E.00296
G1 X44.23 Y112.282 E.08039
G1 X44.23 Y112.559 E.00296
G1 X38.917 Y107.246 E.08039
G1 X38.917 Y107.522 E.00296
G1 X44.23 Y112.835 E.08039
G1 X44.23 Y113.112 E.00296
G1 X38.917 Y107.799 E.08039
G1 X38.917 Y108.076 E.00296
G1 X44.23 Y113.388 E.08039
G1 X44.23 Y113.665 E.00296
G1 X38.917 Y108.352 E.08039
G1 X38.917 Y108.629 E.00296
G1 X44.23 Y113.942 E.08039
G1 X44.23 Y114.218 E.00296
G1 X38.917 Y108.905 E.08039
G1 X38.917 Y109.182 E.00296
G1 X44.23 Y114.495 E.08039
G1 X44.23 Y114.771 E.00296
G1 X38.917 Y109.458 E.08039
G1 X38.917 Y109.735 E.00296
G1 X44.23 Y115.048 E.08039
G1 X44.23 Y115.324 E.00296
G1 X38.917 Y110.011 E.08039
G1 X38.917 Y110.288 E.00296
G1 X44.23 Y115.601 E.08039
G1 X44.23 Y115.877 E.00296
G1 X38.917 Y110.565 E.08039
G1 X38.917 Y110.841 E.00296
G1 X44.23 Y116.154 E.08039
G1 X44.23 Y116.431 E.00296
G1 X38.917 Y111.118 E.08039
G1 X38.917 Y111.394 E.00296
G1 X44.23 Y116.707 E.08039
G1 X44.23 Y116.984 E.00296
G1 X38.917 Y111.671 E.08039
G1 X38.917 Y111.947 E.00296
G1 X44.23 Y117.26 E.08039
G1 X44.23 Y117.537 E.00296
G1 X38.917 Y112.224 E.08039
G1 X38.917 Y112.5 E.00296
G1 X44.23 Y117.813 E.08039
G1 X44.23 Y118.09 E.00296
G1 X38.917 Y112.777 E.08039
G1 X38.917 Y113.054 E.00296
G1 X44.23 Y118.366 E.08039
G1 X44.23 Y118.643 E.00296
G1 X38.917 Y113.33 E.08039
G1 X38.917 Y113.607 E.00296
G1 X44.23 Y118.919 E.08039
G1 X44.23 Y119.196 E.00296
G1 X38.917 Y113.883 E.08039
G1 X38.917 Y114.16 E.00296
G1 X44.23 Y119.473 E.08039
G1 X44.23 Y119.749 E.00296
G1 X38.917 Y114.436 E.08039
G1 X38.917 Y114.713 E.00296
G1 X44.23 Y120.026 E.08039
G1 X44.23 Y120.302 E.00296
G1 X38.917 Y114.989 E.08039
G1 X38.917 Y115.266 E.00296
G1 X44.23 Y120.579 E.08039
G1 X44.23 Y120.855 E.00296
G1 X38.917 Y115.543 E.08039
G1 X38.917 Y115.819 E.00296
G1 X44.23 Y121.132 E.08039
G1 X44.23 Y121.408 E.00296
G1 X38.917 Y116.096 E.08039
G1 X38.917 Y116.372 E.00296
G1 X44.23 Y121.685 E.08039
G1 X44.23 Y121.962 E.00296
G1 X38.917 Y116.649 E.08039
G1 X38.917 Y116.925 E.00296
G1 X44.23 Y122.238 E.08039
G1 X44.23 Y122.515 E.00296
G1 X38.917 Y117.202 E.08039
G1 X38.917 Y117.478 E.00296
G1 X44.23 Y122.791 E.08039
G1 X44.23 Y123.068 E.00296
G1 X38.917 Y117.755 E.08039
G1 X38.917 Y118.031 E.00296
G1 X44.23 Y123.344 E.08039
G1 X44.23 Y123.621 E.00296
G1 X38.917 Y118.308 E.08039
G1 X38.917 Y118.585 E.00296
G1 X44.23 Y123.897 E.08039
G1 X44.23 Y124.174 E.00296
G1 X38.917 Y118.861 E.08039
G1 X38.917 Y119.138 E.00296
G1 X44.23 Y124.451 E.08039
G1 X44.23 Y124.727 E.00296
G1 X38.917 Y119.414 E.08039
G1 X38.917 Y119.691 E.00296
G1 X44.23 Y125.004 E.08039
G1 X44.23 Y125.28 E.00296
G1 X38.917 Y119.967 E.08039
G1 X38.917 Y120.244 E.00296
G1 X44.23 Y125.557 E.08039
G1 X44.23 Y125.833 E.00296
G1 X38.917 Y120.52 E.08039
G1 X38.917 Y120.797 E.00296
G1 X44.23 Y126.11 E.08039
G1 X44.23 Y126.386 E.00296
G1 X38.917 Y121.074 E.08039
G1 X38.917 Y121.35 E.00296
G1 X44.23 Y126.663 E.08039
G1 X44.23 Y126.94 E.00296
G1 X38.917 Y121.627 E.08039
G1 X38.917 Y121.903 E.00296
G1 X44.23 Y127.216 E.08039
G1 X44.23 Y127.493 E.00296
G1 X38.917 Y122.18 E.08039
G1 X38.917 Y122.456 E.00296
G1 X44.23 Y127.769 E.08039
G1 X44.23 Y128.046 E.00296
G1 X38.917 Y122.733 E.08039
G1 X38.917 Y123.009 E.00296
G1 X44.23 Y128.322 E.08039
G1 X44.23 Y128.599 E.00296
G1 X38.917 Y123.286 E.08039
G1 X38.917 Y123.563 E.00296
G1 X44.23 Y128.875 E.08039
G1 X44.23 Y129.152 E.00296
G1 X38.917 Y123.839 E.08039
G1 X38.917 Y124.116 E.00296
G1 X44.23 Y129.429 E.08039
G1 X44.23 Y129.705 E.00296
G1 X38.917 Y124.392 E.08039
G1 X38.917 Y124.669 E.00296
G1 X44.23 Y129.982 E.08039
G1 X44.23 Y130.258 E.00296
G1 X38.917 Y124.945 E.08039
G1 X38.917 Y125.222 E.00296
G1 X44.23 Y130.535 E.08039
G1 X44.23 Y130.811 E.00296
G1 X38.917 Y125.498 E.08039
G1 X38.917 Y125.775 E.00296
G1 X44.23 Y131.088 E.08039
G1 X44.23 Y131.364 E.00296
G1 X38.917 Y126.052 E.08039
G1 X38.917 Y126.328 E.00296
G1 X44.23 Y131.641 E.08039
G1 X44.23 Y131.918 E.00296
G1 X38.917 Y126.605 E.08039
G1 X38.917 Y126.881 E.00296
G1 X44.23 Y132.194 E.08039
G1 X44.23 Y132.471 E.00296
G1 X38.917 Y127.158 E.08039
G1 X38.917 Y127.434 E.00296
G1 X44.23 Y132.747 E.08039
G1 X44.23 Y133.024 E.00296
G1 X38.917 Y127.711 E.08039
G1 X38.917 Y127.987 E.00296
G1 X44.23 Y133.3 E.08039
G1 X44.23 Y133.577 E.00296
G1 X38.917 Y128.264 E.08039
G1 X38.917 Y128.541 E.00296
G1 X44.23 Y133.853 E.08039
G1 X44.23 Y134.13 E.00296
G1 X38.917 Y128.817 E.08039
G1 X38.917 Y129.094 E.00296
G1 X44.23 Y134.406 E.08039
G1 X44.23 Y134.683 E.00296
G1 X38.917 Y129.37 E.08039
G1 X38.917 Y129.647 E.00296
G1 X44.23 Y134.96 E.08039
G1 X44.23 Y135.236 E.00296
G1 X38.917 Y129.923 E.08039
G1 X38.917 Y130.2 E.00296
G1 X44.23 Y135.513 E.08039
G1 X44.23 Y135.789 E.00296
G1 X38.917 Y130.476 E.08039
G1 X38.917 Y130.753 E.00296
G1 X44.23 Y136.066 E.08039
G1 X44.23 Y136.342 E.00296
G1 X38.917 Y131.03 E.08039
G1 X38.917 Y131.306 E.00296
G1 X44.23 Y136.619 E.08039
G1 X44.23 Y136.895 E.00296
G1 X38.917 Y131.583 E.08039
G1 X38.917 Y131.859 E.00296
G1 X44.135 Y137.077 E.07895
G1 X43.885 Y137.104 E.00269
G1 X38.917 Y132.136 E.07517
G1 X38.917 Y132.412 E.00296
G1 X43.636 Y137.131 E.0714
G1 X43.386 Y137.158 E.00269
G1 X38.917 Y132.689 E.06762
G1 X38.917 Y132.965 E.00296
G1 X43.136 Y137.184 E.06384
G1 X42.879 Y137.204 E.00276
G1 X38.917 Y133.242 E.05995
G1 X38.917 Y133.518 E.00296
G1 X42.615 Y137.216 E.05595
G1 X42.351 Y137.229 E.00283
G1 X38.917 Y133.795 E.05196
G1 X38.917 Y134.072 E.00296
G1 X42.087 Y137.242 E.04797
G1 X41.812 Y137.243 E.00294
G1 X38.917 Y134.348 E.0438
G1 X38.917 Y134.625 E.00296
G1 X41.536 Y137.243 E.03962
G1 X41.259 Y137.243 E.00296
G1 X38.917 Y134.901 E.03544
G1 X38.917 Y135.178 E.00296
G1 X40.977 Y137.238 E.03117
G1 X40.687 Y137.224 E.00311
G1 X38.917 Y135.454 E.02677
G1 X38.917 Y135.731 E.00296
G1 X40.396 Y137.21 E.02238
G1 X40.104 Y137.194 E.00313
G1 X38.917 Y136.007 E.01796
G1 X38.917 Y136.284 E.00296
G1 X39.794 Y137.161 E.01327
G1 X39.485 Y137.128 E.00333
G1 X38.917 Y136.561 E.00858
G1 X38.917 Y136.837 E.00296
G1 X39.274 Y137.193 E.00539
M106 S255
;LAYER_CHANGE
;Z:0.26
;HEIGHT:0.12
;BEFORE_LAYER_CHANGE
G92 E0
;0.26


G1 Z.26 F4200
;AFTER_LAYER_CHANGE
;0.26
G1 X38.784 Y137.184
;TYPE:Perimeter
;WIDTH:0.224999
G1 F1800
G1 X38.784 Y97.001 E.37547
G1 X39.153 Y96.948 E.00349
G1 X40.119 Y96.855 E.00906
G1 X41.032 Y96.812 E.00855
G1 X41.574 Y96.809 E.00506
G1 X42.115 Y96.812 E.00506
G1 X43.065 Y96.859 E.00889
G1 X44.363 Y97.001 E.01221
G1 X44.363 Y137.184 E.37547
G1 X43.994 Y137.237 E.00349
G1 X43.028 Y137.33 E.00906
G1 X42.115 Y137.374 E.00855
G1 X41.574 Y137.376 E.00506
G1 X41.032 Y137.374 E.00506
G1 X40.082 Y137.327 E.00889
G1 X38.814 Y137.187 E.01193
G1 X38.585 Y137.357 F4200
G1 F1800
G1 X38.585 Y96.829 E.37869
G1 X39.129 Y96.75 E.00514
G1 X40.105 Y96.657 E.00915
G1 X41.084 Y96.61 E.00916
G1 X42.063 Y96.61 E.00915
G1 X43.045 Y96.657 E.00918
G1 X44.018 Y96.75 E.00913
G1 X44.563 Y96.829 E.00514
G1 X44.563 Y137.357 E.37869
G1 X44.018 Y137.435 E.00514
G1 X43.043 Y137.529 E.00915
G1 X42.063 Y137.576 E.00916
G1 X41.084 Y137.576 E.00915
G1 X40.102 Y137.529 E.00918
G1 X39.129 Y137.435 E.00913
G1 X38.614 Y137.361 E.00486
G1 X38.385 Y137.529 F4200
G1 F1800
G1 X38.385 Y96.656 E.38192
G1 X39.106 Y96.552 E.0068
G1 X40.09 Y96.458 E.00924
G1 X41.079 Y96.41 E.00925
G1 X42.068 Y96.41 E.00924
G1 X43.059 Y96.458 E.00927
G1 X44.042 Y96.552 E.00922
G1 X44.762 Y96.656 E.0068
G1 X44.762 Y137.529 E.38192
