; generated by PrusaSlicer 2.6.0-beta4+linux-x64-GTK3 on 2023-06-10 at 19:35:49 UTC

; 

; external perimeters extrusion width = 0.23mm
; perimeters extrusion width = 0.23mm
; infill extrusion width = 0.23mm
; solid infill extrusion width = 0.23mm
; top infill extrusion width = 0.20mm

; external perimeters extrusion width = 0.23mm
; perimeters extrusion width = 0.23mm
; infill extrusion width = 0.23mm
; solid infill extrusion width = 0.23mm
; top infill extrusion width = 0.20mm

;TYPE:Custom
G90 ; use absolute coordinates
M83 ; extruder relative mode
M140 S55 ; set final bed temp
;M104 S150 ; set temporary nozzle temp to prevent oozing during homing
G4 S10 ; allow partial nozzle warmup
G28 ; home all axis
G1 Z50 F240
G1 X2 Y10 F3000
M104 S175 ; set final nozzle temp
M190 S55 ; wait for bed temp to stabilize
M109 S175 ; wait for nozzle temp to stabilize
G92 E0
G21 ; set units to millimeters
G90 ; use absolute coordinates
M83 ; use relative distances for extrusion
; Filament gcode
M107
;LAYER_CHANGE
;Z:0.14
;HEIGHT:0.14
;BEFORE_LAYER_CHANGE
G92 E0
;0.14


G1 Z.14 F4200
;AFTER_LAYER_CHANGE
;0.14
G1 E-3 F3000
G1 X41.68 Y137.872 F4200
G1 E3 F2400
M204 P500
;TYPE:Skirt/Brim
;WIDTH:0.225
G1 F1200
G1 X43.357 Y137.375 E.01866
G1 X45.077 Y137.221 E.01842
G1 X46.492 Y137.348 E.01515
G1 X47.89 Y137.709 E.0154
G1 X49.189 Y138.284 E.01515
G1 X50.379 Y139.061 E.01516
G1 X51.399 Y139.988 E.0147
G1 X52.297 Y141.118 E.0154
G1 X53.007 Y142.399 E.01562
G1 X53.489 Y143.76 E.0154
G1 X53.699 Y144.811 E.01143
G1 X53.779 Y145.88 E.01143
G1 X53.78 Y170 E.25728
G1 X53.612 Y171.708 E.01831
G1 X53.095 Y173.4 E.01887
G1 X52.297 Y174.882 E.01795
G1 X51.185 Y176.232 E.01866
G1 X49.846 Y177.321 E.01841
G1 X48.32 Y178.128 E.01841
G1 X46.708 Y178.612 E.01795
G1 X44.967 Y178.78 E.01866
G1 X43.594 Y178.666 E.0147
G1 X42.173 Y178.312 E.01562
G1 X40.849 Y177.737 E.0154
G1 X39.621 Y176.939 E.01562
G1 X38.556 Y175.964 E.0154
G1 X37.703 Y174.882 E.0147
G1 X36.993 Y173.601 E.01562
G1 X36.511 Y172.24 E.0154
G1 X36.301 Y171.189 E.01143
G1 X36.221 Y170.12 E.01143
G1 X36.22 Y146 E.25728
G1 X36.388 Y144.292 E.01831
G1 X36.905 Y142.6 E.01887
G1 X37.703 Y141.118 E.01795
G1 X38.815 Y139.769 E.01865
G1 X40.118 Y138.703 E.01796
G1 X41.654 Y137.886 E.01856
G1 X41.745 Y138.057 F4200
G1 F1200
G1 X43.393 Y137.567 E.01834
G1 X45.075 Y137.416 E.01801
G1 X46.46 Y137.54 E.01483
G1 X47.825 Y137.893 E.01504
G1 X49.096 Y138.456 E.01483
G1 X50.261 Y139.216 E.01484
G1 X51.257 Y140.122 E.01436
G1 X52.135 Y141.225 E.01504
G1 X52.83 Y142.48 E.0153
G1 X53.3 Y143.808 E.01503
G1 X53.506 Y144.836 E.01118
G1 X53.584 Y145.881 E.01118
G1 X53.585 Y170 E.25727
G1 X53.421 Y171.669 E.01789
G1 X52.915 Y173.325 E.01847
G1 X52.135 Y174.775 E.01756
G1 X51.048 Y176.092 E.01821
G1 X49.738 Y177.159 E.01802
G1 X48.245 Y177.948 E.01801
G1 X46.669 Y178.421 E.01755
G1 X44.969 Y178.585 E.01822
G1 X43.626 Y178.474 E.01437
G1 X42.235 Y178.127 E.01529
G1 X40.942 Y177.565 E.01504
G1 X39.739 Y176.784 E.0153
G1 X38.7 Y175.832 E.01503
G1 X37.841 Y174.738 E.01484
G1 X37.17 Y173.52 E.01483
G1 X36.7 Y172.192 E.01503
G1 X36.494 Y171.164 E.01118
G1 X36.416 Y170.119 E.01118
G1 X36.415 Y146 E.25727
G1 X36.579 Y144.331 E.01789
G1 X37.086 Y142.674 E.01848
G1 X37.865 Y141.225 E.01755
G1 X38.952 Y139.908 E.01821
G1 X40.225 Y138.865 E.01755
G1 X41.719 Y138.071 E.01805
G1 X41.809 Y138.243 F4200
G1 F1200
G1 X43.428 Y137.759 E.01802
G1 X45.073 Y137.611 E.01762
G1 X46.428 Y137.733 E.01451
G1 X47.759 Y138.077 E.01466
G1 X49.042 Y138.648 E.01498
G1 X50.189 Y139.407 E.01467
G1 X51.156 Y140.3 E.01404
G1 X52.02 Y141.406 E.01497
G1 X52.677 Y142.615 E.01468
G1 X53.133 Y143.942 E.01497
G1 X53.324 Y144.948 E.01092
G1 X53.389 Y145.883 E.01
G1 X53.39 Y170 E.25725
G1 X53.23 Y171.63 E.01747
G1 X52.734 Y173.251 E.01808
G1 X51.972 Y174.667 E.01715
G1 X50.912 Y175.953 E.01778
G1 X49.594 Y177.02 E.01809
G1 X48.17 Y177.768 E.01716
G1 X46.63 Y178.23 E.01715
G1 X44.97 Y178.39 E.01779
G1 X43.658 Y178.282 E.01404
G1 X42.297 Y177.942 E.01496
G1 X41.035 Y177.394 E.01468
G1 X39.858 Y176.629 E.01497
G1 X38.844 Y175.7 E.01467
G1 X37.98 Y174.594 E.01497
G1 X37.324 Y173.385 E.01467
G1 X36.867 Y172.058 E.01497
G1 X36.682 Y171.095 E.01046
G1 X36.611 Y170.117 E.01046
G1 X36.61 Y146 E.25725
G1 X36.77 Y144.37 E.01747
G1 X37.266 Y142.749 E.01808
G1 X38.028 Y141.333 E.01715
G1 X39.088 Y140.047 E.01778
G1 X40.369 Y139.004 E.01762
G1 X41.783 Y138.257 E.01706
G1 X41.874 Y138.428 F4200
G1 F1200
G1 X43.464 Y137.95 E.01771
G1 X45.071 Y137.806 E.01721
G1 X46.396 Y137.925 E.01419
G1 X47.694 Y138.261 E.0143
G1 X48.949 Y138.819 E.01465
G1 X50.067 Y139.56 E.01431
G1 X51.012 Y140.431 E.01371
G1 X51.858 Y141.513 E.01465
G1 X52.498 Y142.692 E.01431
G1 X52.945 Y143.99 E.01464
G1 X53.13 Y144.974 E.01068
G1 X53.194 Y145.885 E.00974
G1 X53.195 Y170 E.25723
G1 X53.039 Y171.591 E.01705
G1 X52.554 Y173.176 E.01768
G1 X51.809 Y174.559 E.01676
G1 X50.775 Y175.814 E.01734
G1 X49.523 Y176.833 E.01722
G1 X48.096 Y177.588 E.01722
G1 X46.591 Y178.039 E.01676
G1 X44.972 Y178.195 E.01735
G1 X43.69 Y178.09 E.01372
G1 X42.358 Y177.757 E.01465
G1 X41.128 Y177.223 E.0143
G1 X39.977 Y176.475 E.01464
G1 X38.988 Y175.569 E.01431
G1 X38.142 Y174.487 E.01465
G1 X37.502 Y173.308 E.01431
G1 X37.055 Y172.01 E.01464
G1 X36.875 Y171.07 E.01021
G1 X36.806 Y170.115 E.01021
G1 X36.805 Y146 E.25723
G1 X36.961 Y144.409 E.01705
G1 X37.446 Y142.824 E.01768
G1 X38.222 Y141.394 E.01735
G1 X39.225 Y140.186 E.01675
G1 X40.441 Y139.191 E.01676
G1 X41.847 Y138.443 E.01699
G1 E-2.1 F3000
;WIPE_START
G1 F3360
G1 X42.862 Y138.134 E-.9
;WIPE_END
G1 X44.083 Y165.222 F4200
G1 E3 F2400
;TYPE:External perimeter
;WIDTH:0.267987
G1 F1200
G1 X44.943 Y165.15 E.01124
;WIDTH:0.276619
G1 X45.52 Y165.167 E.00779
G1 X46.018 Y165.243 E.0068
;WIDTH:0.267583
G1 X46.911 Y165.527 E.01218
;WIDTH:0.267988
G1 X47.73 Y165.973 E.01214
;WIDTH:0.274416
G1 X48.13 Y166.279 E.00673
G1 X48.503 Y166.626 E.00681
;WIDTH:0.270803
G1 X48.99 Y167.238 E.0103
;WIDTH:0.272607
G1 X49.327 Y167.783 E.0085
G1 X49.446 Y168.051 E.00389
;WIDTH:0.276685
G1 X49.652 Y168.589 E.00777
G1 X49.777 Y169.078 E.00681
;WIDTH:0.274416
G1 X49.844 Y169.583 E.00681
G1 X49.863 Y170.091 E.0068
;WIDTH:0.270817
G1 X49.776 Y170.872 E.01035
;WIDTH:0.27666
G1 X49.645 Y171.431 E.00775
G1 X49.476 Y171.907 E.00682
;WIDTH:0.267989
G1 X49.027 Y172.73 E.01221
;WIDTH:0.274416
G1 X48.721 Y173.13 E.00673
G1 X48.374 Y173.503 E.00681
;WIDTH:0.270816
G1 X47.759 Y173.992 E.01035
;WIDTH:0.275499
G1 X47.197 Y174.337 E.00886
G1 X46.737 Y174.543 E.00677
;WIDTH:0.270511
G1 X45.833 Y174.791 E.01233
;WIDTH:0.271034
G1 X44.904 Y174.862 E.01228
G1 X43.977 Y174.757 E.0123
;WIDTH:0.274414
G1 X43.491 Y174.622 E.00674
G1 X43.016 Y174.441 E.0068
;WIDTH:0.270432
G1 X42.201 Y173.977 E.01233
G1 X41.494 Y173.37 E.01226
;WIDTH:0.270977
G1 X40.915 Y172.639 E.01229
G1 X40.485 Y171.812 E.01229
;WIDTH:0.267979
G1 X40.222 Y170.917 E.01214
;WIDTH:0.274416
G1 X40.156 Y170.417 E.00674
G1 X40.138 Y169.909 E.0068
;WIDTH:0.271104
G1 X40.243 Y168.977 E.01237
;WIDTH:0.267987
G1 X40.512 Y168.16 E.0112
;WIDTH:0.274207
G1 X40.753 Y167.633 E.00774
G1 X41.02 Y167.205 E.00674
;WIDTH:0.270509
G1 X41.63 Y166.494 E.01233
;WIDTH:0.270977
G1 X42.361 Y165.915 E.01229
G1 X43.188 Y165.485 E.01229
;WIDTH:0.267987
G1 X44.054 Y165.23 E.01175
G1 X43.183 Y165.742 F4200
;WIDTH:0.260504
G1 F1200
G1 X44.027 Y165.474 E.01117
;WIDTH:0.274393
G1 X44.932 Y165.374 E.01217
;WIDTH:0.276619
G1 X45.49 Y165.412 E.00755
G1 X45.948 Y165.47 E.00623
;WIDTH:0.267583
G1 X46.726 Y165.704 E.01056
;WIDTH:0.260502
G1 X47.512 Y166.111 E.01116
;WIDTH:0.274416
G1 X47.971 Y166.464 E.00774
G1 X48.321 Y166.783 E.00633
;WIDTH:0.270803
G1 X48.785 Y167.337 E.00952
;WIDTH:0.272607
G1 X49.233 Y168.128 E.01206
;WIDTH:0.276685
G1 X49.415 Y168.657 E.00755
G1 X49.541 Y169.108 E.00632
;WIDTH:0.26792
G1 X49.63 Y169.908 E.01048
;WIDTH:0.273009
G1 X49.555 Y170.817 E.01212
;WIDTH:0.27666
G1 X49.411 Y171.355 E.00751
G1 X49.266 Y171.795 E.00625
;WIDTH:0.267581
G1 X48.888 Y172.514 E.01056
;WIDTH:0.274416
G1 X48.536 Y172.971 E.00771
G1 X48.217 Y173.321 E.00633
;WIDTH:0.270816
G1 X47.662 Y173.786 E.00954
;WIDTH:0.275499
G1 X47.087 Y174.117 E.00891
G1 X46.669 Y174.312 E.00619
;WIDTH:0.270511
G1 X45.973 Y174.525 E.00958
;WIDTH:0.25781
G1 X45.092 Y174.628 E.01105
;WIDTH:0.260527
G1 X44.128 Y174.547 E.0122
;WIDTH:0.274414
G1 X43.57 Y174.391 E.00775
G1 X43.131 Y174.229 E.00626
;WIDTH:0.270511
G1 X42.488 Y173.888 E.00958
;WIDTH:0.257806
G1 X41.793 Y173.337 E.01105
G1 X41.214 Y172.662 E.01108
;WIDTH:0.260526
G1 X40.743 Y171.82 E.01217
G1 X40.474 Y170.973 E.01121
;WIDTH:0.274416
G1 X40.399 Y170.399 E.00774
G1 X40.377 Y169.933 E.00624
;WIDTH:0.271104
G1 X40.453 Y169.129 E.01065
;WIDTH:0.274347
G1 X40.714 Y168.257 E.01217
;WIDTH:0.274207
G1 X40.965 Y167.754 E.00751
G1 X41.205 Y167.358 E.00619
;WIDTH:0.270509
G1 X41.663 Y166.793 E.00957
;WIDTH:0.257858
G1 X42.338 Y166.214 E.01108
;WIDTH:0.260522
G1 X43.156 Y165.756 E.01182
G1 X43.65 Y166.659 F4200
;TYPE:Perimeter
;WIDTH:0.224999
G1 F1200
G1 X44.312 Y166.463 E.00736
G1 X44.997 Y166.397 E.00734
G1 X45.753 Y166.476 E.00811
G1 X46.408 Y166.683 E.00733
G1 X47.015 Y167.013 E.00737
G1 X47.548 Y167.452 E.00737
G1 X47.988 Y167.985 E.00737
G1 X48.317 Y168.592 E.00736
G1 X48.524 Y169.248 E.00734
G1 X48.603 Y170.004 E.00811
G1 X48.537 Y170.688 E.00733
G1 X48.342 Y171.347 E.00733
G1 X47.985 Y172.018 E.00811
G1 X47.548 Y172.548 E.00733
G1 X47.015 Y172.988 E.00737
G1 X46.408 Y173.317 E.00736
G1 X45.753 Y173.524 E.00733
G1 X44.996 Y173.603 E.00812
G1 X44.312 Y173.537 E.00733
G1 X43.65 Y173.341 E.00736
G1 X43.041 Y173.024 E.00732
G1 X42.449 Y172.545 E.00812
G1 X42.012 Y172.015 E.00733
G1 X41.683 Y171.408 E.00736
G1 X41.476 Y170.752 E.00734
G1 X41.397 Y169.996 E.00811
G1 X41.463 Y169.313 E.00732
G1 X41.658 Y168.653 E.00734
G1 X42.015 Y167.982 E.00811
G1 X42.449 Y167.455 E.00728
G1 X43.041 Y166.976 E.00812
G1 X43.623 Y166.673 E.007
G1 X43.577 Y166.477 F4200
G1 F1200
G1 X44.275 Y166.27 E.00777
G1 X44.998 Y166.201 E.00775
G1 X45.793 Y166.284 E.00853
G1 X46.485 Y166.503 E.00774
G1 X47.125 Y166.85 E.00777
G1 X47.687 Y167.313 E.00777
G1 X48.15 Y167.875 E.00777
G1 X48.497 Y168.515 E.00777
G1 X48.716 Y169.208 E.00775
G1 X48.799 Y170.003 E.00853
G1 X48.73 Y170.725 E.00774
G1 X48.523 Y171.422 E.00776
G1 X48.148 Y172.127 E.00852
G1 X47.687 Y172.687 E.00774
G1 X47.125 Y173.15 E.00777
G1 X46.484 Y173.497 E.00777
G1 X45.793 Y173.716 E.00773
G1 X44.997 Y173.799 E.00854
G1 X44.275 Y173.73 E.00774
G1 X43.577 Y173.523 E.00777
G1 X42.933 Y173.188 E.00774
G1 X42.311 Y172.684 E.00854
G1 X41.85 Y172.125 E.00773
G1 X41.503 Y171.485 E.00777
G1 X41.284 Y170.792 E.00775
G1 X41.201 Y169.997 E.00853
G1 X41.27 Y169.275 E.00774
G1 X41.477 Y168.578 E.00776
G1 X41.852 Y167.873 E.00852
G1 X42.311 Y167.316 E.0077
G1 X42.933 Y166.812 E.00854
G1 X43.55 Y166.491 E.00742
G1 X43.503 Y166.296 F4200
G1 F1200
G1 X44.238 Y166.078 E.00818
G1 X44.999 Y166.005 E.00815
G1 X45.833 Y166.093 E.00895
G1 X46.561 Y166.322 E.00814
G1 X47.234 Y166.688 E.00817
G1 X47.825 Y167.175 E.00817
G1 X48.312 Y167.766 E.00817
G1 X48.678 Y168.439 E.00817
G1 X48.908 Y169.169 E.00816
G1 X48.995 Y170.002 E.00893
G1 X48.922 Y170.762 E.00814
G1 X48.705 Y171.496 E.00816
G1 X48.311 Y172.236 E.00894
G1 X47.825 Y172.825 E.00815
G1 X47.234 Y173.312 E.00817
G1 X46.561 Y173.678 E.00817
G1 X45.833 Y173.907 E.00814
G1 X44.998 Y173.995 E.00896
G1 X44.238 Y173.922 E.00814
G1 X43.503 Y173.704 E.00818
G1 X42.826 Y173.352 E.00814
G1 X42.173 Y172.823 E.00896
G1 X41.688 Y172.234 E.00814
G1 X41.322 Y171.561 E.00817
G1 X41.092 Y170.831 E.00816
G1 X41.005 Y169.998 E.00893
G1 X41.078 Y169.238 E.00814
G1 X41.295 Y168.504 E.00816
G1 X41.689 Y167.764 E.00894
G1 X42.174 Y167.177 E.00812
G1 X42.826 Y166.648 E.00896
G1 X43.477 Y166.309 E.00783
G1 X43.43 Y166.114 F4200
G1 F1200
G1 X44.2 Y165.886 E.00857
G1 X45 Y165.809 E.00857
G1 X45.873 Y165.901 E.00936
G1 X46.638 Y166.142 E.00856
G1 X47.344 Y166.525 E.00857
G1 X47.964 Y167.036 E.00857
G1 X48.475 Y167.656 E.00857
G1 X48.858 Y168.362 E.00857
G1 X49.099 Y169.129 E.00858
G1 X49.191 Y170.001 E.00935
G1 X49.114 Y170.8 E.00856
G1 X48.886 Y171.57 E.00857
G1 X48.474 Y172.345 E.00936
G1 X47.964 Y172.964 E.00855
G1 X47.344 Y173.475 E.00857
G1 X46.638 Y173.858 E.00857
G1 X45.873 Y174.099 E.00856
G1 X44.999 Y174.191 E.00937
G1 X44.2 Y174.114 E.00856
G1 X43.43 Y173.886 E.00857
G1 X42.718 Y173.516 E.00856
G1 X42.036 Y172.963 E.00937
G1 X41.525 Y172.344 E.00856
G1 X41.142 Y171.638 E.00857
G1 X40.901 Y170.871 E.00858
G1 X40.809 Y169.999 E.00935
G1 X40.886 Y169.2 E.00856
G1 X41.114 Y168.43 E.00857
G1 X41.526 Y167.655 E.00936
G1 X42.036 Y167.037 E.00855
G1 X42.718 Y166.484 E.00937
G1 X43.403 Y166.128 E.00823
G1 X43.357 Y165.932 F4200
;TYPE:External perimeter
G1 F1200
G1 X44.163 Y165.694 E.00896
G1 X45.001 Y165.613 E.00898
G1 X45.913 Y165.709 E.00978
G1 X46.714 Y165.962 E.00896
G1 X47.453 Y166.363 E.00897
G1 X48.102 Y166.898 E.00897
G1 X48.637 Y167.547 E.00897
G1 X49.038 Y168.286 E.00897
G1 X49.291 Y169.089 E.00898
G1 X49.387 Y170 E.00977
G1 X49.306 Y170.837 E.00897
G1 X49.067 Y171.644 E.00898
G1 X48.637 Y172.454 E.00978
G1 X48.102 Y173.102 E.00896
G1 X47.453 Y173.637 E.00897
G1 X46.714 Y174.038 E.00897
G1 X45.913 Y174.291 E.00896
G1 X45 Y174.387 E.00979
G1 X44.163 Y174.306 E.00897
G1 X43.357 Y174.068 E.00896
G1 X42.611 Y173.679 E.00897
G1 X41.898 Y173.102 E.00978
G1 X41.363 Y172.453 E.00897
G1 X40.962 Y171.714 E.00897
G1 X40.709 Y170.911 E.00898
G1 X40.613 Y170 E.00977
G1 X40.694 Y169.163 E.00897
G1 X40.933 Y168.356 E.00898
G1 X41.363 Y167.546 E.00978
G1 X41.898 Y166.898 E.00896
G1 X42.611 Y166.321 E.00978
G1 X43.33 Y165.946 E.00865
G1 X43.515 Y166.055 F4200
G1 E-3 F3000
G1 X47.979 Y168.092 F4200
G1 E3 F2400
;TYPE:Solid infill
;WIDTH:0.227513
G1 F1200
G1 X47.437 Y167.55 E.00828
G1 X46.933 Y167.134 E.00706
G1 X46.516 Y166.908 E.00512
G1 X48.092 Y168.484 E.02408
G1 X48.182 Y168.649 E.00203
G1 X48.276 Y168.947 E.00338
G1 X46.053 Y166.724 E.03397
G1 X45.663 Y166.614 E.00438
G1 X48.386 Y169.337 E.04161
G1 X48.419 Y169.649 E.00339
G1 X45.351 Y166.581 E.04688
G1 X45.039 Y166.548 E.00339
G1 X48.452 Y169.961 E.05215
G1 X48.435 Y170.223 E.00284
G1 X44.777 Y166.565 E.05589
G1 X44.522 Y166.589 E.00277
G1 X48.411 Y170.478 E.05942
G1 X48.375 Y170.722 E.00266
G1 X44.278 Y166.625 E.0626
G1 X44.063 Y166.689 E.00242
G1 X48.311 Y170.937 E.06491
G1 X48.247 Y171.152 E.00242
G1 X43.847 Y166.753 E.06722
G1 X43.643 Y166.827 E.00234
G1 X48.172 Y171.356 E.0692
G1 X48.075 Y171.538 E.00223
G1 X43.459 Y166.923 E.07052
G1 X43.276 Y167.019 E.00223
G1 X47.978 Y171.721 E.07184
G1 X47.881 Y171.903 E.00223
G1 X43.097 Y167.119 E.0731
G1 X42.942 Y167.244 E.00215
G1 X47.76 Y172.061 E.07361
G1 X47.634 Y172.215 E.00215
G1 X42.788 Y167.369 E.07404
G1 X42.634 Y167.494 E.00214
G1 X47.507 Y172.368 E.07446
G1 X47.368 Y172.507 E.00212
G1 X42.493 Y167.632 E.07449
G1 X42.367 Y167.785 E.00214
G1 X47.215 Y172.633 E.07407
G1 X47.062 Y172.76 E.00215
G1 X42.24 Y167.938 E.07368
G1 X42.119 Y168.097 E.00216
G1 X46.904 Y172.881 E.0731
G1 X46.723 Y172.98 E.00223
G1 X42.023 Y168.279 E.07182
G1 X41.926 Y168.461 E.00223
G1 X46.542 Y173.078 E.07054
G1 X46.361 Y173.176 E.00222
G1 X41.829 Y168.644 E.06925
G1 X41.753 Y168.847 E.00234
G1 X46.151 Y173.245 E.0672
G1 X45.938 Y173.312 E.00241
G1 X41.689 Y169.063 E.06492
G1 X41.625 Y169.278 E.00242
G1 X45.726 Y173.379 E.06266
G1 X45.474 Y173.406 E.00274
G1 X41.589 Y169.521 E.05936
G1 X41.565 Y169.776 E.00277
G1 X45.221 Y173.433 E.05587
G1 X44.963 Y173.453 E.0028
G1 X41.548 Y170.039 E.05217
G1 X41.581 Y170.351 E.00339
G1 X44.654 Y173.423 E.04695
G1 X44.344 Y173.394 E.00336
G1 X41.614 Y170.663 E.04172
G1 X41.724 Y171.053 E.00438
G1 X43.949 Y173.277 E.03399
G1 X43.705 Y173.205 E.00275
G1 X43.48 Y173.088 E.00274
G1 X41.907 Y171.515 E.02403
G1 X42.134 Y171.933 E.00514
G1 X42.548 Y172.435 E.00703
G1 X43.104 Y172.991 E.0085
G1 E-2.1 F3000
;WIPE_START
G1 F3360
G1 X42.548 Y172.435 E-.66695
G1 X42.373 Y172.223 E-.23305
;WIPE_END
G1 X43.977 Y150.757 F4200
G1 E3 F2400
;TYPE:External perimeter
;WIDTH:0.274414
G1 F1200
G1 X43.491 Y150.622 E.00674
