; generated by PrusaSlicer 2.6.0-beta4+linux-x64-GTK3 on 2023-06-09 at 14:16:07 UTC

; 

; external perimeters extrusion width = 0.23mm
; perimeters extrusion width = 0.23mm
; infill extrusion width = 0.23mm
; solid infill extrusion width = 0.23mm
; top infill extrusion width = 0.20mm

; external perimeters extrusion width = 0.23mm
; perimeters extrusion width = 0.23mm
; infill extrusion width = 0.23mm
; solid infill extrusion width = 0.23mm
; top infill extrusion width = 0.20mm

;TYPE:Custom
G90 ; use absolute coordinates
M83 ; extruder relative mode
M140 S55 ; set final bed temp
;M104 S150 ; set temporary nozzle temp to prevent oozing during homing
G4 S10 ; allow partial nozzle warmup
G28 ; home all axis
G1 Z50 F240
G1 X2 Y10 F3000
M104 S175 ; set final nozzle temp
M190 S55 ; wait for bed temp to stabilize
M109 S175 ; wait for nozzle temp to stabilize
G92 E0
G21 ; set units to millimeters
G90 ; use absolute coordinates
M83 ; use relative distances for extrusion
; Filament gcode
M107
;LAYER_CHANGE
;Z:0.14
;HEIGHT:0.14
;BEFORE_LAYER_CHANGE
G92 E0
;0.14


G1 Z.14 F4200
;AFTER_LAYER_CHANGE
;0.14
G1 E-3 F3000
G1 X43.251 Y160.8 F4200
G1 E3 F2400
M204 P500
;TYPE:Skirt/Brim
;WIDTH:0.225
G1 F1200
G1 X45.082 Y160.636 E.01961
G1 X46.91 Y160.832 E.01961
G1 X48.694 Y161.395 E.01995
G1 X50.304 Y162.282 E.01961
G1 X51.71 Y163.468 E.01962
G1 X52.833 Y164.868 E.01914
G1 X53.697 Y166.527 E.01995
G1 X54.2 Y168.251 E.01916
G1 X54.364 Y170.125 E.02007
G1 X54.168 Y171.91 E.01915
G1 X53.605 Y173.694 E.01995
G1 X52.742 Y175.268 E.01915
G1 X51.533 Y176.71 E.02007
G1 X50.132 Y177.833 E.01915
G1 X48.473 Y178.697 E.01995
G1 X46.749 Y179.2 E.01916
G1 X44.875 Y179.364 E.02007
G1 X43.09 Y179.168 E.01915
G1 X41.306 Y178.605 E.01995
G1 X39.732 Y177.742 E.01915
G1 X38.29 Y176.533 E.02007
G1 X37.126 Y175.068 E.01996
G1 X36.303 Y173.473 E.01914
G1 X35.8 Y171.749 E.01916
G1 X35.636 Y169.875 E.02007
G1 X35.848 Y168.016 E.01996
G1 X36.395 Y166.306 E.01915
G1 X37.307 Y164.66 E.02007
G1 X38.468 Y163.29 E.01915
G1 X39.868 Y162.167 E.01914
G1 X41.527 Y161.303 E.01995
G1 X43.222 Y160.809 E.01883
G1 X43.276 Y160.995 F4200
G1 F1200
G1 X45.08 Y160.831 E.01932
G1 X46.871 Y161.023 E.01921
G1 X48.616 Y161.574 E.01952
G1 X50.194 Y162.443 E.01922
G1 X51.571 Y163.604 E.01921
G1 X52.71 Y165.036 E.01952
G1 X53.516 Y166.599 E.01876
G1 X54.008 Y168.286 E.01874
G1 X54.169 Y170.124 E.01968
G1 X53.977 Y171.871 E.01875
G1 X53.426 Y173.616 E.01952
G1 X52.582 Y175.158 E.01875
G1 X51.396 Y176.571 E.01968
G1 X49.964 Y177.71 E.01952
G1 X48.401 Y178.516 E.01876
G1 X46.714 Y179.008 E.01874
G1 X44.876 Y179.169 E.01968
G1 X43.129 Y178.977 E.01875
G1 X41.384 Y178.427 E.01952
G1 X39.842 Y177.582 E.01876
G1 X38.429 Y176.396 E.01968
G1 X37.29 Y174.964 E.01952
G1 X36.484 Y173.401 E.01876
G1 X35.992 Y171.714 E.01874
G1 X35.831 Y169.876 E.01968
G1 X36.038 Y168.058 E.01952
G1 X36.574 Y166.384 E.01875
G1 X37.418 Y164.842 E.01875
G1 X38.604 Y163.429 E.01968
G1 X40.036 Y162.29 E.01952
G1 X41.599 Y161.485 E.01875
G1 X43.247 Y161.003 E.01831
G1 X43.302 Y161.189 F4200
G1 F1200
G1 X45.078 Y161.026 E.01902
G1 X46.832 Y161.214 E.01882
G1 X48.538 Y161.752 E.01908
G1 X50.083 Y162.604 E.01882
G1 X51.432 Y163.741 E.01882
G1 X52.508 Y165.083 E.01835
G1 X53.334 Y166.67 E.01908
G1 X53.816 Y168.322 E.01836
G1 X53.974 Y170.122 E.01927
G1 X53.786 Y171.832 E.01835
G1 X53.248 Y173.539 E.01909
G1 X52.421 Y175.047 E.01835
G1 X51.259 Y176.432 E.01928
G1 X49.859 Y177.546 E.01908
G1 X48.33 Y178.334 E.01835
G1 X46.678 Y178.816 E.01836
G1 X44.878 Y178.974 E.01927
G1 X43.168 Y178.786 E.01835
G1 X41.462 Y178.248 E.01908
G1 X39.953 Y177.421 E.01835
G1 X38.568 Y176.259 E.01928
G1 X37.454 Y174.859 E.01908
G1 X36.666 Y173.33 E.01835
G1 X36.184 Y171.678 E.01836
G1 X36.026 Y169.878 E.01927
G1 X36.229 Y168.1 E.01909
G1 X36.752 Y166.461 E.01835
G1 X37.579 Y164.953 E.01835
G1 X38.741 Y163.568 E.01928
G1 X40.083 Y162.492 E.01835
G1 X41.67 Y161.666 E.01908
G1 X43.273 Y161.198 E.01781
G1 X43.327 Y161.384 F4200
G1 F1200
G1 X45.077 Y161.221 E.01875
G1 X46.793 Y161.405 E.01841
G1 X48.461 Y161.931 E.01866
G1 X49.973 Y162.764 E.01841
G1 X51.293 Y163.877 E.01842
G1 X52.381 Y165.246 E.01865
G1 X53.153 Y166.742 E.01796
G1 X53.625 Y168.357 E.01795
G1 X53.779 Y170.12 E.01888
G1 X53.595 Y171.793 E.01795
G1 X53.069 Y173.461 E.01866
G1 X52.26 Y174.937 E.01795
G1 X51.123 Y176.293 E.01888
G1 X49.809 Y177.345 E.01795
G1 X48.258 Y178.153 E.01865
G1 X46.643 Y178.625 E.01795
G1 X44.88 Y178.779 E.01888
G1 X43.207 Y178.595 E.01795
G1 X41.539 Y178.069 E.01866
G1 X40.063 Y177.26 E.01795
G1 X38.707 Y176.123 E.01888
G1 X37.619 Y174.754 E.01865
G1 X36.847 Y173.258 E.01796
G1 X36.375 Y171.643 E.01795
G1 X36.221 Y169.88 E.01888
G1 X36.419 Y168.142 E.01866
G1 X36.931 Y166.539 E.01795
G1 X37.74 Y165.063 E.01795
G1 X38.877 Y163.707 E.01888
G1 X40.191 Y162.655 E.01795
G1 X41.742 Y161.847 E.01865
G1 X43.298 Y161.392 E.01729
G1 X43.353 Y161.579 F4200
G1 F1200
G1 X45.075 Y161.416 E.01845
G1 X46.754 Y161.596 E.01801
G1 X48.383 Y162.11 E.01822
G1 X49.862 Y162.925 E.01801
G1 X51.154 Y164.014 E.01802
G1 X52.183 Y165.298 E.01755
G1 X52.971 Y166.813 E.01822
G1 X53.433 Y168.393 E.01756
G1 X53.584 Y170.119 E.01848
G1 X53.404 Y171.754 E.01755
G1 X52.89 Y173.383 E.01822
G1 X52.1 Y174.827 E.01756
G1 X50.986 Y176.154 E.01848
G1 X49.702 Y177.183 E.01755
G1 X48.187 Y177.971 E.01822
G1 X46.607 Y178.433 E.01756
G1 X44.881 Y178.584 E.01848
G1 X43.246 Y178.404 E.01755
G1 X41.617 Y177.89 E.01822
G1 X40.173 Y177.1 E.01756
G1 X38.846 Y175.986 E.01848
G1 X37.783 Y174.649 E.01822
G1 X37.029 Y173.187 E.01755
G1 X36.567 Y171.607 E.01756
G1 X36.416 Y169.881 E.01848
G1 X36.609 Y168.185 E.01821
G1 X37.11 Y166.617 E.01756
G1 X37.9 Y165.174 E.01755
G1 X39.014 Y163.846 E.01849
G1 X40.298 Y162.817 E.01755
G1 X41.813 Y162.029 E.01822
G1 X43.324 Y161.587 E.01679
G1 X43.379 Y161.773 F4200
G1 F1200
G1 X45.073 Y161.611 E.01815
G1 X46.715 Y161.787 E.01761
G1 X48.305 Y162.289 E.01779
G1 X49.752 Y163.086 E.01762
G1 X51.015 Y164.151 E.01762
G1 X52.02 Y165.406 E.01715
G1 X52.79 Y166.885 E.01779
G1 X53.241 Y168.428 E.01715
G1 X53.389 Y170.117 E.01808
G1 X53.213 Y171.715 E.01715
G1 X52.711 Y173.305 E.01779
G1 X51.939 Y174.716 E.01716
G1 X50.849 Y176.015 E.01809
G1 X49.594 Y177.02 E.01715
G1 X48.115 Y177.79 E.01779
G1 X46.572 Y178.241 E.01715
G1 X44.883 Y178.389 E.01808
G1 X43.285 Y178.213 E.01715
G1 X41.695 Y177.711 E.01779
G1 X40.284 Y176.939 E.01716
G1 X38.985 Y175.849 E.01809
G1 X37.948 Y174.545 E.01777
G1 X37.21 Y173.115 E.01716
G1 X36.759 Y171.572 E.01715
G1 X36.611 Y169.883 E.01808
G1 X36.8 Y168.227 E.01778
G1 X37.289 Y166.695 E.01715
G1 X38.111 Y165.212 E.01809
G1 X39.151 Y163.985 E.01716
G1 X40.406 Y162.98 E.01715
G1 X41.884 Y162.21 E.01778
G1 X43.35 Y161.782 E.01629
G1 X43.404 Y161.968 F4200
G1 F1200
G1 X45.071 Y161.806 E.01786
G1 X46.677 Y161.978 E.01723
G1 X48.228 Y162.467 E.01735
G1 X49.642 Y163.246 E.01722
G1 X50.876 Y164.287 E.01722
G1 X51.858 Y165.513 E.01676
G1 X52.609 Y166.956 E.01735
G1 X53.05 Y168.464 E.01676
G1 X53.194 Y170.115 E.01768
G1 X53.022 Y171.677 E.01676
G1 X52.533 Y173.228 E.01735
G1 X51.778 Y174.606 E.01676
G1 X50.713 Y175.876 E.01768
G1 X49.487 Y176.858 E.01676
G1 X48.044 Y177.609 E.01735
G1 X46.536 Y178.05 E.01676
G1 X44.885 Y178.194 E.01768
G1 X43.323 Y178.022 E.01676
G1 X41.772 Y177.533 E.01735
G1 X40.394 Y176.778 E.01676
G1 X39.124 Y175.713 E.01768
G1 X38.112 Y174.44 E.01735
G1 X37.391 Y173.044 E.01676
G1 X36.95 Y171.536 E.01676
G1 X36.806 Y169.885 E.01768
G1 X36.99 Y168.269 E.01735
G1 X37.467 Y166.772 E.01676
G1 X38.222 Y165.394 E.01676
G1 X39.287 Y164.124 E.01768
G1 X40.513 Y163.142 E.01676
G1 X41.956 Y162.391 E.01735
G1 X43.375 Y161.976 E.01577
G1 E-2.1 F3000
;WIPE_START
G1 F3360
G1 X44.431 Y161.87 E-.9
;WIPE_END
G1 X44.083 Y165.222 F4200
G1 E3 F2400
;TYPE:External perimeter
;WIDTH:0.267988
G1 F1200
G1 X44.943 Y165.15 E.01124
;WIDTH:0.27662
G1 X45.52 Y165.167 E.00779
G1 X46.018 Y165.243 E.0068
;WIDTH:0.267983
G1 X46.912 Y165.526 E.01221
G1 X47.662 Y165.945 E.01118
;WIDTH:0.274206
G1 X48.134 Y166.283 E.00776
G1 X48.503 Y166.626 E.00673
;WIDTH:0.270841
G1 X49.085 Y167.361 E.01235
;WIDTH:0.273028
G1 X49.336 Y167.798 E.0067
;WIDTH:0.273624
G1 X49.541 Y168.264 E.00678
G1 X49.791 Y169.167 E.01249
;WIDTH:0.270839
G1 X49.863 Y170.096 E.01228
G1 X49.776 Y170.872 E.01029
;WIDTH:0.27666
G1 X49.645 Y171.431 E.00775
G1 X49.476 Y171.907 E.00682
;WIDTH:0.267919
G1 X49.055 Y172.662 E.01125
;WIDTH:0.274208
G1 X48.717 Y173.134 E.00776
G1 X48.374 Y173.503 E.00673
;WIDTH:0.270801
G1 X47.762 Y173.992 E.01032
;WIDTH:0.276687
G1 X47.273 Y174.297 E.00778
G1 X46.817 Y174.513 E.00681
;WIDTH:0.267979
G1 X45.917 Y174.778 E.01221
;WIDTH:0.274416
G1 X45.417 Y174.844 E.00674
G1 X44.909 Y174.863 E.0068
;WIDTH:0.270815
G1 X44.128 Y174.773 E.01036
;WIDTH:0.275334
G1 X43.509 Y174.626 E.00854
G1 X43.16 Y174.488 E.00504
;WIDTH:0.274207
G1 X42.633 Y174.247 E.00774
G1 X42.205 Y173.981 E.00673
;WIDTH:0.270809
G1 X41.609 Y173.474 E.01031
;WIDTH:0.274252
G1 X41.215 Y173.052 E.00771
G1 X40.918 Y172.644 E.00674
;WIDTH:0.270979
G1 X40.487 Y171.811 E.01236
G1 X40.222 Y170.917 E.01229
;WIDTH:0.274418
G1 X40.156 Y170.417 E.00674
G1 X40.137 Y169.909 E.0068
;WIDTH:0.270805
G1 X40.226 Y169.131 E.01032
;WIDTH:0.272773
G1 X40.379 Y168.486 E.0088
;WIDTH:0.273625
G1 X40.561 Y168.017 E.0067
G1 X41.023 Y167.201 E.0125
;WIDTH:0.271038
G1 X41.63 Y166.494 E.01229
G1 X42.36 Y165.914 E.01229
;WIDTH:0.267537
G1 X43.188 Y165.485 E.01212
;WIDTH:0.267988
G1 X44.054 Y165.23 E.01175
G1 X43.181 Y165.743 F4200
;WIDTH:0.260524
G1 F1200
G1 X44.027 Y165.474 E.01119
;WIDTH:0.274393
G1 X44.932 Y165.374 E.01217
;WIDTH:0.27662
G1 X45.49 Y165.412 E.00755
G1 X45.948 Y165.47 E.00623
;WIDTH:0.267579
G1 X46.726 Y165.704 E.01056
;WIDTH:0.274345
G1 X47.529 Y166.126 E.01213
;WIDTH:0.274206
G1 X47.975 Y166.468 E.00751
G1 X48.317 Y166.779 E.00618
;WIDTH:0.270513
G1 X48.785 Y167.336 E.00957
;WIDTH:0.273028
G1 X49.119 Y167.907 E.00879
;WIDTH:0.273624
G1 X49.308 Y168.334 E.00622
G1 X49.525 Y169.026 E.00967
;WIDTH:0.257841
G1 X49.628 Y169.908 E.01107
;WIDTH:0.273008
G1 X49.555 Y170.817 E.01212
;WIDTH:0.27666
G1 X49.411 Y171.355 E.00751
G1 X49.264 Y171.8 E.00632
;WIDTH:0.267919
G1 X48.886 Y172.511 E.01048
;WIDTH:0.274208
G1 X48.532 Y172.975 E.0078
G1 X48.217 Y173.321 E.00625
;WIDTH:0.270801
G1 X47.664 Y173.785 E.00951
;WIDTH:0.276687
G1 X47.161 Y174.077 E.00785
G1 X46.747 Y174.286 E.00626
;WIDTH:0.267577
G1 X45.971 Y174.527 E.01056
;WIDTH:0.274416
G1 X45.399 Y174.601 E.00771
G1 X44.927 Y174.623 E.00632
;WIDTH:0.270815
G1 X44.206 Y174.559 E.00954
;WIDTH:0.275334
G1 X43.257 Y174.286 E.01325
;WIDTH:0.274207
G1 X42.754 Y174.035 E.00751
G1 X42.354 Y173.792 E.00625
;WIDTH:0.272956
G1 X41.968 Y173.486 E.00655
;WIDTH:0.274252
G1 X41.406 Y172.901 E.01084
G1 X41.129 Y172.529 E.0062
;WIDTH:0.270522
G1 X40.776 Y171.891 E.00959
;WIDTH:0.260523
G1 X40.474 Y170.974 E.01217
;WIDTH:0.274418
G1 X40.399 Y170.399 E.00775
G1 X40.377 Y169.927 E.00632
;WIDTH:0.270805
G1 X40.441 Y169.207 E.00952
;WIDTH:0.272773
G1 X40.609 Y168.562 E.00885
;WIDTH:0.273625
G1 X40.775 Y168.132 E.00614
G1 X41.112 Y167.489 E.00967
;WIDTH:0.257846
G1 X41.663 Y166.793 E.01106
;WIDTH:0.260524
G1 X42.401 Y166.169 E.01219
G1 X43.155 Y165.757 E.01083
G1 X43.204 Y165.544 F4200
G1 X42.982 Y167.015
;TYPE:Perimeter
;WIDTH:0.224999
G1 F1200
G1 X43.654 Y166.658 E.00812
G1 X44.312 Y166.463 E.00732
G1 X44.997 Y166.397 E.00734
G1 X45.753 Y166.476 E.00811
G1 X46.408 Y166.683 E.00733
G1 X47.015 Y167.012 E.00736
G1 X47.548 Y167.452 E.00737
G1 X47.985 Y167.982 E.00733
G1 X48.342 Y168.654 E.00812
G1 X48.537 Y169.312 E.00732
G1 X48.604 Y170 E.00737
G1 X48.537 Y170.688 E.00737
G1 X48.341 Y171.35 E.00736
G1 X48.024 Y171.959 E.00732
G1 X47.545 Y172.551 E.00812
G1 X47.015 Y172.988 E.00733
G1 X46.408 Y173.317 E.00736
G1 X45.752 Y173.524 E.00734
G1 X44.996 Y173.603 E.00811
G1 X44.315 Y173.538 E.0073
G1 X43.589 Y173.315 E.0081
G1 X42.985 Y172.988 E.00733
G1 X42.452 Y172.548 E.00737
G1 X42.013 Y172.015 E.00737
G1 X41.684 Y171.41 E.00735
G1 X41.462 Y170.684 E.0081
G1 X41.396 Y170 E.00733
G1 X41.463 Y169.312 E.00737
G1 X41.659 Y168.65 E.00736
G1 X41.976 Y168.041 E.00732
G1 X42.455 Y167.449 E.00812
G1 X42.959 Y167.034 E.00696
G1 X42.873 Y166.852 F4200
G1 F1200
G1 X43.58 Y166.476 E.00854
G1 X44.275 Y166.27 E.00773
G1 X44.998 Y166.201 E.00775
G1 X45.793 Y166.284 E.00853
G1 X46.485 Y166.503 E.00774
G1 X47.125 Y166.85 E.00777
G1 X47.687 Y167.313 E.00777
G1 X48.148 Y167.873 E.00774
G1 X48.524 Y168.58 E.00854
G1 X48.73 Y169.275 E.00773
G1 X48.799 Y170 E.00777
G1 X48.73 Y170.725 E.00777
G1 X48.523 Y171.423 E.00777
G1 X48.188 Y172.067 E.00774
G1 X47.684 Y172.689 E.00854
G1 X47.125 Y173.15 E.00773
G1 X46.485 Y173.497 E.00777
G1 X45.792 Y173.716 E.00775
G1 X44.997 Y173.799 E.00853
G1 X44.277 Y173.73 E.00772
G1 X43.513 Y173.496 E.00852
G1 X42.875 Y173.15 E.00774
G1 X42.313 Y172.687 E.00777
G1 X41.85 Y172.125 E.00777
G1 X41.504 Y171.486 E.00775
G1 X41.27 Y170.722 E.00852
G1 X41.201 Y170 E.00774
G1 X41.27 Y169.275 E.00777
G1 X41.477 Y168.577 E.00777
G1 X41.812 Y167.933 E.00774
G1 X42.316 Y167.311 E.00854
G1 X42.85 Y166.871 E.00738
G1 X42.764 Y166.689 F4200
G1 F1200
G1 X43.505 Y166.295 E.00895
G1 X44.238 Y166.078 E.00815
G1 X44.999 Y166.005 E.00815
G1 X45.833 Y166.093 E.00895
G1 X46.561 Y166.322 E.00814
G1 X47.234 Y166.688 E.00817
G1 X47.825 Y167.175 E.00817
G1 X48.311 Y167.764 E.00815
G1 X48.705 Y168.505 E.00895
G1 X48.922 Y169.238 E.00815
G1 X48.995 Y170 E.00817
G1 X48.922 Y170.762 E.00817
G1 X48.704 Y171.497 E.00818
G1 X48.352 Y172.174 E.00814
G1 X47.823 Y172.826 E.00896
G1 X47.234 Y173.312 E.00815
G1 X46.561 Y173.678 E.00817
G1 X45.832 Y173.908 E.00815
G1 X44.998 Y173.995 E.00894
G1 X44.239 Y173.922 E.00813
G1 X43.437 Y173.677 E.00894
G1 X42.766 Y173.312 E.00815
G1 X42.175 Y172.825 E.00817
G1 X41.688 Y172.234 E.00817
G1 X41.323 Y171.562 E.00816
G1 X41.078 Y170.76 E.00894
G1 X41.005 Y170 E.00814
G1 X41.078 Y169.238 E.00817
G1 X41.296 Y168.503 E.00818
G1 X41.648 Y167.826 E.00814
G1 X42.177 Y167.173 E.00896
G1 X42.741 Y166.708 E.0078
G1 X42.655 Y166.526 F4200
G1 F1200
G1 X43.431 Y166.114 E.00937
G1 X44.2 Y165.886 E.00856
G1 X45 Y165.809 E.00857
G1 X45.873 Y165.901 E.00936
G1 X46.638 Y166.142 E.00856
G1 X47.344 Y166.525 E.00857
G1 X47.964 Y167.036 E.00857
G1 X48.474 Y167.655 E.00855
G1 X48.886 Y168.431 E.00937
G1 X49.114 Y169.2 E.00856
G1 X49.191 Y170 E.00857
G1 X49.114 Y170.8 E.00857
G1 X48.886 Y171.57 E.00857
G1 X48.516 Y172.281 E.00855
G1 X47.963 Y172.964 E.00937
G1 X47.344 Y173.475 E.00856
G1 X46.638 Y173.858 E.00857
G1 X45.871 Y174.099 E.00858
G1 X44.999 Y174.191 E.00935
G1 X44.2 Y174.114 E.00856
G1 X43.361 Y173.857 E.00936
G1 X42.656 Y173.475 E.00855
G1 X42.036 Y172.964 E.00857
G1 X41.525 Y172.344 E.00857
G1 X41.142 Y171.638 E.00857
G1 X40.886 Y170.798 E.00937
G1 X40.809 Y170 E.00855
G1 X40.886 Y169.2 E.00857
G1 X41.114 Y168.43 E.00857
G1 X41.484 Y167.718 E.00856
G1 X42.037 Y167.036 E.00937
G1 X42.632 Y166.545 E.00823
G1 X42.546 Y166.363 F4200
;TYPE:External perimeter
G1 F1200
G1 X43.357 Y165.932 E.0098
G1 X44.163 Y165.694 E.00896
G1 X45.001 Y165.613 E.00898
G1 X45.913 Y165.709 E.00978
G1 X46.714 Y165.962 E.00896
G1 X47.453 Y166.363 E.00897
G1 X48.102 Y166.898 E.00897
G1 X48.637 Y167.546 E.00896
G1 X49.068 Y168.357 E.0098
G1 X49.306 Y169.163 E.00896
G1 X49.387 Y170 E.00897
G1 X49.306 Y170.837 E.00897
G1 X49.068 Y171.643 E.00896
G1 X48.679 Y172.389 E.00897
G1 X48.102 Y173.102 E.00978
G1 X47.453 Y173.637 E.00897
G1 X46.714 Y174.038 E.00897
G1 X45.911 Y174.291 E.00898
G1 X45 Y174.387 E.00977
G1 X44.162 Y174.306 E.00898
G1 X43.285 Y174.038 E.00978
G1 X42.547 Y173.637 E.00896
G1 X41.898 Y173.102 E.00897
G1 X41.363 Y172.453 E.00897
G1 X40.961 Y171.713 E.00898
G1 X40.694 Y170.837 E.00977
G1 X40.613 Y170 E.00897
G1 X40.694 Y169.163 E.00897
G1 X40.932 Y168.357 E.00896
G1 X41.321 Y167.611 E.00897
G1 X41.898 Y166.898 E.00978
G1 X42.523 Y166.382 E.00865
G1 X42.726 Y166.451 F4200
G1 E-3 F3000
G1 X46.908 Y167.021 F4200
G1 E3 F2400
;TYPE:Solid infill
;WIDTH:0.227523
G1 F1200
G1 X47.45 Y167.563 E.00828
G1 X47.863 Y168.064 E.00702
