; generated by PrusaSlicer 2.6.0-beta4+linux-x64-GTK3 on 2023-06-09 at 13:41:20 UTC

; 

; external perimeters extrusion width = 0.23mm
; perimeters extrusion width = 0.23mm
; infill extrusion width = 0.23mm
; solid infill extrusion width = 0.23mm
; top infill extrusion width = 0.20mm

; external perimeters extrusion width = 0.23mm
; perimeters extrusion width = 0.23mm
; infill extrusion width = 0.23mm
; solid infill extrusion width = 0.23mm
; top infill extrusion width = 0.20mm

;TYPE:Custom
G90 ; use absolute coordinates
M83 ; extruder relative mode
M140 S55 ; set final bed temp
;M104 S150 ; set temporary nozzle temp to prevent oozing during homing
G4 S10 ; allow partial nozzle warmup
G28 ; home all axis
G1 Z50 F240
G1 X2 Y10 F3000
M104 S175 ; set final nozzle temp
M190 S55 ; wait for bed temp to stabilize
M109 S175 ; wait for nozzle temp to stabilize
G92 E0
G21 ; set units to millimeters
G90 ; use absolute coordinates
M83 ; use relative distances for extrusion
; Filament gcode
M107
;LAYER_CHANGE
;Z:0.14
;HEIGHT:0.14
;BEFORE_LAYER_CHANGE
G92 E0
;0.14


G1 Z.14 F4200
;AFTER_LAYER_CHANGE
;0.14
G1 E-3 F3000
G1 X43.483 Y161.953 F4200
G1 E3 F2400
M204 P500
;TYPE:Skirt/Brim
;WIDTH:0.225
G1 F1200
G1 X45.033 Y161.812 E.0166
G1 X46.691 Y161.988 E.01778
G1 X48.215 Y162.469 E.01705
G1 X49.619 Y163.239 E.01708
G1 X50.851 Y164.271 E.01714
G1 X51.885 Y165.567 E.01768
G1 X52.603 Y166.958 E.0167
G1 X53.046 Y168.48 E.01691
G1 X53.188 Y170.076 E.01709
G1 X53.013 Y171.686 E.01727
G1 X52.514 Y173.253 E.01754
G1 X51.751 Y174.635 E.01684
G1 X50.741 Y175.839 E.01676
G1 X49.483 Y176.852 E.01723
G1 X48.047 Y177.601 E.01728
G1 X46.479 Y178.054 E.01741
G1 X44.929 Y178.188 E.01659
G1 X43.343 Y178.019 E.01701
G1 X41.79 Y177.533 E.01736
G1 X40.37 Y176.754 E.01728
G1 X39.131 Y175.71 E.01728
G1 X38.15 Y174.487 E.01672
G1 X37.415 Y173.086 E.01688
G1 X36.952 Y171.512 E.0175
G1 X36.812 Y169.898 E.01728
G1 X36.99 Y168.302 E.01713
G1 X37.465 Y166.794 E.01686
G1 X38.215 Y165.416 E.01673
G1 X39.275 Y164.145 E.01765
G1 X40.532 Y163.138 E.01718
G1 X41.953 Y162.4 E.01708
G1 X43.454 Y161.962 E.01668
G1 X43.509 Y162.148 F4200
G1 F1200
G1 X45.031 Y162.007 E.0163
G1 X46.651 Y162.179 E.01738
G1 X48.136 Y162.648 E.01661
G1 X49.511 Y163.401 E.01672
G1 X50.711 Y164.407 E.0167
G1 X51.722 Y165.674 E.01729
G1 X52.422 Y167.031 E.01629
G1 X52.854 Y168.514 E.01648
G1 X52.993 Y170.076 E.01673
G1 X52.823 Y171.644 E.01682
G1 X52.335 Y173.177 E.01716
G1 X51.59 Y174.525 E.01643
G1 X50.605 Y175.699 E.01635
G1 X49.375 Y176.69 E.01685
G1 X47.975 Y177.419 E.01684
G1 X46.442 Y177.862 E.01702
G1 X44.932 Y177.993 E.01617
G1 X43.384 Y177.828 E.01661
G1 X41.865 Y177.353 E.01698
G1 X40.481 Y176.594 E.01684
G1 X39.27 Y175.573 E.0169
G1 X38.314 Y174.381 E.0163
G1 X37.597 Y173.014 E.01647
G1 X37.144 Y171.474 E.01712
G1 X37.007 Y169.903 E.01682
G1 X37.181 Y168.341 E.01676
G1 X37.644 Y166.871 E.01644
G1 X38.376 Y165.526 E.01633
G1 X39.412 Y164.284 E.01725
G1 X40.637 Y163.303 E.01674
G1 X42.027 Y162.58 E.01671
G1 X43.48 Y162.156 E.01614
G1 X43.534 Y162.342 F4200
G1 F1200
G1 X45.029 Y162.202 E.01602
G1 X46.612 Y162.37 E.01698
G1 X48.058 Y162.826 E.01617
G1 X49.402 Y163.563 E.01635
G1 X50.571 Y164.542 E.01626
G1 X51.558 Y165.781 E.0169
G1 X52.241 Y167.104 E.01588
G1 X52.662 Y168.549 E.01605
G1 X52.798 Y170.076 E.01635
G1 X52.632 Y171.603 E.01638
G1 X52.155 Y173.101 E.01677
G1 X51.429 Y174.415 E.01601
G1 X50.47 Y175.559 E.01592
G1 X49.267 Y176.528 E.01648
G1 X47.904 Y177.238 E.01639
G1 X46.405 Y177.671 E.01664
G1 X44.934 Y177.798 E.01575
G1 X43.425 Y177.638 E.01619
G1 X41.94 Y177.173 E.0166
G1 X40.593 Y176.434 E.01639
G1 X39.408 Y175.436 E.01653
G1 X38.477 Y174.275 E.01587
G1 X37.778 Y172.942 E.01605
G1 X37.335 Y171.437 E.01673
G1 X37.202 Y169.907 E.01638
G1 X37.372 Y168.379 E.0164
G1 X37.823 Y166.948 E.016
G1 X38.537 Y165.636 E.01593
G1 X39.549 Y164.423 E.01685
G1 X40.741 Y163.467 E.0163
G1 X42.102 Y162.76 E.01636
G1 X43.505 Y162.351 E.01559
G1 X43.56 Y162.537 F4200
G1 F1200
G1 X45.027 Y162.397 E.01572
G1 X46.573 Y162.561 E.01658
G1 X47.98 Y163.005 E.01574
G1 X49.294 Y163.725 E.01598
G1 X50.431 Y164.678 E.01582
G1 X51.395 Y165.887 E.01649
G1 X52.061 Y167.178 E.01549
G1 X52.47 Y168.584 E.01562
G1 X52.603 Y170.076 E.01598
G1 X52.442 Y171.562 E.01594
G1 X51.976 Y173.025 E.01638
G1 X51.268 Y174.305 E.0156
G1 X50.334 Y175.419 E.01551
G1 X49.159 Y176.366 E.0161
G1 X47.833 Y177.056 E.01594
G1 X46.368 Y177.479 E.01626
G1 X44.936 Y177.603 E.01533
G1 X43.466 Y177.447 E.01577
G1 X42.015 Y176.993 E.01622
G1 X40.705 Y176.274 E.01594
G1 X39.547 Y175.299 E.01615
G1 X38.641 Y174.168 E.01546
G1 X37.959 Y172.87 E.01564
G1 X37.526 Y171.4 E.01635
G1 X37.397 Y169.911 E.01594
G1 X37.563 Y168.418 E.01602
G1 X38.002 Y167.025 E.01558
G1 X38.697 Y165.747 E.01552
G1 X39.686 Y164.561 E.01647
G1 X40.846 Y163.631 E.01586
G1 X42.176 Y162.94 E.01599
G1 X43.531 Y162.545 E.01505
G1 X43.585 Y162.731 F4200
G1 F1200
G1 X45.025 Y162.591 E.01543
G1 X46.498 Y162.744 E.0158
G1 X47.902 Y163.184 E.01569
G1 X49.185 Y163.887 E.0156
G1 X50.291 Y164.813 E.01539
G1 X51.232 Y165.994 E.01611
G1 X51.88 Y167.251 E.01508
G1 X52.279 Y168.618 E.01519
G1 X52.408 Y170.076 E.01561
G1 X52.251 Y171.52 E.01549
G1 X51.796 Y172.949 E.016
G1 X51.106 Y174.195 E.01519
G1 X50.198 Y175.279 E.01508
G1 X49.05 Y176.203 E.01572
G1 X47.762 Y176.875 E.0155
G1 X46.332 Y177.288 E.01588
G1 X44.938 Y177.409 E.01493
G1 X43.507 Y177.257 E.01535
G1 X42.09 Y176.813 E.01584
G1 X40.816 Y176.114 E.0155
G1 X39.686 Y175.162 E.01576
G1 X38.804 Y174.062 E.01504
G1 X38.14 Y172.798 E.01523
G1 X37.718 Y171.363 E.01595
G1 X37.592 Y169.915 E.0155
G1 X37.754 Y168.457 E.01565
G1 X38.181 Y167.102 E.01515
G1 X38.858 Y165.857 E.01512
G1 X39.823 Y164.7 E.01607
G1 X40.951 Y163.796 E.01542
G1 X42.25 Y163.121 E.01561
G1 X43.556 Y162.74 E.01451
G1 X43.611 Y162.926 F4200
G1 F1200
G1 X45.022 Y162.786 E.01512
G1 X46.458 Y162.935 E.0154
G1 X47.824 Y163.362 E.01527
G1 X49.077 Y164.049 E.01524
G1 X50.15 Y164.949 E.01494
G1 X51.069 Y166.101 E.01572
G1 X51.699 Y167.324 E.01467
G1 X52.087 Y168.653 E.01477
G1 X52.213 Y170.076 E.01524
G1 X52.061 Y171.479 E.01505
G1 X51.617 Y172.873 E.01561
G1 X50.945 Y174.086 E.01479
G1 X50.063 Y175.138 E.01464
G1 X48.942 Y176.041 E.01535
G1 X47.691 Y176.693 E.01505
G1 X46.295 Y177.096 E.0155
G1 X44.94 Y177.214 E.01451
G1 X43.548 Y177.066 E.01493
G1 X42.165 Y176.633 E.01546
G1 X40.928 Y175.954 E.01505
G1 X39.824 Y175.025 E.01539
G1 X38.967 Y173.956 E.01461
G1 X38.321 Y172.726 E.01482
G1 X37.909 Y171.325 E.01558
G1 X37.787 Y169.919 E.01505
G1 X37.945 Y168.496 E.01527
G1 X38.36 Y167.179 E.01473
G1 X39.019 Y165.967 E.01472
G1 X39.96 Y164.838 E.01568
G1 X41.056 Y163.96 E.01498
G1 X42.324 Y163.301 E.01524
G1 X43.582 Y162.934 E.01398
G1 X43.636 Y163.121 F4200
G1 F1200
G1 X45.02 Y162.981 E.01484
G1 X46.419 Y163.126 E.015
G1 X47.746 Y163.541 E.01483
G1 X48.968 Y164.211 E.01487
G1 X50.01 Y165.085 E.01451
G1 X50.906 Y166.208 E.01532
G1 X51.518 Y167.397 E.01426
G1 X51.895 Y168.687 E.01434
G1 X52.018 Y170.076 E.01487
G1 X51.87 Y171.438 E.01461
G1 X51.437 Y172.797 E.01521
G1 X50.784 Y173.976 E.01438
G1 X49.927 Y174.998 E.01423
G1 X48.834 Y175.879 E.01497
G1 X47.619 Y176.512 E.01461
G1 X46.258 Y176.905 E.01511
G1 X44.942 Y177.019 E.01409
G1 X43.589 Y176.875 E.01451
G1 X42.24 Y176.453 E.01508
G1 X41.039 Y175.794 E.01461
G1 X39.963 Y174.888 E.015
G1 X39.131 Y173.849 E.0142
G1 X38.502 Y172.653 E.01441
G1 X38.1 Y171.288 E.01518
G1 X37.982 Y169.923 E.01461
G1 X38.136 Y168.535 E.0149
G1 X38.54 Y167.256 E.01431
G1 X39.18 Y166.078 E.0143
G1 X40.098 Y164.977 E.01529
G1 X41.161 Y164.124 E.01454
G1 X42.398 Y163.481 E.01487
G1 X43.607 Y163.129 E.01343
G1 X43.662 Y163.315 F4200
G1 F1200
G1 X43.73 Y163.295 E.00076
G1 X45.018 Y163.176 E.0138
G1 X46.38 Y163.317 E.01461
G1 X47.668 Y163.719 E.01439
G1 X48.86 Y164.373 E.0145
G1 X49.87 Y165.22 E.01406
G1 X50.743 Y166.314 E.01493
G1 X51.338 Y167.47 E.01387
G1 X51.703 Y168.722 E.01391
G1 X51.823 Y170.076 E.0145
G1 X51.68 Y171.396 E.01416
G1 X51.258 Y172.721 E.01483
G1 X50.623 Y173.866 E.01397
G1 X49.792 Y174.858 E.0138
G1 X48.726 Y175.717 E.0146
G1 X47.548 Y176.33 E.01416
G1 X46.222 Y176.713 E.01472
G1 X44.944 Y176.824 E.01368
G1 X43.63 Y176.685 E.01409
G1 X42.315 Y176.273 E.0147
G1 X41.151 Y175.634 E.01416
G1 X40.102 Y174.751 E.01463
G1 X39.294 Y173.743 E.01378
G1 X38.683 Y172.581 E.014
G1 X38.292 Y171.251 E.01479
G1 X38.177 Y169.928 E.01417
G1 X38.327 Y168.574 E.01453
G1 X38.719 Y167.333 E.01388
G1 X39.34 Y166.188 E.01389
G1 X40.235 Y165.116 E.0149
G1 X41.266 Y164.289 E.0141
G1 X42.472 Y163.662 E.0145
G1 X43.633 Y163.324 E.0129
G1 X43.687 Y163.51 F4200
G1 F1200
G1 X43.765 Y163.487 E.00087
G1 X45.016 Y163.371 E.0134
G1 X46.34 Y163.508 E.0142
G1 X47.59 Y163.898 E.01397
G1 X48.751 Y164.535 E.01413
G1 X49.73 Y165.356 E.01363
G1 X50.58 Y166.421 E.01453
G1 X51.157 Y167.543 E.01346
G1 X51.511 Y168.756 E.01348
G1 X51.628 Y170.076 E.01414
G1 X51.489 Y171.355 E.01372
G1 X51.078 Y172.644 E.01443
G1 X50.462 Y173.756 E.01356
G1 X49.656 Y174.718 E.01339
G1 X48.618 Y175.554 E.01422
G1 X47.477 Y176.149 E.01373
G1 X46.185 Y176.522 E.01434
G1 X44.946 Y176.629 E.01327
G1 X43.671 Y176.494 E.01368
G1 X42.39 Y176.094 E.01431
G1 X41.262 Y175.475 E.01372
G1 X40.24 Y174.614 E.01425
G1 X39.457 Y173.636 E.01336
G1 X38.864 Y172.509 E.01358
G1 X38.483 Y171.213 E.01441
G1 X38.372 Y169.932 E.01372
G1 X38.518 Y168.612 E.01417
G1 X38.898 Y167.41 E.01345
G1 X39.501 Y166.298 E.01349
G1 X40.372 Y165.254 E.0145
G1 X41.371 Y164.453 E.01366
G1 X42.546 Y163.842 E.01413
G1 X43.658 Y163.518 E.01235
G1 E-2.1 F3000
;WIPE_START
G1 F3360
G1 X43.765 Y163.487 E-.09449
G1 X44.711 Y163.399 E-.80551
;WIPE_END
G1 X44.501 Y167.313 F4200
G1 E3 F2400
;TYPE:Perimeter
;WIDTH:0.224999
G1 F1200
G1 X45.08 Y167.268 E.00619
G1 X45.579 Y167.329 E.00536
G1 X46.13 Y167.512 E.00619
G1 X46.57 Y167.762 E.0054
G1 X46.956 Y168.091 E.00541
G1 X47.315 Y168.547 E.00619
G1 X47.542 Y168.995 E.00536
G1 X47.697 Y169.555 E.0062
G1 X47.733 Y170.06 E.0054
G1 X47.674 Y170.563 E.0054
G1 X47.495 Y171.116 E.0062
G1 X47.249 Y171.554 E.00536
G1 X46.869 Y171.994 E.0062
G1 X46.47 Y172.305 E.0054
G1 X46.019 Y172.536 E.0054
G1 X45.46 Y172.694 E.0062
G1 X44.959 Y172.733 E.00536
G1 X44.383 Y172.663 E.00619
G1 X43.902 Y172.504 E.0054
G1 X43.459 Y172.257 E.00541
G1 X43.017 Y171.881 E.00619
G1 X42.706 Y171.486 E.00536
G1 X42.444 Y170.968 E.00619
G1 X42.309 Y170.48 E.0054
G1 X42.267 Y169.975 E.00541
G1 X42.334 Y169.398 E.0062
G1 X42.489 Y168.92 E.00536
G1 X42.774 Y168.414 E.00619
G1 X43.102 Y168.033 E.00536
G1 X43.56 Y167.677 E.00619
G1 X44.014 Y167.45 E.00541
G1 X44.472 Y167.321 E.00508
G1 X44.467 Y167.12 F4200
G1 F1200
G1 X45.084 Y167.072 E.0066
G1 X45.622 Y167.137 E.00578
G1 X46.21 Y167.333 E.00661
G1 X46.683 Y167.602 E.0058
G1 X47.097 Y167.955 E.0058
G1 X47.48 Y168.442 E.00661
G1 X47.725 Y168.925 E.00578
G1 X47.89 Y169.522 E.00661
G1 X47.929 Y170.065 E.00581
G1 X47.866 Y170.605 E.0058
G1 X47.675 Y171.195 E.00661
G1 X47.409 Y171.666 E.00577
G1 X47.005 Y172.136 E.00661
G1 X46.575 Y172.47 E.00581
G1 X46.091 Y172.718 E.0058
G1 X45.495 Y172.887 E.00661
G1 X44.955 Y172.929 E.00578
G1 X44.34 Y172.854 E.00661
G1 X43.823 Y172.683 E.00581
G1 X43.348 Y172.418 E.0058
G1 X42.876 Y172.017 E.00661
G1 X42.541 Y171.592 E.00577
G1 X42.261 Y171.039 E.00661
G1 X42.116 Y170.514 E.00581
G1 X42.071 Y169.972 E.0058
G1 X42.142 Y169.356 E.00661
G1 X42.31 Y168.842 E.00577
G1 X42.613 Y168.302 E.0066
G1 X42.967 Y167.891 E.00579
G1 X43.456 Y167.511 E.00661
G1 X43.943 Y167.268 E.00581
G1 X44.438 Y167.128 E.00549
G1 X44.432 Y166.927 F4200
G1 F1200
G1 X45.088 Y166.876 E.00702
G1 X45.665 Y166.946 E.0062
G1 X46.289 Y167.154 E.00702
G1 X46.795 Y167.442 E.00621
G1 X47.238 Y167.819 E.0062
G1 X47.645 Y168.336 E.00702
G1 X47.907 Y168.854 E.00619
G1 X48.083 Y169.488 E.00702
G1 X48.125 Y170.069 E.00621
G1 X48.057 Y170.647 E.00621
G1 X47.854 Y171.273 E.00702
G1 X47.569 Y171.779 E.00619
G1 X47.14 Y172.278 E.00702
G1 X46.681 Y172.635 E.0062
G1 X46.163 Y172.901 E.00621
G1 X45.529 Y173.08 E.00703
G1 X44.951 Y173.125 E.00618
G1 X44.297 Y173.045 E.00703
G1 X43.745 Y172.862 E.0062
G1 X43.236 Y172.579 E.00621
G1 X42.735 Y172.153 E.00701
G1 X42.376 Y171.697 E.00619
G1 X42.079 Y171.109 E.00703
G1 X41.923 Y170.549 E.0062
G1 X41.875 Y169.969 E.00621
G1 X41.951 Y169.315 E.00702
G1 X42.13 Y168.763 E.00619
G1 X42.453 Y168.189 E.00703
G1 X42.832 Y167.749 E.00619
G1 X43.352 Y167.345 E.00702
G1 X43.872 Y167.085 E.0062
G1 X44.403 Y166.935 E.00589
G1 X44.398 Y166.734 F4200
;TYPE:External perimeter
G1 F1200
G1 X45.093 Y166.68 E.00744
G1 X45.707 Y166.755 E.0066
G1 X46.369 Y166.975 E.00744
G1 X46.908 Y167.281 E.00661
G1 X47.379 Y167.683 E.00661
G1 X47.811 Y168.231 E.00744
G1 X48.09 Y168.783 E.0066
G1 X48.276 Y169.455 E.00744
G1 X48.32 Y170.073 E.00661
G1 X48.249 Y170.689 E.00661
G1 X48.034 Y171.352 E.00743
G1 X47.73 Y171.891 E.0066
G1 X47.275 Y172.419 E.00743
G1 X46.786 Y172.8 E.00661
G1 X46.234 Y173.083 E.00662
G1 X45.564 Y173.273 E.00743
G1 X44.946 Y173.321 E.00661
G1 X44.254 Y173.236 E.00744
G1 X43.666 Y173.042 E.0066
G1 X43.124 Y172.74 E.00662
G1 X42.593 Y172.289 E.00743
G1 X42.21 Y171.802 E.00661
G1 X41.896 Y171.18 E.00743
G1 X41.73 Y170.583 E.00661
G1 X41.68 Y169.965 E.00661
G1 X41.759 Y169.273 E.00743
G1 X41.951 Y168.684 E.00661
G1 X42.293 Y168.077 E.00743
G1 X42.697 Y167.607 E.00661
G1 X43.247 Y167.18 E.00743
G1 X43.801 Y166.903 E.00661
G1 X44.369 Y166.742 E.0063
G1 X44.526 Y166.887 F4200
G1 E-3 F3000
G1 X46.371 Y167.716 F4200
G1 E3 F2400
;TYPE:Solid infill
;WIDTH:0.228836
G1 F1200
G1 X46.858 Y168.203 E.00749
G1 X47.191 Y168.626 E.00586
G1 X47.387 Y169.013 E.00472
G1 X45.995 Y167.621 E.02141
G1 X45.574 Y167.481 E.00483
G1 X47.506 Y169.413 E.02972
G1 X47.552 Y169.58 E.00188
G1 X47.564 Y169.753 E.00189
G1 X45.247 Y167.436 E.03564
G1 X45.077 Y167.415 E.00186
G1 X44.955 Y167.424 E.00133
G1 X47.586 Y170.056 E.04048
G1 X47.557 Y170.308 E.00276
G1 X44.694 Y167.444 E.04405
G1 X44.448 Y167.48 E.0027
G1 X47.523 Y170.555 E.0473
G1 X47.455 Y170.767 E.00242
G1 X44.229 Y167.542 E.04961
G1 X44.018 Y167.612 E.00242
G1 X47.386 Y170.98 E.05181
G1 X47.296 Y171.171 E.0023
G1 X43.83 Y167.705 E.05331
G1 X43.643 Y167.799 E.00228
G1 X47.195 Y171.351 E.05464
G1 X47.084 Y171.521 E.00221
G1 X43.484 Y167.921 E.05537
G1 X43.326 Y168.044 E.00218
G1 X46.954 Y171.672 E.0558
G1 X46.823 Y171.823 E.00217
G1 X43.174 Y168.174 E.05613
G1 X43.044 Y168.325 E.00217
G1 X46.677 Y171.958 E.05588
G1 X46.519 Y172.081 E.00218
G1 X42.914 Y168.476 E.05545
G1 X42.894 Y168.499 E.00033
G1 X42.808 Y168.651 E.0019
G1 X46.356 Y172.199 E.05457
G1 X46.17 Y172.294 E.00227
G1 X42.707 Y168.831 E.05327
G1 X42.611 Y169.017 E.00228
G1 X45.984 Y172.39 E.05188
G1 X45.768 Y172.455 E.00245
G1 X42.542 Y169.229 E.04962
G1 X42.476 Y169.443 E.00244
G1 X45.549 Y172.517 E.04728
G1 X45.31 Y172.559 E.00264
G1 X42.447 Y169.695 E.04405
G1 X42.418 Y169.947 E.00276
G1 X45.049 Y172.579 E.04048
G1 X44.749 Y172.56 E.00327
G1 X42.436 Y170.247 E.03558
G1 X42.453 Y170.454 E.00226
G1 X42.488 Y170.58 E.00142
G1 X44.429 Y172.521 E.02986
G1 X44.013 Y172.386 E.00476
G1 X42.621 Y170.995 E.0214
G1 X42.83 Y171.407 E.00502
G1 X43.115 Y171.77 E.00502
G1 X43.632 Y172.286 E.00794
M106 S255
;LAYER_CHANGE
;Z:0.26
;HEIGHT:0.12
;BEFORE_LAYER_CHANGE
G92 E0
;0.26


G1 Z.26 F4200
;AFTER_LAYER_CHANGE
;0.26
G1 E-3 F3000
G1 X43.797 Y172.006 F4200
G1 X43.759 Y171.983
G1 X43.725 Y171.961
G1 X43.691 Y171.938
G1 X43.657 Y171.915
G1 X43.624 Y171.891
G1 X43.591 Y171.867
G1 X43.559 Y171.842
G1 X43.527 Y171.817
G1 X43.495 Y171.791
G1 X43.464 Y171.764
G1 X43.434 Y171.737
G1 X43.404 Y171.71
G1 X43.374 Y171.681
G1 X43.345 Y171.653
G1 X43.316 Y171.624
G1 X43.288 Y171.594
G1 X43.261 Y171.564
G1 X43.234 Y171.533
G1 X43.207 Y171.502
G1 X43.181 Y171.471
G1 X43.156 Y171.439
G1 X43.131 Y171.406
G1 X43.107 Y171.374
G1 X43.083 Y171.34
G1 X43.06 Y171.307
G1 X43.038 Y171.273
G1 X43.016 Y171.238
G1 X42.994 Y171.203
G1 X42.974 Y171.168
G1 X42.954 Y171.133
G1 X42.934 Y171.097
G1 X42.915 Y171.061
G1 X42.897 Y171.024
G1 X42.88 Y170.987
G1 X42.863 Y170.95
G1 X42.846 Y170.913
G1 X42.831 Y170.875
