; generated by PrusaSlicer 2.6.0-alpha6+win64 on 2023-05-28 at 22:35:03 UTC

; 

; external perimeters extrusion width = 0.23mm
; perimeters extrusion width = 0.23mm
; infill extrusion width = 0.23mm
; solid infill extrusion width = 0.23mm
; top infill extrusion width = 0.20mm

;TYPE:Custom
G90 ; use absolute coordinates
M83 ; extruder relative mode
M140 S55 ; set final bed temp
;M104 S150 ; set temporary nozzle temp to prevent oozing during homing
G4 S10 ; allow partial nozzle warmup
G28 ; home all axis
G1 Z50 F240
G1 X2 Y10 F3000
M104 S175 ; set final nozzle temp
M190 S55 ; wait for bed temp to stabilize
M109 S175 ; wait for nozzle temp to stabilize
G92 E0
G21 ; set units to millimeters
G90 ; use absolute coordinates
M83 ; use relative distances for extrusion
; Filament gcode
M107
;LAYER_CHANGE
;Z:0.14
;HEIGHT:0.14
;BEFORE_LAYER_CHANGE
G92 E0
;0.14


G1 Z.14 F4200
;AFTER_LAYER_CHANGE
;0.14
G1 E-3 F3000
G1 X40.904 Y134.295 F4200
G1 E3 F2400
M204 P500
;TYPE:Skirt/Brim
;WIDTH:0.225
G1 F1200
G1 X42.488 Y133.965 E.01726
G1 X44.097 Y133.794 E.01726
G1 X45.355 Y133.776 E.01342
G1 X46.71 Y133.859 E.01448
G1 X48.308 Y134.11 E.01725
G1 X49.874 Y134.518 E.01726
G1 X51.391 Y135.081 E.01726
G1 X52.845 Y135.791 E.01726
G1 X54.221 Y136.643 E.01726
G1 X55.505 Y137.627 E.01726
G1 X56.685 Y138.735 E.01727
G1 X57.748 Y139.954 E.01725
G1 X58.685 Y141.273 E.01726
G1 X59.486 Y142.679 E.01726
G1 X60.143 Y144.158 E.01726
G1 X60.649 Y145.695 E.01726
G1 X61 Y147.274 E.01725
G1 X61.178 Y148.693 E.01525
G1 X61.228 Y150.31 E.01726
G1 X61.116 Y151.925 E.01727
G1 X60.845 Y153.52 E.01726
G1 X60.415 Y155.08 E.01726
G1 X59.833 Y156.59 E.01726
G1 X59.103 Y158.034 E.01726
G1 X58.233 Y159.398 E.01726
G1 X57.232 Y160.669 E.01726
G1 X56.109 Y161.834 E.01726
G1 X54.875 Y162.881 E.01726
G1 X53.544 Y163.8 E.01725
G1 X52.127 Y164.582 E.01726
G1 X50.882 Y165.124 E.01448
G1 X49.694 Y165.537 E.01342
G1 X48.124 Y165.927 E.01726
G1 X46.522 Y166.159 E.01727
G1 X44.906 Y166.231 E.01725
G1 X43.478 Y166.159 E.01525
G1 X41.876 Y165.927 E.01727
G1 X40.306 Y165.537 E.01726
G1 X38.782 Y164.993 E.01726
G1 X37.32 Y164.299 E.01726
G1 X35.935 Y163.463 E.01726
G1 X34.639 Y162.494 E.01726
G1 X33.447 Y161.4 E.01726
G1 X32.369 Y160.193 E.01726
G1 X31.417 Y158.885 E.01726
G1 X30.6 Y157.488 E.01726
G1 X29.926 Y156.017 E.01726
G1 X29.402 Y154.487 E.01725
G1 X29.032 Y152.911 E.01727
G1 X28.822 Y151.307 E.01726
G1 X28.772 Y149.69 E.01726
G1 X28.884 Y148.075 E.01727
G1 X29.155 Y146.48 E.01726
G1 X29.585 Y144.92 E.01726
G1 X30.167 Y143.41 E.01726
G1 X30.897 Y141.966 E.01726
G1 X31.767 Y140.602 E.01726
G1 X32.768 Y139.331 E.01726
G1 X33.891 Y138.166 E.01726
G1 X35.125 Y137.119 E.01726
G1 X36.456 Y136.2 E.01725
G1 X37.873 Y135.418 E.01726
G1 X39.36 Y134.78 E.01726
G1 X40.875 Y134.304 E.01694
G1 X40.934 Y134.489 F4200
G1 F1200
G1 X42.522 Y134.157 E.0173
G1 X44.111 Y133.989 E.01704
G1 X45.35 Y133.971 E.01322
G1 X46.686 Y134.053 E.01428
G1 X48.265 Y134.3 E.01705
G1 X49.812 Y134.703 E.01705
G1 X51.311 Y135.258 E.01705
G1 X52.748 Y135.96 E.01706
G1 X54.107 Y136.801 E.01705
G1 X55.376 Y137.773 E.01705
G1 X56.542 Y138.867 E.01705
G1 X57.593 Y140.072 E.01706
G1 X58.519 Y141.375 E.01705
G1 X59.31 Y142.764 E.01705
G1 X59.96 Y144.225 E.01706
G1 X60.461 Y145.743 E.01705
G1 X60.808 Y147.303 E.01705
G1 X60.984 Y148.713 E.01516
G1 X61.033 Y150.31 E.01704
G1 X60.922 Y151.905 E.01705
G1 X60.653 Y153.481 E.01705
G1 X60.229 Y155.022 E.01705
G1 X59.653 Y156.514 E.01706
G1 X58.932 Y157.94 E.01704
G1 X58.072 Y159.288 E.01706
G1 X57.082 Y160.544 E.01706
G1 X55.973 Y161.694 E.01704
G1 X54.754 Y162.729 E.01706
G1 X53.438 Y163.636 E.01705
G1 X52.038 Y164.409 E.01706
G1 X50.811 Y164.943 E.01427
G1 X49.641 Y165.35 E.01321
G1 X48.09 Y165.735 E.01705
G1 X46.508 Y165.965 E.01705
G1 X44.911 Y166.036 E.01705
G1 X43.314 Y165.947 E.01706
G1 X41.735 Y165.7 E.01705
G1 X40.188 Y165.297 E.01705
G1 X38.689 Y164.742 E.01705
G1 X37.252 Y164.04 E.01706
G1 X35.893 Y163.199 E.01705
G1 X34.624 Y162.227 E.01705
G1 X33.458 Y161.133 E.01705
G1 X32.407 Y159.928 E.01706
G1 X31.481 Y158.625 E.01705
G1 X30.69 Y157.236 E.01705
G1 X30.04 Y155.775 E.01706
G1 X29.539 Y154.257 E.01705
G1 X29.192 Y152.697 E.01705
G1 X29.016 Y151.287 E.01516
G1 X28.967 Y149.69 E.01704
G1 X29.078 Y148.095 E.01705
G1 X29.347 Y146.519 E.01705
G1 X29.771 Y144.978 E.01705
G1 X30.347 Y143.486 E.01706
G1 X31.068 Y142.06 E.01704
G1 X31.928 Y140.712 E.01706
G1 X32.918 Y139.456 E.01706
G1 X34.027 Y138.306 E.01704
G1 X35.246 Y137.271 E.01706
G1 X36.562 Y136.364 E.01705
G1 X37.962 Y135.591 E.01706
G1 X39.432 Y134.962 E.01706
G1 X40.905 Y134.498 E.01647
G1 X40.963 Y134.684 F4200
G1 F1200
G1 X42.555 Y134.349 E.01735
G1 X44.126 Y134.183 E.01685
G1 X45.345 Y134.166 E.013
G1 X46.661 Y134.246 E.01406
G1 X48.222 Y134.49 E.01685
G1 X49.75 Y134.888 E.01684
G1 X51.231 Y135.436 E.01684
G1 X52.65 Y136.129 E.01684
G1 X53.993 Y136.959 E.01684
G1 X55.247 Y137.92 E.01685
G1 X56.399 Y139 E.01684
G1 X57.437 Y140.189 E.01684
G1 X58.353 Y141.477 E.01686
G1 X59.135 Y142.848 E.01684
G1 X59.777 Y144.291 E.01685
G1 X60.272 Y145.791 E.01685
G1 X60.615 Y147.332 E.01684
G1 X60.79 Y148.732 E.01505
G1 X60.838 Y150.31 E.01684
G1 X60.728 Y151.886 E.01685
G1 X60.462 Y153.443 E.01685
G1 X60.043 Y154.965 E.01684
G1 X59.474 Y156.438 E.01684
G1 X58.761 Y157.847 E.01684
G1 X57.911 Y159.178 E.01685
G1 X56.933 Y160.418 E.01685
G1 X55.836 Y161.555 E.01685
G1 X54.632 Y162.576 E.01684
G1 X53.332 Y163.473 E.01685
G1 X51.949 Y164.235 E.01684
G1 X50.74 Y164.761 E.01406
G1 X49.588 Y165.162 E.01301
G1 X48.056 Y165.543 E.01684
G1 X46.493 Y165.77 E.01685
G1 X44.915 Y165.841 E.01685
G1 X43.339 Y165.754 E.01684
G1 X41.944 Y165.543 E.01505
G1 X40.412 Y165.162 E.01684
G1 X38.925 Y164.63 E.01685
G1 X37.498 Y163.952 E.01685
G1 X36.146 Y163.136 E.01684
G1 X34.882 Y162.189 E.01685
G1 X33.719 Y161.121 E.01684
G1 X32.668 Y159.943 E.01684
G1 X31.739 Y158.665 E.01685
G1 X30.942 Y157.302 E.01684
G1 X30.285 Y155.866 E.01684
G1 X29.774 Y154.372 E.01684
G1 X29.415 Y152.834 E.01685
G1 X29.21 Y151.268 E.01685
G1 X29.162 Y149.69 E.01684
G1 X29.272 Y148.114 E.01685
G1 X29.538 Y146.557 E.01685
G1 X29.957 Y145.035 E.01684
G1 X30.526 Y143.562 E.01684
G1 X31.239 Y142.153 E.01684
G1 X32.089 Y140.822 E.01685
G1 X33.067 Y139.582 E.01685
G1 X34.164 Y138.445 E.01685
G1 X35.368 Y137.424 E.01684
G1 X36.668 Y136.527 E.01685
G1 X38.051 Y135.765 E.01684
G1 X39.503 Y135.143 E.01685
G1 X40.935 Y134.693 E.01601
G1 X40.993 Y134.879 F4200
G1 F1200
G1 X42.589 Y134.541 E.0174
G1 X44.141 Y134.378 E.01665
G1 X45.34 Y134.361 E.01279
G1 X46.637 Y134.44 E.01386
G1 X48.178 Y134.68 E.01664
G1 X49.688 Y135.073 E.01664
G1 X51.151 Y135.614 E.01664
G1 X52.553 Y136.298 E.01664
G1 X53.879 Y137.118 E.01663
G1 X55.118 Y138.066 E.01664
G1 X56.256 Y139.133 E.01664
G1 X57.282 Y140.307 E.01663
G1 X58.186 Y141.578 E.01664
G1 X58.959 Y142.933 E.01664
G1 X59.593 Y144.358 E.01664
G1 X60.083 Y145.839 E.01664
G1 X60.422 Y147.362 E.01664
G1 X60.608 Y148.91 E.01663
G1 X60.643 Y150.31 E.01494
G1 X60.534 Y151.866 E.01664
G1 X60.271 Y153.404 E.01664
G1 X59.857 Y154.907 E.01663
G1 X59.294 Y156.362 E.01664
G1 X58.59 Y157.754 E.01664
G1 X57.75 Y159.069 E.01664
G1 X56.784 Y160.293 E.01663
G1 X55.7 Y161.415 E.01664
G1 X54.511 Y162.424 E.01663
G1 X53.226 Y163.309 E.01664
G1 X51.86 Y164.062 E.01664
G1 X50.669 Y164.58 E.01385
G1 X49.536 Y164.974 E.0128
G1 X48.022 Y165.351 E.01664
G1 X46.479 Y165.576 E.01663
G1 X44.92 Y165.646 E.01665
G1 X43.363 Y165.56 E.01663
G1 X41.822 Y165.32 E.01664
G1 X40.312 Y164.927 E.01664
G1 X38.849 Y164.386 E.01664
G1 X37.447 Y163.702 E.01664
G1 X36.121 Y162.882 E.01663
G1 X34.882 Y161.934 E.01664
G1 X33.855 Y160.982 E.01494
G1 X32.817 Y159.817 E.01664
G1 X31.9 Y158.555 E.01664
G1 X31.114 Y157.209 E.01663
G1 X30.465 Y155.79 E.01664
G1 X29.96 Y154.314 E.01664
G1 X29.606 Y152.795 E.01664
G1 X29.404 Y151.249 E.01663
G1 X29.357 Y149.69 E.01664
G1 X29.466 Y148.134 E.01664
G1 X29.729 Y146.596 E.01664
G1 X30.143 Y145.093 E.01663
G1 X30.706 Y143.638 E.01664
G1 X31.41 Y142.246 E.01664
G1 X32.25 Y140.931 E.01664
G1 X33.216 Y139.707 E.01663
G1 X34.3 Y138.585 E.01664
G1 X35.489 Y137.576 E.01663
G1 X36.774 Y136.691 E.01664
G1 X38.14 Y135.938 E.01664
G1 X39.574 Y135.325 E.01663
G1 X40.964 Y134.888 E.01554
G1 E-2.1 F3000
;WIPE_START
G1 F3360
G1 X42.002 Y134.666 E-.9
;WIPE_END
G1 X42.671 Y138.479 F4200
G1 E3 F2400
;TYPE:Perimeter
;WIDTH:0.224999
G1 F1200
G1 X43.248 Y138.377 E.00625
G1 X43.83 Y138.304 E.00626
G1 X44.409 Y138.261 E.00619
G1 X45.095 Y138.254 E.00732
G1 X45.627 Y138.274 E.00568
G1 X46.328 Y138.324 E.0075
G1 X46.862 Y138.396 E.00575
G1 X47.459 Y138.508 E.00648
G1 X48.008 Y138.639 E.00602
G1 X48.57 Y138.803 E.00624
G1 X49.124 Y138.995 E.00625
G1 X49.687 Y139.224 E.00648
G1 X50.199 Y139.461 E.00602
G1 X50.718 Y139.733 E.00625
G1 X51.223 Y140.031 E.00625
G1 X51.73 Y140.366 E.00648
G1 X52.185 Y140.7 E.00602
G1 X52.639 Y141.069 E.00624
G1 X53.075 Y141.461 E.00625
G1 X53.505 Y141.891 E.00649
G1 X53.885 Y142.308 E.00602
G1 X54.257 Y142.76 E.00624
G1 X54.607 Y143.231 E.00626
G1 X54.944 Y143.737 E.00648
G1 X55.233 Y144.221 E.00601
G1 X55.508 Y144.738 E.00625
G1 X55.757 Y145.268 E.00625
G1 X55.987 Y145.831 E.00649
G1 X56.175 Y146.363 E.00602
G1 X56.343 Y146.924 E.00625
G1 X56.482 Y147.494 E.00626
G1 X56.596 Y148.091 E.00648
G1 X56.674 Y148.649 E.00601
G1 X56.727 Y149.233 E.00625
G1 X56.751 Y149.818 E.00625
G1 X56.751 Y150.293 E.00507
G1 X56.721 Y150.878 E.00625
G1 X56.663 Y151.462 E.00626
G1 X56.576 Y152.041 E.00625
G1 X56.46 Y152.616 E.00626
G1 X56.315 Y153.184 E.00625
G1 X56.142 Y153.744 E.00625
G1 X55.942 Y154.294 E.00624
G1 X55.714 Y154.834 E.00625
G1 X55.46 Y155.362 E.00625
G1 X55.18 Y155.877 E.00625
G1 X54.874 Y156.377 E.00625
G1 X54.544 Y156.862 E.00626
G1 X54.19 Y157.329 E.00625
G1 X53.813 Y157.778 E.00625
G1 X53.415 Y158.207 E.00624
G1 X52.995 Y158.617 E.00626
G1 X52.556 Y159.004 E.00624
G1 X52.097 Y159.37 E.00626
G1 X51.621 Y159.712 E.00625
G1 X51.129 Y160.03 E.00625
G1 X50.622 Y160.323 E.00625
G1 X50.106 Y160.587 E.00618
G1 X49.248 Y160.956 E.00996
G1 X48.46 Y161.234 E.00891
G1 X47.9 Y161.391 E.0062
G1 X47.329 Y161.521 E.00625
G1 X46.752 Y161.623 E.00625
G1 X46.17 Y161.696 E.00626
G1 X45.586 Y161.74 E.00625
G1 X45 Y161.754 E.00625
G1 X44.414 Y161.74 E.00625
G1 X43.83 Y161.696 E.00625
G1 X43.248 Y161.623 E.00626
G1 X42.671 Y161.521 E.00625
G1 X42.1 Y161.391 E.00625
G1 X41.535 Y161.232 E.00626
G1 X40.98 Y161.045 E.00625
G1 X40.434 Y160.831 E.00626
G1 X39.9 Y160.59 E.00625
G1 X39.378 Y160.323 E.00625
G1 X38.871 Y160.03 E.00625
G1 X38.379 Y159.712 E.00625
G1 X37.903 Y159.37 E.00625
G1 X37.444 Y159.004 E.00626
G1 X37.005 Y158.617 E.00624
G1 X36.585 Y158.207 E.00626
G1 X36.187 Y157.778 E.00624
G1 X35.81 Y157.329 E.00625
G1 X35.456 Y156.862 E.00625
G1 X35.126 Y156.377 E.00626
G1 X34.82 Y155.877 E.00625
G1 X34.54 Y155.362 E.00625
G1 X34.286 Y154.834 E.00625
G1 X34.058 Y154.294 E.00625
G1 X33.858 Y153.744 E.00624
G1 X33.685 Y153.184 E.00625
G1 X33.54 Y152.616 E.00625
G1 X33.424 Y152.041 E.00626
G1 X33.337 Y151.462 E.00625
G1 X33.279 Y150.878 E.00626
G1 X33.249 Y150.293 E.00625
G1 X33.249 Y149.707 E.00625
G1 X33.279 Y149.122 E.00625
G1 X33.337 Y148.538 E.00626
G1 X33.424 Y147.959 E.00625
G1 X33.54 Y147.384 E.00626
G1 X33.685 Y146.816 E.00625
G1 X33.858 Y146.256 E.00625
G1 X34.058 Y145.706 E.00624
G1 X34.286 Y145.166 E.00625
G1 X34.54 Y144.638 E.00625
G1 X34.82 Y144.123 E.00625
G1 X35.126 Y143.623 E.00625
G1 X35.456 Y143.138 E.00626
G1 X35.81 Y142.671 E.00625
G1 X36.187 Y142.222 E.00625
G1 X36.585 Y141.793 E.00624
G1 X37.005 Y141.383 E.00626
G1 X37.444 Y140.996 E.00624
G1 X37.903 Y140.63 E.00626
G1 X38.379 Y140.288 E.00625
G1 X38.871 Y139.97 E.00625
G1 X39.378 Y139.677 E.00625
G1 X39.9 Y139.41 E.00625
G1 X40.434 Y139.169 E.00625
G1 X40.98 Y138.955 E.00626
G1 X41.535 Y138.768 E.00625
G1 X42.1 Y138.609 E.00626
G1 X42.642 Y138.485 E.00593
G1 X42.632 Y138.288 F4200
G1 F1200
G1 X43.219 Y138.184 E.00636
G1 X43.81 Y138.11 E.00635
G1 X44.401 Y138.066 E.00632
G1 X45.093 Y138.059 E.00738
G1 X45.638 Y138.079 E.00582
G1 X46.352 Y138.13 E.00764
G1 X46.895 Y138.204 E.00585
G1 X47.503 Y138.318 E.0066
G1 X48.061 Y138.452 E.00612
G1 X48.632 Y138.619 E.00635
G1 X49.195 Y138.814 E.00636
G1 X49.768 Y139.046 E.00659
G1 X50.288 Y139.287 E.00611
G1 X50.816 Y139.564 E.00636
G1 X51.328 Y139.867 E.00635
G1 X51.844 Y140.208 E.0066
G1 X52.306 Y140.547 E.00611
G1 X52.768 Y140.923 E.00635
G1 X53.211 Y141.322 E.00636
G1 X53.648 Y141.758 E.00658
G1 X54.034 Y142.182 E.00612
G1 X54.413 Y142.642 E.00636
G1 X54.768 Y143.121 E.00636
G1 X55.11 Y143.635 E.00659
G1 X55.404 Y144.128 E.00612
G1 X55.684 Y144.653 E.00635
G1 X55.937 Y145.193 E.00636
G1 X56.171 Y145.764 E.00658
G1 X56.361 Y146.306 E.00613
G1 X56.531 Y146.876 E.00634
G1 X56.673 Y147.455 E.00636
G1 X56.788 Y148.062 E.00659
G1 X56.868 Y148.63 E.00612
G1 X56.922 Y149.223 E.00635
G1 X56.946 Y149.818 E.00635
G1 X56.946 Y150.298 E.00512
G1 X56.916 Y150.893 E.00635
G1 X56.857 Y151.486 E.00636
G1 X56.768 Y152.075 E.00635
G1 X56.65 Y152.659 E.00636
G1 X56.503 Y153.236 E.00635
G1 X56.327 Y153.806 E.00636
G1 X56.123 Y154.366 E.00636
G1 X55.892 Y154.915 E.00635
G1 X55.633 Y155.451 E.00635
G1 X55.348 Y155.975 E.00636
G1 X55.038 Y156.483 E.00635
G1 X54.702 Y156.975 E.00635
G1 X54.342 Y157.45 E.00636
G1 X53.959 Y157.907 E.00636
G1 X53.554 Y158.343 E.00635
G1 X53.128 Y158.759 E.00635
G1 X52.681 Y159.154 E.00636
G1 X52.215 Y159.525 E.00635
G1 X51.731 Y159.873 E.00636
G1 X51.231 Y160.196 E.00635
G1 X50.715 Y160.494 E.00636
G1 X50.189 Y160.764 E.00631
G1 X49.319 Y161.137 E.0101
G1 X48.519 Y161.419 E.00905
G1 X47.949 Y161.58 E.00632
G1 X47.368 Y161.712 E.00636
G1 X46.781 Y161.816 E.00636
G1 X46.19 Y161.89 E.00635
G1 X45.596 Y161.934 E.00635
G1 X45 Y161.949 E.00636
G1 X44.404 Y161.934 E.00636
G1 X43.81 Y161.89 E.00635
G1 X43.219 Y161.816 E.00635
G1 X42.632 Y161.712 E.00636
G1 X42.051 Y161.58 E.00636
G1 X41.478 Y161.418 E.00635
G1 X40.913 Y161.229 E.00635
G1 X40.358 Y161.011 E.00636
G1 X39.815 Y160.766 E.00635
G1 X39.285 Y160.494 E.00635
G1 X38.769 Y160.196 E.00636
G1 X38.269 Y159.873 E.00635
G1 X37.785 Y159.525 E.00636
G1 X37.319 Y159.154 E.00635
G1 X36.872 Y158.759 E.00636
G1 X36.446 Y158.343 E.00635
G1 X36.041 Y157.907 E.00635
G1 X35.658 Y157.45 E.00636
G1 X35.298 Y156.975 E.00636
G1 X34.962 Y156.483 E.00635
G1 X34.652 Y155.975 E.00635
G1 X34.367 Y155.451 E.00636
G1 X34.108 Y154.915 E.00635
G1 X33.877 Y154.366 E.00635
G1 X33.673 Y153.806 E.00636
G1 X33.497 Y153.236 E.00636
G1 X33.35 Y152.659 E.00635
G1 X33.232 Y152.075 E.00636
G1 X33.143 Y151.486 E.00635
G1 X33.084 Y150.893 E.00636
G1 X33.054 Y150.298 E.00635
G1 X33.054 Y149.702 E.00636
G1 X33.084 Y149.107 E.00635
G1 X33.143 Y148.514 E.00636
G1 X33.232 Y147.925 E.00635
G1 X33.35 Y147.341 E.00636
G1 X33.497 Y146.764 E.00635
G1 X33.673 Y146.194 E.00636
G1 X33.877 Y145.634 E.00636
G1 X34.108 Y145.085 E.00635
G1 X34.367 Y144.549 E.00635
G1 X34.652 Y144.025 E.00636
G1 X34.962 Y143.517 E.00635
G1 X35.298 Y143.025 E.00635
G1 X35.658 Y142.55 E.00636
G1 X36.041 Y142.093 E.00636
G1 X36.446 Y141.657 E.00635
G1 X36.872 Y141.241 E.00635
G1 X37.319 Y140.846 E.00636
G1 X37.785 Y140.475 E.00635
G1 X38.269 Y140.127 E.00636
G1 X38.769 Y139.804 E.00635
G1 X39.285 Y139.506 E.00636
G1 X39.815 Y139.234 E.00635
G1 X40.358 Y138.989 E.00635
G1 X40.913 Y138.771 E.00636
G1 X41.478 Y138.582 E.00635
G1 X42.051 Y138.42 E.00635
G1 X42.603 Y138.294 E.00604
G1 X42.594 Y138.096 F4200
G1 F1200
G1 X43.19 Y137.991 E.00646
G1 X43.791 Y137.916 E.00646
G1 X44.392 Y137.871 E.00643
G1 X45.091 Y137.864 E.00746
G1 X45.649 Y137.885 E.00596
G1 X46.376 Y137.937 E.00777
G1 X46.929 Y138.012 E.00595
G1 X47.546 Y138.128 E.0067
G1 X48.113 Y138.264 E.00622
G1 X48.695 Y138.434 E.00647
G1 X49.266 Y138.632 E.00645
G1 X49.848 Y138.868 E.0067
G1 X50.377 Y139.114 E.00622
G1 X50.913 Y139.395 E.00646
G1 X51.434 Y139.703 E.00646
G1 X51.957 Y140.049 E.00669
G1 X52.428 Y140.395 E.00623
G1 X52.897 Y140.777 E.00645
G1 X53.347 Y141.182 E.00646
G1 X53.791 Y141.625 E.00669
G1 X54.184 Y142.057 E.00623
G1 X54.568 Y142.525 E.00646
G1 X54.929 Y143.011 E.00646
