; generated by PrusaSlicer 2.5.0+win64 on 2023-05-05 at 22:21:31 UTC

; 

; external perimeters extrusion width = 0.23mm
; perimeters extrusion width = 0.23mm
; infill extrusion width = 0.23mm
; solid infill extrusion width = 0.23mm
; top infill extrusion width = 0.20mm

; external perimeters extrusion width = 0.23mm
; perimeters extrusion width = 0.23mm
; infill extrusion width = 0.23mm
; solid infill extrusion width = 0.23mm
; top infill extrusion width = 0.20mm

M107
;TYPE:Custom
G90 ; use absolute coordinates
M83 ; extruder relative mode
M140 S55 ; set final bed temp
;M104 S150 ; set temporary nozzle temp to prevent oozing during homing
G4 S10 ; allow partial nozzle warmup
G28 ; home all axis
G1 Z50 F240
G1 X2 Y10 F3000
M104 S175 ; set final nozzle temp
M190 S55 ; wait for bed temp to stabilize
M109 S175 ; wait for nozzle temp to stabilize
G92 E0
G21 ; set units to millimeters
G90 ; use absolute coordinates
M83 ; use relative distances for extrusion
; Filament gcode
M107
;LAYER_CHANGE
;Z:0.14
;HEIGHT:0.14
;BEFORE_LAYER_CHANGE
G92 E0
;0.14


G1 Z.14 F4200
;AFTER_LAYER_CHANGE
;0.14
G1 E-3 F3000
G1 X29.527 Y151.844 F4200
G1 E3 F2400
M204 P500
;TYPE:Skirt/Brim
;WIDTH:0.225
G1 F1200
G1 X30.793 Y151.795 E.01351
G1 X32.27 Y151.98 E.01588
G1 X33.67 Y152.412 E.01563
G1 X34.996 Y153.092 E.0159
G1 X36.164 Y153.976 E.01562
G1 X37.177 Y155.068 E.0159
G1 X37.971 Y156.298 E.01562
G1 X38.55 Y157.67 E.01588
G1 X38.846 Y158.902 E.01351
G1 X40.032 Y178.095 E.20512
G1 X40.039 Y179.694 E.01705
G1 X39.644 Y181.421 E.0189
G1 X38.538 Y182.805 E.0189
G1 X36.065 Y183.669 E.02794
G1 X26.062 Y183.668 E.10669
G1 X24.335 Y183.272 E.0189
G1 X22.952 Y182.164 E.0189
G1 X22.09 Y179.71 E.02775
G1 X22.009 Y160.165 E.20848
G1 X22.118 Y158.903 E.01351
G1 X22.414 Y157.674 E.01348
G1 X22.993 Y156.3 E.01591
G1 X23.667 Y155.228 E.01351
G1 X24.495 Y154.267 E.01353
G1 X25.616 Y153.326 E.01562
G1 X26.705 Y152.678 E.01351
G1 X28.092 Y152.134 E.0159
G1 X29.498 Y151.85 E.0153
G1 X29.508 Y152.054 F4200
G1 F1200
G1 X30.783 Y151.99 E.01362
G1 X32.231 Y152.171 E.01557
G1 X33.595 Y152.592 E.01522
G1 X34.895 Y153.258 E.01558
G1 X36.031 Y154.119 E.0152
G1 X37.025 Y155.19 E.01558
G1 X37.798 Y156.387 E.0152
G1 X38.365 Y157.732 E.01557
G1 X38.654 Y158.935 E.0132
G1 X39.838 Y178.107 E.20488
G1 X39.844 Y179.694 E.01693
G1 X39.45 Y181.375 E.01843
G1 X38.348 Y182.706 E.01843
G1 X36.065 Y183.474 E.0257
G1 X26.062 Y183.473 E.10669
G1 X24.381 Y183.077 E.01843
G1 X23.051 Y181.975 E.01843
G1 X22.285 Y179.709 E.02551
G1 X22.204 Y160.17 E.20842
G1 X22.282 Y159.123 E.01119
G1 X22.543 Y157.915 E.01318
G1 X23.063 Y156.59 E.01519
G1 X23.695 Y155.522 E.01323
G1 X24.478 Y154.564 E.0132
G1 X25.573 Y153.597 E.01558
G1 X26.622 Y152.94 E.0132
G1 X27.935 Y152.386 E.0152
G1 X29.36 Y152.061 E.01558
G1 X29.478 Y152.055 E.00126
G1 X29.488 Y152.249 F4200
G1 F1200
G1 X30.773 Y152.185 E.01373
G1 X32.193 Y152.363 E.01526
G1 X33.519 Y152.771 E.0148
G1 X34.793 Y153.425 E.01527
G1 X35.898 Y154.262 E.01479
G1 X36.872 Y155.312 E.01527
G1 X37.625 Y156.476 E.01479
G1 X38.18 Y157.794 E.01526
G1 X38.462 Y158.969 E.01289
G1 X39.643 Y178.119 E.20464
G1 X39.65 Y179.694 E.0168
G1 X39.255 Y181.328 E.01794
G1 X38.159 Y182.603 E.01794
G1 X36.065 Y183.279 E.02347
G1 X26.062 Y183.278 E.10669
G1 X24.428 Y182.882 E.01794
G1 X23.154 Y181.785 E.01794
G1 X22.48 Y179.708 E.02329
G1 X22.399 Y160.174 E.20836
G1 X22.476 Y159.147 E.01099
G1 X22.731 Y157.968 E.01287
G1 X23.237 Y156.678 E.01478
G1 X23.854 Y155.636 E.01292
G1 X24.617 Y154.7 E.01289
G1 X25.691 Y153.752 E.01527
G1 X26.715 Y153.111 E.01289
G1 X27.993 Y152.572 E.01479
G1 X29.458 Y152.25 E.016
G1 X29.467 Y152.444 F4200
G1 F1200
G1 X30.764 Y152.379 E.01384
G1 X32.154 Y152.554 E.01495
G1 X33.443 Y152.951 E.01439
G1 X34.692 Y153.591 E.01496
G1 X35.766 Y154.405 E.01437
G1 X36.72 Y155.433 E.01496
G1 X37.451 Y156.565 E.01437
G1 X37.996 Y157.857 E.01495
G1 X38.27 Y159.003 E.01258
G1 X39.449 Y178.13 E.20441
G1 X39.455 Y179.694 E.01668
G1 X39.06 Y181.28 E.01744
G1 X37.97 Y182.498 E.01744
G1 X36.065 Y183.084 E.02126
G1 X26.063 Y183.083 E.10669
G1 X24.476 Y182.688 E.01744
G1 X23.26 Y181.596 E.01744
G1 X22.675 Y179.707 E.02109
G1 X22.594 Y160.179 E.2083
G1 X22.669 Y159.172 E.01078
G1 X22.919 Y158.021 E.01256
G1 X23.41 Y156.767 E.01436
G1 X24.012 Y155.75 E.01261
G1 X24.757 Y154.836 E.01258
G1 X25.809 Y153.908 E.01496
G1 X26.808 Y153.282 E.01258
G1 X28.05 Y152.759 E.01437
G1 X29.437 Y152.446 E.01517
G1 X29.447 Y152.639 F4200
G1 F1200
G1 X30.754 Y152.574 E.01396
G1 X32.116 Y152.745 E.01464
G1 X33.367 Y153.131 E.01397
G1 X34.59 Y153.757 E.01465
G1 X35.633 Y154.548 E.01396
G1 X36.567 Y155.555 E.01465
G1 X37.278 Y156.654 E.01396
G1 X37.811 Y157.919 E.01464
G1 X38.078 Y159.037 E.01227
G1 X39.254 Y178.142 E.20417
G1 X39.26 Y179.694 E.01656
G1 X38.866 Y181.23 E.01692
G1 X37.782 Y182.388 E.01692
G1 X36.065 Y182.889 E.01908
G1 X26.063 Y182.888 E.10669
G1 X24.526 Y182.493 E.01692
G1 X23.369 Y181.408 E.01692
G1 X22.87 Y179.706 E.01892
G1 X22.788 Y160.184 E.20824
G1 X22.863 Y159.196 E.01057
G1 X23.106 Y158.074 E.01225
G1 X23.584 Y156.856 E.01395
G1 X24.17 Y155.864 E.0123
G1 X24.897 Y154.972 E.01227
G1 X25.926 Y154.063 E.01465
G1 X26.901 Y153.453 E.01227
G1 X28.108 Y152.945 E.01396
G1 X29.418 Y152.646 E.01433
G1 E-2.1 F3000
;WIPE_START
G1 F3360
G1 X30.424 Y152.592 E-.855
;WIPE_END
G1 E-.045 F3000
G1 X29.823 Y156.522 F4200
G1 E3 F2400
;TYPE:Perimeter
;WIDTH:0.224999
G1 F1200
G1 X30.579 Y156.466 E.00809
G1 X31.328 Y156.56 E.00805
G1 X32.045 Y156.801 E.00807
G1 X32.7 Y157.179 E.00807
G1 X33.267 Y157.68 E.00807
G1 X33.724 Y158.283 E.00807
G1 X34.053 Y158.964 E.00807
G1 X34.239 Y159.698 E.00807
G1 X34.277 Y160.453 E.00807
G1 X34.163 Y161.21 E.00816
G1 X33.987 Y161.732 E.00588
G1 X33.621 Y162.404 E.00816
G1 X33.135 Y162.983 E.00807
G1 X32.544 Y163.455 E.00807
G1 X31.87 Y163.8 E.00807
G1 X31.142 Y164.005 E.00807
G1 X30.388 Y164.062 E.00807
G1 X29.637 Y163.968 E.00807
G1 X28.92 Y163.727 E.00807
G1 X28.265 Y163.348 E.00807
G1 X27.697 Y162.848 E.00807
G1 X27.241 Y162.245 E.00807
G1 X26.912 Y161.563 E.00807
G1 X26.726 Y160.83 E.00807
G1 X26.687 Y160.068 E.00814
G1 X26.756 Y159.518 E.00591
G1 X26.982 Y158.788 E.00814
G1 X27.343 Y158.124 E.00807
G1 X27.83 Y157.544 E.00807
G1 X28.421 Y157.072 E.00807
G1 X29.094 Y156.727 E.00807
G1 X29.794 Y156.53 E.00775
G1 X29.789 Y156.329 F4200
G1 F1200
G1 X30.584 Y156.27 E.0085
G1 X31.371 Y156.369 E.00847
G1 X32.126 Y156.622 E.00849
G1 X32.815 Y157.02 E.00849
G1 X33.411 Y157.546 E.00849
G1 X33.891 Y158.181 E.00849
G1 X34.237 Y158.897 E.00849
G1 X34.433 Y159.668 E.00849
G1 X34.473 Y160.463 E.00849
G1 X34.353 Y161.255 E.00855
G1 X34.167 Y161.81 E.00624
G1 X33.783 Y162.514 E.00855
G1 X33.272 Y163.124 E.00849
G1 X32.65 Y163.62 E.00849
G1 X31.942 Y163.983 E.00849
G1 X31.176 Y164.198 E.00849
G1 X30.383 Y164.258 E.00849
G1 X29.593 Y164.159 E.00849
G1 X28.839 Y163.905 E.00849
G1 X28.15 Y163.508 E.00849
G1 X27.554 Y162.981 E.00849
G1 X27.073 Y162.347 E.00849
G1 X26.728 Y161.63 E.00849
G1 X26.532 Y160.859 E.00849
G1 X26.492 Y160.06 E.00853
G1 X26.565 Y159.476 E.00628
G1 X26.801 Y158.712 E.00853
G1 X27.181 Y158.013 E.00849
G1 X27.693 Y157.404 E.00849
G1 X28.315 Y156.908 E.00849
G1 X29.023 Y156.545 E.00849
G1 X29.76 Y156.337 E.00817
G1 X29.755 Y156.136 F4200
G1 F1200
G1 X30.588 Y156.074 E.00892
G1 X31.415 Y156.178 E.00889
G1 X32.206 Y156.444 E.0089
G1 X32.929 Y156.861 E.0089
G1 X33.555 Y157.413 E.0089
G1 X34.059 Y158.078 E.0089
G1 X34.421 Y158.83 E.0089
G1 X34.627 Y159.639 E.0089
G1 X34.668 Y160.473 E.0089
G1 X34.543 Y161.301 E.00894
G1 X34.346 Y161.889 E.00661
G1 X33.945 Y162.625 E.00894
G1 X33.409 Y163.264 E.0089
G1 X32.756 Y163.784 E.0089
G1 X32.014 Y164.165 E.0089
G1 X31.21 Y164.391 E.0089
G1 X30.378 Y164.454 E.0089
G1 X29.55 Y164.35 E.0089
G1 X28.759 Y164.084 E.0089
G1 X28.036 Y163.667 E.0089
G1 X27.41 Y163.114 E.0089
G1 X26.906 Y162.449 E.0089
G1 X26.544 Y161.697 E.0089
G1 X26.338 Y160.888 E.0089
G1 X26.296 Y160.053 E.00892
G1 X26.374 Y159.435 E.00664
G1 X26.62 Y158.636 E.00892
G1 X27.02 Y157.903 E.0089
G1 X27.556 Y157.264 E.0089
G1 X28.209 Y156.743 E.0089
G1 X28.951 Y156.362 E.0089
G1 X29.726 Y156.145 E.00858
G1 X29.721 Y155.943 F4200
;TYPE:External perimeter
G1 F1200
G1 X30.593 Y155.878 E.00933
G1 X31.459 Y155.987 E.0093
G1 X32.287 Y156.265 E.00932
G1 X33.043 Y156.702 E.00932
G1 X33.698 Y157.28 E.00932
G1 X34.226 Y157.976 E.00932
G1 X34.605 Y158.763 E.00932
G1 X34.82 Y159.61 E.00932
G1 X34.864 Y160.482 E.00932
G1 X34.734 Y161.347 E.00933
G1 X34.525 Y161.967 E.00697
G1 X34.107 Y162.735 E.00933
G1 X33.546 Y163.404 E.00932
G1 X32.863 Y163.949 E.00932
G1 X32.085 Y164.348 E.00932
G1 X31.244 Y164.584 E.00932
G1 X30.373 Y164.649 E.00932
G1 X29.506 Y164.541 E.00932
G1 X28.678 Y164.263 E.00932
G1 X27.922 Y163.826 E.00932
G1 X27.267 Y163.248 E.00932
G1 X26.739 Y162.551 E.00932
G1 X26.36 Y161.764 E.00932
G1 X26.144 Y160.918 E.00932
G1 X26.101 Y160.046 E.00931
G1 X26.182 Y159.394 E.00701
G1 X26.44 Y158.56 E.00931
G1 X26.858 Y157.792 E.00932
G1 X27.419 Y157.123 E.00932
G1 X28.102 Y156.579 E.00932
G1 X28.88 Y156.18 E.00932
G1 X29.692 Y155.952 E.009
G1 X29.849 Y156.097 F4200
G1 E-3 F3000
G1 X33.617 Y158.238 F4200
G1 E3 F2400
;TYPE:Solid infill
;WIDTH:0.227286
G1 F1200
G1 X33.15 Y157.771 E.00712
G1 X32.614 Y157.298 E.00771
G1 X32.103 Y157.003 E.00637
G1 X33.728 Y158.628 E.0248
G1 X33.914 Y159.015 E.00463
G1 X33.941 Y159.12 E.00118
G1 X31.64 Y156.819 E.03512
G1 X31.238 Y156.696 E.00454
G1 X34.037 Y159.494 E.04271
G1 X34.094 Y159.719 E.00251
G1 X34.1 Y159.836 E.00126
G1 X30.919 Y156.656 E.04854
G1 X30.6 Y156.616 E.00347
G1 X34.114 Y160.13 E.05363
G1 X34.129 Y160.424 E.00317
G1 X30.336 Y156.631 E.05789
G1 X30.076 Y156.65 E.00281
G1 X34.096 Y160.67 E.06135
G1 X34.06 Y160.912 E.00265
G1 X29.822 Y156.674 E.06468
G1 X29.604 Y156.736 E.00244
G1 X34.023 Y161.155 E.06744
G1 X33.956 Y161.366 E.0024
G1 X29.387 Y156.797 E.06974
G1 X29.169 Y156.858 E.00244
G1 X33.886 Y161.575 E.07199
G1 X33.801 Y161.769 E.00228
G1 X28.981 Y156.95 E.07355
G1 X28.797 Y157.044 E.00224
G1 X33.702 Y161.95 E.07487
G1 X33.604 Y162.13 E.00222
G1 X28.612 Y157.139 E.07618
G1 X28.44 Y157.245 E.00219
G1 X33.506 Y162.311 E.07732
G1 X33.38 Y162.464 E.00214
G1 X28.284 Y157.368 E.07777
G1 X28.129 Y157.492 E.00214
G1 X33.253 Y162.616 E.0782
G1 X33.126 Y162.767 E.00214
G1 X27.974 Y157.616 E.07862
G1 X27.932 Y157.649 E.00058
G1 X27.839 Y157.76 E.00156
G1 X32.991 Y162.912 E.07862
G1 X32.836 Y163.035 E.00214
G1 X27.712 Y157.912 E.0782
G1 X27.585 Y158.063 E.00214
G1 X32.68 Y163.159 E.07777
G1 X32.525 Y163.283 E.00214
G1 X27.459 Y158.217 E.07732
G1 X27.361 Y158.397 E.00222
G1 X32.352 Y163.389 E.07618
G1 X32.168 Y163.484 E.00224
G1 X27.262 Y158.578 E.07487
G1 X27.164 Y158.759 E.00222
G1 X31.984 Y163.578 E.07355
G1 X31.796 Y163.669 E.00225
G1 X27.083 Y158.956 E.07193
G1 X27.017 Y159.169 E.00241
G1 X31.578 Y163.731 E.06961
G1 X31.361 Y163.792 E.00244
G1 X26.951 Y159.382 E.0673
G1 X26.893 Y159.603 E.00246
G1 X31.143 Y163.853 E.06486
G1 X30.888 Y163.878 E.00276
G1 X26.862 Y159.851 E.06145
G1 X26.836 Y160.104 E.00274
G1 X30.629 Y163.897 E.05789
G1 X30.364 Y163.912 E.00286
G1 X26.85 Y160.397 E.05363
G1 X26.865 Y160.691 E.00317
G1 X30.046 Y163.872 E.04854
G1 X29.727 Y163.832 E.00347
G1 X26.928 Y161.033 E.04271
G1 X27.024 Y161.408 E.00417
G1 X29.325 Y163.709 E.03512
G1 X28.98 Y163.593 E.00392
G1 X28.861 Y163.524 E.00148
G1 X27.237 Y161.899 E.0248
G1 X27.366 Y162.168 E.00322
G1 X27.802 Y162.744 E.00779
G1 X28.441 Y163.383 E.00975
G1 E-2.1 F3000
;WIPE_START
G1 F3360
G1 X27.802 Y162.744 E-.7664
G1 X27.739 Y162.661 E-.0886
;WIPE_END
G1 E-.045 F3000
G1 X34.947 Y178.907 F4200
G1 E3 F2400
;TYPE:Perimeter
;WIDTH:0.224999
G1 F1200
G1 X35.145 Y179 E.00234
G1 X26.762 Y178.996 E.08942
G1 X26.762 Y174.686 E.04597
G1 X34.167 Y174.686 E.07899
G1 X34.169 Y177.224 E.02708
G1 X34.223 Y177.916 E.00741
G1 X34.335 Y178.324 E.00451
G1 X34.469 Y178.561 E.00291
G1 X34.65 Y178.769 E.00293
G1 X34.919 Y178.895 E.00318
G1 X35.017 Y178.745 F4200
G1 F1200
G1 X35.15 Y178.808 E.00158
G1 X35.562 Y178.82 E.00439
G1 X35.562 Y179.191 E.00396
G1 X26.567 Y179.191 E.09595
G1 X26.567 Y174.491 E.05013
G1 X34.362 Y174.491 E.08315
G1 X34.364 Y177.209 E.029
G1 X34.417 Y177.902 E.00741
G1 X34.52 Y178.264 E.00402
G1 X34.797 Y178.641 E.00498
G1 X34.99 Y178.732 E.00228
G1 X35.089 Y178.582 F4200
G1 F1200
G1 X35.156 Y178.613 E.00079
G1 X35.757 Y178.631 E.00641
G1 X35.757 Y179.386 E.00806
G1 X26.372 Y179.386 E.10011
G1 X26.372 Y174.296 E.05429
G1 X34.557 Y174.296 E.08731
G1 X34.558 Y177.194 E.03092
G1 X34.611 Y177.887 E.00741
G1 X34.706 Y178.204 E.00353
G1 X34.944 Y178.513 E.00416
G1 X35.062 Y178.569 E.0014
G1 X35.162 Y178.419 F4200
;TYPE:External perimeter
G1 F1200
G1 X35.952 Y178.441 E.00844
G1 X35.952 Y179.581 E.01216
G1 X26.177 Y179.58 E.10427
G1 X26.177 Y174.101 E.05845
G1 X34.752 Y174.101 E.09147
G1 X34.752 Y177.179 E.03284
G1 X34.806 Y177.872 E.00741
G1 X34.91 Y178.178 E.00345
G1 X35.14 Y178.398 E.00339
G1 X35.196 Y178.616 F4200
G1 X35.145 Y179
;TYPE:Perimeter
;WIDTH:0.218168
G1 F1200
G1 X35.374 Y179.003 E.00236
G1 E-3 F3000
G1 X35.374 Y178.624 F4200
G1 X35.258 Y178.624
G1 X35.224 Y178.622
G1 X35.181 Y178.617
G1 X35.132 Y178.606
G1 X35.083 Y178.589
G1 X35.036 Y178.567
G1 X34.992 Y178.542
G1 X34.953 Y178.514
G1 X34.925 Y178.491
G1 X34.9 Y178.468
G1 X34.872 Y178.44
G1 X34.85 Y178.415
G1 X34.828 Y178.388
G1 X34.806 Y178.358
G1 X34.786 Y178.328
G1 X34.776 Y178.312
G1 X34.758 Y178.281
G1 X34.734 Y178.234
G1 X34.727 Y178.218
G1 X34.709 Y178.178
G1 X34.686 Y178.117
G1 X34.663 Y178.047
G1 X33.707 Y174.744
G1 E3 F2400
;TYPE:Solid infill
;WIDTH:0.228731
G1 F1200
G1 X34.021 Y175.058 E.00483
G1 X34.021 Y175.339 E.00305
G1 X33.513 Y174.832 E.0078
G1 X33.233 Y174.832 E.00305
G1 X34.021 Y175.62 E.01212
G1 X34.021 Y175.901 E.00305
G1 X32.952 Y174.832 E.01644
G1 X32.671 Y174.832 E.00305
G1 X34.021 Y176.182 E.02076
G1 X34.021 Y176.463 E.00305
G1 X32.39 Y174.832 E.02508
G1 X32.109 Y174.832 E.00305
G1 X34.021 Y176.744 E.0294
G1 X34.021 Y177.025 E.00305
G1 X31.828 Y174.832 E.03372
G1 X31.547 Y174.832 E.00305
G1 X34.032 Y177.317 E.0382
G1 X34.054 Y177.62 E.00331
G1 X31.266 Y174.832 E.04287
G1 X30.985 Y174.832 E.00305
G1 X34.077 Y177.924 E.04753
G1 X34.174 Y178.302 E.00425
G1 X30.704 Y174.832 E.05335
G1 X30.423 Y174.832 E.00305
G1 X34.441 Y178.85 E.06177
G1 X34.16 Y178.85 E.00305
G1 X30.142 Y174.832 E.06177
G1 X29.861 Y174.832 E.00305
G1 X33.879 Y178.85 E.06177
G1 X33.598 Y178.85 E.00305
G1 X29.58 Y174.832 E.06177
G1 X29.299 Y174.832 E.00305
G1 X33.317 Y178.85 E.06177
G1 X33.036 Y178.85 E.00305
G1 X29.018 Y174.832 E.06177
G1 X28.737 Y174.832 E.00305
G1 X32.755 Y178.85 E.06177
G1 X32.474 Y178.85 E.00305
G1 X28.456 Y174.832 E.06177
G1 X28.175 Y174.832 E.00305
G1 X32.193 Y178.85 E.06177
G1 X31.912 Y178.85 E.00305
G1 X27.894 Y174.832 E.06177
G1 X27.613 Y174.832 E.00305
G1 X31.631 Y178.85 E.06177
G1 X31.35 Y178.85 E.00305
G1 X27.332 Y174.832 E.06177
G1 X27.051 Y174.832 E.00305
G1 X31.069 Y178.85 E.06177
G1 X30.788 Y178.85 E.00305
G1 X26.908 Y174.97 E.05964
G1 X26.908 Y175.251 E.00305
G1 X30.507 Y178.85 E.05532
G1 X30.226 Y178.85 E.00305
G1 X26.908 Y175.532 E.051
G1 X26.908 Y175.813 E.00305
G1 X29.945 Y178.85 E.04668
G1 X29.664 Y178.85 E.00305
G1 X26.908 Y176.094 E.04236
G1 X26.908 Y176.375 E.00305
G1 X29.383 Y178.85 E.03804
G1 X29.102 Y178.85 E.00305
G1 X26.908 Y176.656 E.03372
G1 X26.908 Y176.937 E.00305
G1 X28.821 Y178.85 E.0294
G1 X28.54 Y178.85 E.00305
G1 X26.908 Y177.218 E.02508
G1 X26.908 Y177.499 E.00305
G1 X28.259 Y178.85 E.02076
G1 X27.978 Y178.85 E.00305
G1 X26.908 Y177.78 E.01644
G1 X26.908 Y178.061 E.00305
G1 X27.697 Y178.85 E.01212
G1 X27.416 Y178.849 E.00305
G1 X26.908 Y178.342 E.0078
G1 X26.908 Y178.623 E.00305
G1 X27.222 Y178.937 E.00483
M106 S255
;LAYER_CHANGE
;Z:0.26
;HEIGHT:0.12
;BEFORE_LAYER_CHANGE
G92 E0
;0.26


G1 Z.26 F4200
;AFTER_LAYER_CHANGE
;0.26
G1 E-3 F3000
G1 X29.64 Y163.955 F4200
G1 E3 F2400
;TYPE:Perimeter
;WIDTH:0.224999
G1 F1200
G1 X28.925 Y163.715 E.00705
G1 X28.272 Y163.338 E.00705
G1 X27.707 Y162.839 E.00705
G1 X27.252 Y162.238 E.00705
