; generated by PrusaSlicer 2.5.0+win64 on 2023-05-02 at 23:55:13 UTC

; 

; external perimeters extrusion width = 0.23mm
; perimeters extrusion width = 0.23mm
; infill extrusion width = 0.23mm
; solid infill extrusion width = 0.23mm
; top infill extrusion width = 0.20mm

M107
;TYPE:Custom
G90 ; use absolute coordinates
M83 ; extruder relative mode
M140 S55 ; set final bed temp
;M104 S150 ; set temporary nozzle temp to prevent oozing during homing
G4 S10 ; allow partial nozzle warmup
G28 ; home all axis
G1 Z50 F240
G1 X2 Y10 F3000
M104 S175 ; set final nozzle temp
M190 S55 ; wait for bed temp to stabilize
M109 S175 ; wait for nozzle temp to stabilize
G92 E0
G21 ; set units to millimeters
G90 ; use absolute coordinates
M83 ; use relative distances for extrusion
; Filament gcode
M107
;LAYER_CHANGE
;Z:0.14
;HEIGHT:0.14
;BEFORE_LAYER_CHANGE
G92 E0
;0.14


G1 Z.14 F4200
;AFTER_LAYER_CHANGE
;0.14
G1 E-3 F3000
G1 X93.14 Y50.462 F4200
G1 E3 F2400
M204 P500
;TYPE:Skirt/Brim
;WIDTH:0.225
G1 F1200
G1 X94.258 Y48.926 E.02026
G1 X95.904 Y47.978 E.02026
G1 X97.306 Y47.758 E.01514
G1 X104.306 Y47.758 E.07467
G1 X106.163 Y48.153 E.02026
G1 X107.699 Y49.271 E.02026
G1 X108.645 Y50.918 E.02026
G1 X108.865 Y52.317 E.01511
G1 X108.865 Y58.026 E.0609
G1 X108.47 Y59.884 E.02026
G1 X107.352 Y61.42 E.02026
G1 X104.958 Y62.539 E.02819
G1 X102.75 Y62.805 E.02372
G1 X101.531 Y62.868 E.01303
G1 X99.087 Y62.821 E.02607
G1 X96.658 Y62.54 E.02608
G1 X94.876 Y61.883 E.02026
G1 X93.516 Y60.557 E.02026
G1 X92.75 Y58.03 E.02817
G1 X92.746 Y52.32 E.0609
G1 X93.134 Y50.492 E.01994
G1 X93.329 Y50.534 F4200
G1 F1200
G1 X94.449 Y49.017 E.02011
G1 X96.08 Y48.128 E.01982
G1 X97.306 Y47.953 E.01321
G1 X104.306 Y47.953 E.07467
G1 X106.121 Y48.348 E.01982
G1 X107.607 Y49.463 E.01982
G1 X108.496 Y51.094 E.01982
G1 X108.67 Y52.317 E.01318
G1 X108.67 Y58.026 E.0609
G1 X108.275 Y59.842 E.01982
G1 X107.16 Y61.328 E.01982
G1 X104.93 Y62.346 E.02615
G1 X102.731 Y62.611 E.02362
G1 X101.521 Y62.674 E.01293
G1 X99.096 Y62.626 E.02587
G1 X96.686 Y62.347 E.02588
G1 X94.946 Y61.696 E.01982
G1 X93.634 Y60.381 E.01982
G1 X92.945 Y58.03 E.02613
G1 X92.941 Y52.32 E.0609
G1 X93.323 Y50.563 E.01918
G1 X93.517 Y50.606 F4200
G1 F1200
G1 X93.53 Y50.548 E.00064
G1 X94.64 Y49.111 E.01936
G1 X96.255 Y48.282 E.01936
G1 X97.306 Y48.147 E.0113
G1 X104.306 Y48.147 E.07467
G1 X106.078 Y48.543 E.01936
G1 X107.514 Y49.653 E.01936
G1 X108.342 Y51.269 E.01936
G1 X108.475 Y52.317 E.01127
G1 X108.475 Y58.026 E.0609
G1 X108.08 Y59.798 E.01936
G1 X106.97 Y61.234 E.01936
G1 X104.902 Y62.153 E.02413
G1 X102.713 Y62.417 E.02352
G1 X101.313 Y62.484 E.01495
G1 X99.105 Y62.431 E.02355
G1 X96.714 Y62.154 E.02568
G1 X95.017 Y61.51 E.01936
G1 X93.754 Y60.206 E.01936
G1 X93.14 Y58.03 E.02411
G1 X93.136 Y52.32 E.0609
G1 X93.51 Y50.636 E.0184
G1 X93.705 Y50.68 F4200
G1 F1200
G1 X93.725 Y50.592 E.00096
G1 X94.83 Y49.207 E.0189
G1 X97.306 Y48.342 E.02797
G1 X104.306 Y48.342 E.07467
G1 X106.033 Y48.737 E.0189
G1 X107.417 Y49.844 E.0189
G1 X108.281 Y52.317 E.02794
G1 X108.281 Y58.026 E.0609
G1 X107.886 Y59.754 E.0189
G1 X106.779 Y61.138 E.0189
G1 X104.874 Y61.96 E.02213
G1 X102.694 Y62.223 E.02342
G1 X101.313 Y62.289 E.01475
G1 X98.925 Y62.223 E.02548
G1 X96.742 Y61.961 E.02345
G1 X95.089 Y61.324 E.0189
G1 X93.877 Y60.031 E.0189
G1 X93.335 Y58.03 E.02211
G1 X93.331 Y52.32 E.0609
G1 X93.698 Y50.709 E.01762
G1 X93.892 Y50.755 F4200
G1 F1200
G1 X93.92 Y50.638 E.00128
G1 X95.02 Y49.307 E.01843
G1 X97.306 Y48.537 E.02572
G1 X104.306 Y48.537 E.07467
G1 X105.987 Y48.932 E.01843
G1 X107.318 Y50.034 E.01843
G1 X108.086 Y52.317 E.0257
G1 X108.086 Y58.026 E.0609
G1 X107.691 Y59.708 E.01843
G1 X106.589 Y61.039 E.01843
G1 X104.847 Y61.767 E.02015
G1 X102.675 Y62.028 E.02332
G1 X101.313 Y62.094 E.01455
G1 X99.124 Y62.042 E.02335
G1 X96.77 Y61.768 E.02528
G1 X95.162 Y61.137 E.01843
G1 X94.002 Y59.857 E.01843
G1 X93.53 Y58.03 E.02013
G1 X93.526 Y52.32 E.0609
G1 X93.885 Y50.784 E.01683
G1 X94.079 Y50.83 F4200
G1 F1200
G1 X94.114 Y50.685 E.0016
G1 X95.21 Y49.409 E.01794
G1 X97.306 Y48.732 E.02349
G1 X104.306 Y48.732 E.07467
G1 X105.94 Y49.127 E.01794
G1 X107.215 Y50.223 E.01794
G1 X107.891 Y52.317 E.02347
G1 X107.891 Y58.026 E.0609
G1 X107.496 Y59.661 E.01794
G1 X106.4 Y60.936 E.01794
G1 X104.819 Y61.574 E.01819
G1 X102.657 Y61.834 E.02323
G1 X101.313 Y61.899 E.01435
G1 X99.133 Y61.847 E.02325
G1 X96.798 Y61.575 E.02508
G1 X95.236 Y60.951 E.01794
G1 X94.131 Y59.684 E.01794
G1 X93.725 Y58.029 E.01817
G1 X93.721 Y52.32 E.0609
G1 X94.072 Y50.86 E.01602
G1 X94.266 Y50.908 F4200
G1 F1200
G1 X94.309 Y50.733 E.00192
G1 X95.399 Y49.515 E.01744
G1 X97.306 Y48.927 E.02128
G1 X104.306 Y48.927 E.07467
G1 X105.892 Y49.321 E.01744
G1 X107.11 Y50.412 E.01744
G1 X107.696 Y52.317 E.02126
G1 X107.696 Y58.026 E.0609
G1 X107.302 Y59.613 E.01744
G1 X106.211 Y60.83 E.01744
G1 X104.791 Y61.382 E.01625
G1 X102.476 Y61.652 E.02486
G1 X100.308 Y61.704 E.02313
G1 X98.981 Y61.641 E.01417
G1 X96.825 Y61.382 E.02315
G1 X95.312 Y60.766 E.01744
G1 X94.262 Y59.512 E.01744
G1 X93.92 Y58.029 E.01623
G1 X93.916 Y52.319 E.0609
G1 X94.258 Y50.937 E.0152
G1 X94.451 Y50.986 F4200
G1 F1200
G1 X94.503 Y50.783 E.00224
G1 X95.587 Y49.624 E.01692
G1 X97.306 Y49.122 E.0191
G1 X104.306 Y49.122 E.07467
G1 X105.842 Y49.516 E.01692
G1 X107 Y50.6 E.01692
G1 X107.501 Y52.317 E.01908
G1 X107.501 Y58.026 E.0609
G1 X107.107 Y59.563 E.01692
G1 X106.023 Y60.721 E.01692
G1 X104.763 Y61.189 E.01434
G1 X103.772 Y61.332 E.01068
G1 X102.467 Y61.457 E.01398
G1 X100.308 Y61.509 E.02304
G1 X98.999 Y61.447 E.01397
G1 X96.853 Y61.189 E.02306
G1 X95.389 Y60.58 E.01692
G1 X94.398 Y59.342 E.01692
G1 X94.115 Y58.029 E.01432
G1 X94.111 Y52.319 E.0609
G1 X94.444 Y51.015 E.01436
G1 E-2.1 F3000
;WIPE_START
G1 F3360
G1 X94.503 Y50.783 E-.2036
G1 X95.028 Y50.222 E-.6514
;WIPE_END
G1 E-.045 F3000
G1 X98.003 Y53.169 F4200
G1 E3 F2400
;TYPE:Perimeter
;WIDTH:0.224999
G1 F1200
G1 X98.614 Y53.267 E.0066
G1 X99.347 Y53.351 E.00787
G1 X100.152 Y53.403 E.00861
G1 X100.821 Y53.417 E.00714
G1 X101.559 Y53.4 E.00787
G1 X102.296 Y53.348 E.00787
G1 X103.029 Y53.263 E.00787
G1 X103.608 Y53.169 E.00626
G1 X103.608 Y57.423 E.04537
G1 X103.228 Y57.478 E.0041
G1 X102.264 Y57.57 E.01033
G1 X101.287 Y57.617 E.01043
G1 X100.004 Y57.602 E.0137
G1 X99.315 Y57.567 E.00735
G1 X98.003 Y57.423 E.01408
G1 X98.003 Y53.199 E.04505
G1 X97.808 Y52.936 F4200
G1 F1200
G1 X98.636 Y53.074 E.00895
G1 X99.36 Y53.157 E.00778
G1 X100.157 Y53.208 E.00851
G1 X100.817 Y53.223 E.00704
G1 X101.546 Y53.205 E.00778
G1 X102.273 Y53.155 E.00778
G1 X102.997 Y53.071 E.00778
G1 X103.803 Y52.936 E.00872
G1 X103.803 Y57.591 E.04966
G1 X103.251 Y57.671 E.00595
G1 X102.278 Y57.765 E.01043
G1 X101.292 Y57.812 E.01053
G1 X100.316 Y57.812 E.01041
G1 X99.336 Y57.765 E.01047
G1 X98.361 Y57.671 E.01045
G1 X97.808 Y57.591 E.00595
G1 X97.808 Y52.966 E.04934
G1 X97.613 Y52.696 F4200
G1 F1200
G1 X98.658 Y52.88 E.01132
G1 X99.374 Y52.962 E.00768
G1 X100.161 Y53.013 E.00841
G1 X100.812 Y53.028 E.00695
G1 X101.532 Y53.011 E.00768
G1 X102.251 Y52.961 E.00768
G1 X102.966 Y52.878 E.00768
G1 X103.998 Y52.696 E.01118
G1 X103.998 Y57.76 E.05402
G1 X103.274 Y57.865 E.0078
G1 X102.292 Y57.959 E.01053
G1 X101.297 Y58.007 E.01063
G1 X100.311 Y58.007 E.01051
G1 X99.322 Y57.959 E.01057
G1 X98.337 Y57.865 E.01055
G1 X97.613 Y57.76 E.0078
G1 X97.613 Y52.726 E.0537
G1 X97.418 Y52.456 F4200
;TYPE:External perimeter
G1 F1200
G1 X97.979 Y52.573 E.00611
G1 X98.681 Y52.686 E.00759
G1 X99.387 Y52.768 E.00759
G1 X100.166 Y52.818 E.00832
G1 X100.808 Y52.833 E.00685
G1 X101.519 Y52.816 E.00759
G1 X102.229 Y52.767 E.00759
G1 X102.935 Y52.686 E.00759
G1 X103.637 Y52.572 E.00759
G1 X104.193 Y52.456 E.00606
G1 X104.193 Y57.929 E.05838
G1 X103.297 Y58.059 E.00965
G1 X102.306 Y58.154 E.01063
G1 X101.301 Y58.202 E.01073
G1 X100.307 Y58.202 E.01061
G1 X99.308 Y58.154 E.01067
G1 X98.314 Y58.059 E.01065
G1 X97.418 Y57.929 E.00965
G1 X97.418 Y52.486 E.05806
G1 X97.582 Y52.57 F4200
G1 E-3 F3000
G1 X103.55 Y53.631 F4200
G1 E3 F2400
;TYPE:Solid infill
;WIDTH:0.225269
G1 F1200
G1 X103.288 Y53.369 E.00396
G1 X103.05 Y53.407 E.00257
G1 X103.462 Y53.82 E.00623
G1 X103.462 Y54.096 E.00295
G1 X102.803 Y53.437 E.00995
G1 X102.556 Y53.465 E.00266
G1 X103.462 Y54.372 E.0137
G1 X103.462 Y54.648 E.00295
G1 X102.308 Y53.493 E.01744
G1 X102.051 Y53.512 E.00275
G1 X103.462 Y54.924 E.02132
G1 X103.462 Y55.2 E.00295
G1 X101.792 Y53.53 E.02523
G1 X101.533 Y53.547 E.00277
G1 X103.462 Y55.476 E.02914
G1 X103.462 Y55.752 E.00295
G1 X101.263 Y53.553 E.03321
G1 X100.993 Y53.56 E.00288
G1 X103.462 Y56.028 E.03729
G1 X103.462 Y56.304 E.00295
G1 X100.72 Y53.562 E.04143
G1 X100.437 Y53.555 E.00302
G1 X103.462 Y56.58 E.04569
G1 X103.462 Y56.856 E.00295
G1 X100.155 Y53.549 E.04996
G1 X99.862 Y53.533 E.00313
G1 X103.462 Y57.133 E.05438
G1 X103.462 Y57.294 E.00173
G1 X103.359 Y57.306 E.00111
G1 X99.566 Y53.513 E.0573
G1 X99.266 Y53.489 E.00321
G1 X103.11 Y57.332 E.05806
G1 X102.86 Y57.359 E.00268
G1 X98.955 Y53.454 E.059
G1 X98.643 Y53.418 E.00335
G1 X102.611 Y57.386 E.05994
G1 X102.362 Y57.413 E.00268
G1 X98.317 Y53.368 E.0611
G1 X98.149 Y53.341 E.00181
G1 X98.149 Y53.476 E.00144
G1 X102.104 Y57.431 E.05975
G1 X101.841 Y57.444 E.00282
G1 X98.149 Y53.752 E.05577
G1 X98.149 Y54.028 E.00295
G1 X101.578 Y57.457 E.05179
G1 X101.314 Y57.469 E.00282
G1 X98.149 Y54.305 E.04781
G1 X98.149 Y54.581 E.00295
G1 X101.039 Y57.471 E.04366
G1 X100.763 Y57.471 E.00295
G1 X98.149 Y54.857 E.03949
G1 X98.149 Y55.133 E.00295
G1 X100.487 Y57.471 E.03531
G1 X100.205 Y57.465 E.00301
G1 X98.149 Y55.409 E.03106
G1 X98.149 Y55.685 E.00295
G1 X99.915 Y57.451 E.02668
G1 X99.625 Y57.437 E.0031
G1 X98.149 Y55.961 E.0223
G1 X98.149 Y56.237 E.00295
G1 X99.334 Y57.422 E.01789
G1 X99.025 Y57.388 E.00332
G1 X98.149 Y56.513 E.01322
G1 X98.149 Y56.789 E.00295
G1 X98.715 Y57.355 E.00855
G1 X98.406 Y57.322 E.00332
G1 X98.062 Y56.978 E.0052
M106 S255
;LAYER_CHANGE
;Z:0.26
;HEIGHT:0.12
;BEFORE_LAYER_CHANGE
G92 E0
;0.26


G1 Z.26 F4200
;AFTER_LAYER_CHANGE
;0.26
G1 X98.016 Y57.411
;TYPE:Perimeter
;WIDTH:0.224999
G1 F900
G1 X98.016 Y53.184 E.0395
G1 X98.628 Y53.282 E.00579
G1 X99.346 Y53.364 E.00675
G1 X100.152 Y53.416 E.00754
G1 X100.822 Y53.43 E.00626
G1 X101.56 Y53.413 E.0069
G1 X102.297 Y53.361 E.0069
G1 X103.031 Y53.276 E.0069
G1 X103.595 Y53.184 E.00535
G1 X103.595 Y57.411 E.0395
G1 X103.225 Y57.465 E.0035
G1 X102.267 Y57.557 E.00899
G1 X101.28 Y57.604 E.00924
G1 X100.004 Y57.589 E.01192
G1 X99.317 Y57.554 E.00643
G1 X98.046 Y57.415 E.01195
G1 X97.817 Y57.584 F4200
G1 F900
G1 X97.817 Y52.946 E.04334
G1 X98.651 Y53.084 E.0079
G1 X99.36 Y53.165 E.00667
G1 X100.156 Y53.216 E.00746
G1 X100.817 Y53.231 E.00618
G1 X101.546 Y53.214 E.00682
G1 X102.274 Y53.163 E.00682
G1 X102.999 Y53.079 E.00682
G1 X103.795 Y52.946 E.00754
G1 X103.795 Y57.584 E.04334
G1 X103.249 Y57.663 E.00515
G1 X102.281 Y57.756 E.00908
G1 X101.284 Y57.803 E.00933
G1 X100.317 Y57.803 E.00904
G1 X99.337 Y57.756 E.00917
G1 X98.363 Y57.663 E.00914
G1 X97.846 Y57.588 E.00487
G1 X97.617 Y57.757 F4200
G1 F900
G1 X97.617 Y52.701 E.04724
G1 X98.674 Y52.886 E.01002
G1 X99.374 Y52.966 E.00658
G1 X100.161 Y53.017 E.00737
G1 X100.813 Y53.032 E.00609
G1 X101.533 Y53.015 E.00673
G1 X102.251 Y52.965 E.00673
G1 X102.967 Y52.883 E.00673
G1 X103.994 Y52.701 E.00974
G1 X103.994 Y57.757 E.04724
G1 X103.273 Y57.861 E.00681
G1 X102.296 Y57.955 E.00917
G1 X101.289 Y58.003 E.00942
G1 X100.313 Y58.002 E.00913
G1 X99.322 Y57.955 E.00926
G1 X98.339 Y57.861 E.00923
G1 X97.647 Y57.761 E.00653
G1 X97.418 Y57.929 F4200
;TYPE:External perimeter
G1 F900
G1 X97.418 Y52.456 E.05114
G1 X97.979 Y52.573 E.00535
G1 X98.697 Y52.688 E.0068
G1 X99.387 Y52.768 E.0065
G1 X100.166 Y52.818 E.00729
G1 X100.808 Y52.833 E.006
G1 X101.519 Y52.816 E.00665
G1 X102.229 Y52.767 E.00665
G1 X102.935 Y52.686 E.00665
G1 X103.637 Y52.572 E.00665
G1 X104.193 Y52.456 E.00531
G1 X104.193 Y57.929 E.05114
G1 X103.296 Y58.059 E.00847
G1 X102.31 Y58.153 E.00926
G1 X101.294 Y58.202 E.00951
G1 X100.308 Y58.202 E.00922
G1 X99.308 Y58.154 E.00935
G1 X98.315 Y58.059 E.00932
G1 X97.448 Y57.933 E.00819
G1 X97.525 Y57.76 F4200
G1 X103.082 Y57.41
;TYPE:Solid infill
;WIDTH:0.225553
G1 F900
G1 X103.446 Y57.046 E.00482
G1 X103.446 Y56.763 E.00265
G1 X102.867 Y57.343 E.00768
G1 X102.55 Y57.376 E.00298
G1 X103.446 Y56.481 E.01187
G1 X103.446 Y56.198 E.00265
G1 X102.235 Y57.409 E.01605
G1 X101.938 Y57.423 E.00278
G1 X103.446 Y55.915 E.01998
G1 X103.446 Y55.633 E.00265
G1 X101.642 Y57.437 E.02391
G1 X101.345 Y57.451 E.00278
G1 X103.446 Y55.35 E.02784
G1 X103.446 Y55.068 E.00265
G1 X101.059 Y57.455 E.03163
G1 X100.777 Y57.455 E.00265
G1 X103.446 Y54.785 E.03537
G1 X103.446 Y54.503 E.00265
G1 X100.494 Y57.455 E.03912
G1 X100.217 Y57.449 E.0026
G1 X103.446 Y54.22 E.04279
G1 X103.446 Y53.938 E.00265
G1 X99.947 Y57.436 E.04637
G1 X99.677 Y57.424 E.00253
G1 X103.446 Y53.655 E.04994
G1 X103.446 Y53.372 E.00265
G1 X99.408 Y57.411 E.05351
G1 X99.15 Y57.386 E.00243
G1 X103.124 Y53.411 E.05267
G1 X102.8 Y53.453 E.00307
G1 X98.895 Y57.359 E.05175
G1 X98.64 Y57.331 E.00241
G1 X102.481 Y53.49 E.0509
G1 X102.168 Y53.52 E.00295
G1 X98.384 Y57.304 E.05014
G1 X98.165 Y57.28 E.00206
G1 X98.165 Y57.24 E.00038
G1 X101.865 Y53.541 E.04902
G1 X101.562 Y53.561 E.00285
G1 X98.165 Y56.958 E.045
G1 X98.165 Y56.675 E.00265
G1 X101.271 Y53.569 E.04115
G1 X100.982 Y53.576 E.00271
G1 X98.165 Y56.393 E.03732
G1 X98.165 Y56.11 E.00265
G1 X100.699 Y53.577 E.03357
G1 X100.422 Y53.57 E.00259
G1 X98.165 Y55.827 E.02991
G1 X98.165 Y55.545 E.00265
G1 X100.146 Y53.564 E.02625
G1 X99.877 Y53.55 E.00252
G1 X98.165 Y55.262 E.02269
G1 X98.165 Y54.98 E.00265
G1 X99.613 Y53.532 E.01919
G1 X99.349 Y53.513 E.00248
G1 X98.165 Y54.697 E.01569
G1 X98.165 Y54.415 E.00265
G1 X99.094 Y53.486 E.01231
G1 X98.841 Y53.457 E.00239
G1 X98.165 Y54.132 E.00895
G1 X98.165 Y53.85 E.00265
G1 X98.588 Y53.427 E.0056
G1 X98.344 Y53.388 E.00231
G1 X98.076 Y53.657 E.00355
;LAYER_CHANGE
;Z:0.38
;HEIGHT:0.12
;BEFORE_LAYER_CHANGE
G92 E0
;0.38


G1 Z.38 F4200
;AFTER_LAYER_CHANGE
;0.38
G1 X98.016 Y53.184
;TYPE:Perimeter
;WIDTH:0.224999
G1 F900
G1 X98.612 Y53.28 E.00564
G1 X99.346 Y53.364 E.0069
G1 X100.152 Y53.416 E.00754
G1 X100.823 Y53.43 E.00627
G1 X101.586 Y53.411 E.00713
G1 X102.297 Y53.361 E.00666
G1 X103.031 Y53.276 E.0069
G1 X103.595 Y53.184 E.00535
G1 X103.595 Y57.411 E.0395
G1 X103.224 Y57.465 E.00351
G1 X102.271 Y57.557 E.00894
G1 X101.273 Y57.604 E.00934
G1 X100.004 Y57.589 E.01186
G1 X99.317 Y57.554 E.00643
G1 X98.016 Y57.411 E.01223
G1 X98.016 Y53.214 E.03922
G1 X97.817 Y52.946 F4200
G1 F900
G1 X98.635 Y53.082 E.00775
G1 X99.36 Y53.165 E.00682
G1 X100.156 Y53.216 E.00746
G1 X100.818 Y53.231 E.00618
G1 X101.572 Y53.212 E.00705
G1 X102.274 Y53.163 E.00658
G1 X102.999 Y53.079 E.00682
G1 X103.795 Y52.946 E.00754
G1 X103.795 Y57.584 E.04334
G1 X103.248 Y57.663 E.00516
G1 X102.285 Y57.755 E.00903
G1 X101.278 Y57.803 E.00943
G1 X100.318 Y57.803 E.00897
G1 X99.337 Y57.756 E.00918
G1 X98.364 Y57.663 E.00913
G1 X97.817 Y57.584 E.00516
G1 X97.817 Y52.976 E.04306
G1 X97.617 Y52.701 F4200
G1 F900
G1 X98.658 Y52.884 E.00987
G1 X99.374 Y52.966 E.00673
G1 X100.161 Y53.017 E.00737
G1 X100.813 Y53.032 E.00609
G1 X101.558 Y53.013 E.00697
G1 X102.251 Y52.965 E.00649
G1 X102.967 Y52.883 E.00673
G1 X103.994 Y52.701 E.00974
G1 X103.994 Y57.757 E.04724
G1 X103.272 Y57.861 E.00682
G1 X102.3 Y57.954 E.00912
G1 X101.282 Y58.003 E.00952
G1 X100.313 Y58.003 E.00905
G1 X99.322 Y57.955 E.00927
G1 X98.34 Y57.861 E.00922
G1 X97.617 Y57.757 E.00682
G1 X97.617 Y52.731 E.04696
G1 X97.418 Y52.456 F4200
;TYPE:External perimeter
G1 F900
G1 X97.979 Y52.573 E.00535
G1 X98.681 Y52.686 E.00665
G1 X99.387 Y52.768 E.00665
G1 X100.166 Y52.818 E.00729
G1 X100.808 Y52.833 E.00601
G1 X101.545 Y52.815 E.00688
G1 X102.229 Y52.767 E.00641
G1 X102.935 Y52.686 E.00665
G1 X103.637 Y52.572 E.00665
G1 X104.193 Y52.456 E.00531
G1 X104.193 Y57.929 E.05114
G1 X103.295 Y58.059 E.00848
G1 X102.314 Y58.153 E.00921
G1 X101.287 Y58.202 E.00961
G1 X100.309 Y58.202 E.00914
G1 X99.308 Y58.154 E.00936
