; generated by PrusaSlicer 2.5.0+win64 on 2023-04-25 at 16:44:17 UTC

; 

; external perimeters extrusion width = 0.45mm
; perimeters extrusion width = 0.45mm
; infill extrusion width = 0.45mm
; solid infill extrusion width = 0.45mm
; top infill extrusion width = 0.40mm
; first layer extrusion width = 0.42mm

M107
;TYPE:Custom
G90 ; use absolute coordinates
M83 ; extruder relative mode
M140 S55 ; set final bed temp
;M104 S150 ; set temporary nozzle temp to prevent oozing during homing
G4 S10 ; allow partial nozzle warmup
G28 ; home all axis
G1 Z50 F240
G1 X2 Y10 F3000
M104 S180 ; set final nozzle temp
M190 S55 ; wait for bed temp to stabilize
M109 S180 ; wait for nozzle temp to stabilize
G1 Z0.28 F240
G92 E0
G1 Y140 E10 F1500 ; prime the nozzle
G1 X2.3 F5000
G92 E0
G1 Y10 E10 F1200 ; prime the nozzle
G92 E0
G21 ; set units to millimeters
G90 ; use absolute coordinates
M83 ; use relative distances for extrusion
; Filament gcode
M107
;LAYER_CHANGE
;Z:0.24
;HEIGHT:0.24
;BEFORE_LAYER_CHANGE
G92 E0
;0.24


G1 Z.24 F4200
;AFTER_LAYER_CHANGE
;0.24
G1 E-3 F3000
G1 X126.859 Y67.676 F4200
G1 E3 F2400
M204 P500
;TYPE:Skirt/Brim
;WIDTH:0.42
G1 F1200
G1 X127.314 Y66.823 E.03414
G1 X127.915 Y65.925 E.03813
G1 X128.602 Y65.091 E.03813
G1 X129.369 Y64.331 E.03813
G1 X130.843 Y63.219 E.06516
G1 X131.748 Y62.708 E.03668
G1 X132.737 Y62.273 E.03813
G1 X133.764 Y61.937 E.03813
G1 X134.819 Y61.706 E.03813
G1 X135.892 Y61.581 E.03813
G1 X136.972 Y61.563 E.03813
G1 X138.022 Y61.65 E.03719
G1 X139.111 Y61.85 E.03907
G1 X141.081 Y62.523 E.07349
G1 X142.108 Y63.056 E.04082
G1 X143.01 Y63.65 E.03813
G1 X143.849 Y64.331 E.03813
G1 X144.616 Y65.091 E.03813
G1 X145.303 Y65.925 E.03813
G1 X145.904 Y66.823 E.03813
G1 X146.412 Y67.776 E.03813
G1 X146.799 Y68.708 E.03561
G1 X147.31 Y70.686 E.07213
G1 X147.431 Y71.836 E.04082
G1 X147.436 Y72.841 E.03545
G1 X147.338 Y73.916 E.03813
G1 X147.133 Y74.977 E.03813
G1 X146.823 Y76.012 E.03813
G1 X146.412 Y77.011 E.03813
G1 X145.904 Y77.964 E.03813
G1 X145.303 Y78.862 E.03813
G1 X144.616 Y79.695 E.03813
G1 X143.849 Y80.456 E.03813
G1 X142.41 Y81.546 E.06373
G1 X141.469 Y82.078 E.03813
G1 X140.481 Y82.514 E.03813
G1 X139.454 Y82.849 E.03813
G1 X138.399 Y83.081 E.03813
G1 X137.326 Y83.206 E.03813
G1 X136.246 Y83.224 E.03813
G1 X134.289 Y82.978 E.06962
G1 X133.246 Y82.695 E.03813
G1 X132.237 Y82.309 E.03813
G1 X131.272 Y81.824 E.03813
G1 X130.359 Y81.246 E.03813
G1 X129.509 Y80.58 E.03813
G1 X128.729 Y79.832 E.03813
G1 X128.028 Y79.01 E.03813
G1 X127.411 Y78.123 E.03813
G1 X126.894 Y77.194 E.03753
G1 X126.458 Y76.187 E.03873
G1 X126.131 Y75.158 E.03813
G1 X125.908 Y74.101 E.03813
G1 X125.787 Y72.951 E.04082
G1 X125.782 Y71.946 E.03545
G1 X125.88 Y70.871 E.03813
G1 X126.085 Y69.81 E.03813
G1 X126.395 Y68.775 E.03813
G1 X126.831 Y67.729 E.04
G1 X127.155 Y67.902 F4200
G1 F1200
G1 X127.633 Y67.007 E.03583
G1 X128.214 Y66.14 E.03684
G1 X129.373 Y64.83 E.06173
G1 X130.148 Y64.158 E.03622
G1 X131 Y63.555 E.03685
G1 X131.908 Y63.04 E.03684
G1 X132.863 Y62.619 E.03684
G1 X133.855 Y62.294 E.03684
G1 X134.874 Y62.07 E.03684
G1 X135.91 Y61.949 E.03683
G1 X136.954 Y61.931 E.03684
G1 X137.994 Y62.018 E.03683
G1 X139.02 Y62.207 E.03684
G1 X140.022 Y62.498 E.03684
G1 X140.99 Y62.887 E.03683
G1 X141.915 Y63.37 E.03683
G1 X142.787 Y63.944 E.03685
G1 X143.598 Y64.601 E.03684
G1 X144.339 Y65.335 E.03683
G1 X145.004 Y66.14 E.03683
G1 X145.584 Y67.007 E.03684
G1 X146.416 Y68.735 E.06769
G1 X146.732 Y69.729 E.03683
G1 X146.947 Y70.75 E.03684
G1 X147.059 Y71.788 E.03684
G1 X147.068 Y72.831 E.03683
G1 X146.972 Y73.871 E.03684
G1 X146.773 Y74.895 E.03683
G1 X146.474 Y75.895 E.03684
G1 X146.076 Y76.859 E.03684
G1 X145.584 Y77.78 E.03683
G1 X145.004 Y78.647 E.03684
G1 X144.339 Y79.452 E.03684
G1 X143.598 Y80.186 E.03683
G1 X142.217 Y81.232 E.06114
G1 X141.31 Y81.746 E.03683
G1 X140.355 Y82.168 E.03684
G1 X139.363 Y82.492 E.03683
G1 X138.344 Y82.716 E.03683
G1 X137.307 Y82.838 E.03685
G1 X136.264 Y82.856 E.03683
G1 X135.224 Y82.769 E.03683
G1 X134.198 Y82.58 E.03683
G1 X133.196 Y82.289 E.03684
G1 X132.227 Y81.9 E.03684
G1 X131.302 Y81.417 E.03684
G1 X130.43 Y80.843 E.03683
G1 X129.62 Y80.186 E.03684
G1 X128.879 Y79.452 E.03684
G1 X128.214 Y78.647 E.03683
G1 X127.633 Y77.78 E.03683
G1 X126.801 Y76.052 E.06768
G1 X126.486 Y75.058 E.03683
G1 X126.271 Y74.037 E.03683
G1 X126.159 Y72.999 E.03684
G1 X126.15 Y71.956 E.03683
G1 X126.246 Y70.916 E.03684
G1 X126.444 Y69.892 E.03683
G1 X126.744 Y68.892 E.03684
G1 X127.13 Y67.957 E.03572
G1 E-2.1 F3000
;WIPE_START
G1 F3360
G1 X127.602 Y67.066 E-.855
;WIPE_END
G1 E-.045 F3000
G1 X131.224 Y71.141 F4200
G1 E3 F2400
;TYPE:Perimeter
;WIDTH:0.552695
G1 F1200
G1 X131.187 Y71.051 E.00467
G1 X131.316 Y70.55 E.02484
;WIDTH:0.538241
G1 X131.344 Y70.471 E.00387
G1 X131.466 Y70.348 E.00811
;WIDTH:0.498827
G1 X131.589 Y70.225 E.00745
;WIDTH:0.459413
G1 X131.712 Y70.102 E.00679
;WIDTH:0.419999
G1 X131.914 Y70.001 E.00797
;WIDTH:0.465353
G1 X131.896 Y69.819 E.00726
;WIDTH:0.510707
G1 X131.879 Y69.637 E.00805
;WIDTH:0.556061
G1 X131.861 Y69.454 E.00885
G1 X132.143 Y69.005 E.02567
;WIDTH:0.537978
G1 X132.268 Y68.923 E.00694
;WIDTH:0.498652
G1 X132.392 Y68.842 E.00637
;WIDTH:0.459326
G1 X132.517 Y68.76 E.00581
;WIDTH:0.419999
G1 X132.797 Y68.669 E.01039
G1 X132.883 Y68.667 E.00304
;WIDTH:0.455767
G1 X132.941 Y68.429 E.00951
;WIDTH:0.491534
G1 X132.999 Y68.19 E.01036
;WIDTH:0.517697
G1 X133.029 Y68.13 E.00299
;WIDTH:0.543859
G1 X133.059 Y68.07 E.00316
G1 X133.455 Y67.761 E.02371
;WIDTH:0.572291
G1 X133.76 Y67.611 E.01696
;WIDTH:0.60041
G1 X133.878 Y67.584 E.00634
;WIDTH:0.628529
G1 X133.995 Y67.557 E.00666
G1 X134.151 Y67.57 E.00864
G1 X134.39 Y67.285 E.02053
;WIDTH:0.594677
G1 X134.606 Y67.183 E.01242
;WIDTH:0.566546
G1 X134.821 Y67.081 E.01178
;WIDTH:0.560554
G1 X135.308 Y66.967 E.02437
;WIDTH:0.594745
G1 X135.463 Y66.977 E.00806
;WIDTH:0.628935
G1 X135.618 Y66.986 E.00857
G1 X135.762 Y67.046 E.00865
G1 X136.012 Y66.873 E.01679
;WIDTH:0.609852
G1 X136.251 Y66.831 E.01302
;WIDTH:0.572933
G1 X136.491 Y66.79 E.01216
;WIDTH:0.536014
G1 X136.775 Y66.794 E.01316
;WIDTH:0.57922
G1 X136.998 Y66.833 E.01147
;WIDTH:0.629041
G1 X137.222 Y66.871 E.01255
G1 X137.455 Y67.049 E.01623
G1 X137.6 Y66.986 E.00875
G1 X137.755 Y66.977 E.00858
;WIDTH:0.59481
G1 X137.91 Y66.967 E.00807
;WIDTH:0.560579
G1 X138.453 Y67.1 E.02726
;WIDTH:0.56564
G1 X138.64 Y67.192 E.0103
;WIDTH:0.594647
G1 X138.828 Y67.285 E.01089
;WIDTH:0.62853
G1 X139.067 Y67.57 E.02054
G1 X139.223 Y67.557 E.00864
G1 X139.34 Y67.584 E.00666
;WIDTH:0.600426
G1 X139.457 Y67.611 E.00633
;WIDTH:0.572322
G1 X139.88 Y67.842 E.024
;WIDTH:0.543852
G1 X140.159 Y68.07 E.01701
G1 X140.217 Y68.24 E.00849
;WIDTH:0.502568
G1 X140.275 Y68.411 E.00778
;WIDTH:0.461284
G1 X140.333 Y68.581 E.00706
;WIDTH:0.419999
G1 X140.335 Y68.667 E.00304
G1 X140.558 Y68.701 E.00796
;WIDTH:0.458817
G1 X140.716 Y68.784 E.00696
;WIDTH:0.497634
G1 X140.874 Y68.867 E.00762
;WIDTH:0.536451
G1 X141.031 Y68.95 E.00828
;WIDTH:0.543436
G1 X141.315 Y69.365 E.02369
;WIDTH:0.556049
G1 X141.357 Y69.455 E.00476
G1 X141.339 Y69.637 E.00885
;WIDTH:0.510699
G1 X141.322 Y69.819 E.00805
;WIDTH:0.465349
G1 X141.304 Y70.001 E.00726
;WIDTH:0.419999
G1 X141.578 Y70.16 E.01118
;WIDTH:0.459434
G1 X141.679 Y70.268 E.00577
;WIDTH:0.498869
G1 X141.779 Y70.376 E.00633
;WIDTH:0.538304
G1 X141.879 Y70.484 E.00688
;WIDTH:0.546356
G1 X142.023 Y70.977 E.02433
;WIDTH:0.552685
G1 X142.031 Y71.051 E.00356
G1 X141.958 Y71.224 E.00899
;WIDTH:0.508457
G1 X141.886 Y71.396 E.0082
;WIDTH:0.464228
G1 X141.813 Y71.569 E.00741
;WIDTH:0.419999
G1 X141.992 Y71.753 E.00905
;WIDTH:0.460369
G1 X142.063 Y71.881 E.00573
;WIDTH:0.500738
G1 X142.134 Y72.009 E.0063
;WIDTH:0.541107
G1 X142.205 Y72.137 E.00686
G1 X142.205 Y72.65 E.02408
;WIDTH:0.549869
G1 X142.183 Y72.777 E.00615
G1 X142.06 Y72.924 E.00914
;WIDTH:0.506579
G1 X141.937 Y73.071 E.00835
;WIDTH:0.463289
G1 X141.815 Y73.218 E.00755
;WIDTH:0.419999
G1 X141.917 Y73.419 E.00797
;WIDTH:0.462123
G1 X141.952 Y73.549 E.00531
;WIDTH:0.504247
G1 X141.988 Y73.679 E.00586
;WIDTH:0.54637
G1 X142.023 Y73.81 E.0064
G1 X141.879 Y74.303 E.02433
;WIDTH:0.547511
G1 X141.799 Y74.468 E.00876
G1 X141.661 Y74.565 E.00798
;WIDTH:0.505007
G1 X141.523 Y74.661 E.0073
;WIDTH:0.462503
G1 X141.386 Y74.757 E.00662
;WIDTH:0.419999
G1 X141.304 Y74.786 E.00305
;WIDTH:0.464694
G1 X141.319 Y74.974 E.00747
;WIDTH:0.509389
G1 X141.334 Y75.162 E.00828
;WIDTH:0.554084
G1 X141.35 Y75.35 E.00909
G1 X141.075 Y75.782 E.02466
;WIDTH:0.571357
G1 X140.909 Y75.946 E.01159
;WIDTH:0.604735
G1 X140.743 Y76.109 E.01233
;WIDTH:0.62873
G1 X140.437 Y76.222 E.01804
G1 X140.401 Y76.374 E.00865
G1 X140.328 Y76.491 E.00759
;WIDTH:0.597313
G1 X140.256 Y76.607 E.00718
;WIDTH:0.565896
G1 X139.806 Y76.994 E.02925
;WIDTH:0.55073
G1 X139.57 Y77.131 E.01303
G1 X139.38 Y77.117 E.0091
;WIDTH:0.507153
G1 X139.191 Y77.103 E.0083
;WIDTH:0.463576
G1 X139.001 Y77.089 E.00751
;WIDTH:0.419999
G1 X138.899 Y77.291 E.008
;WIDTH:0.461447
G1 X138.808 Y77.399 E.00558
;WIDTH:0.502895
G1 X138.716 Y77.508 E.00614
;WIDTH:0.544342
G1 X138.625 Y77.617 E.00671
G1 X138.14 Y77.785 E.02424
;WIDTH:0.538958
G1 X137.971 Y77.757 E.00798
;WIDTH:0.499305
G1 X137.802 Y77.73 E.00733
;WIDTH:0.459652
G1 X137.634 Y77.702 E.00668
;WIDTH:0.419999
G1 X137.433 Y77.598 E.00797
G1 X137.274 Y77.759 E.00797
;WIDTH:0.461139
G1 X137.156 Y77.833 E.00547
;WIDTH:0.502279
G1 X137.038 Y77.907 E.00602
;WIDTH:0.543419
G1 X136.921 Y77.982 E.00657
G1 X136.419 Y77.995 E.02366
;WIDTH:0.537013
G1 X136.26 Y77.916 E.00823
;WIDTH:0.498009
G1 X136.102 Y77.837 E.00757
;WIDTH:0.459004
G1 X135.944 Y77.758 E.00691
;WIDTH:0.419999
G1 X135.785 Y77.599 E.00794
G1 X135.585 Y77.702 E.00794
;WIDTH:0.46122
G1 X135.454 Y77.736 E.0053
;WIDTH:0.502441
G1 X135.324 Y77.771 E.00583
;WIDTH:0.543661
G1 X135.193 Y77.806 E.00637
G1 X134.71 Y77.667 E.0237
;WIDTH:0.535541
G1 X134.579 Y77.541 E.00841
;WIDTH:0.497027
G1 X134.448 Y77.416 E.00774
;WIDTH:0.458513
G1 X134.318 Y77.29 E.00707
;WIDTH:0.419999
G1 X134.217 Y77.089 E.00796
;WIDTH:0.448745
G1 X133.994 Y77.109 E.00851
;WIDTH:0.47749
G1 X133.771 Y77.129 E.00913
;WIDTH:0.510958
G1 X133.687 Y77.12 E.00372
;WIDTH:0.544426
G1 X133.603 Y77.11 E.00399
G1 X133.185 Y76.831 E.02373
;WIDTH:0.564201
G1 X132.969 Y76.617 E.01492
;WIDTH:0.596467
G1 X132.893 Y76.495 E.00749
;WIDTH:0.628732
G1 X132.817 Y76.374 E.00793
G1 X132.781 Y76.222 E.00865
G1 X132.474 Y76.109 E.01803
;WIDTH:0.604767
G1 X132.309 Y75.946 E.01233
;WIDTH:0.571373
G1 X132.143 Y75.782 E.01159
;WIDTH:0.554063
G1 X131.868 Y75.35 E.02466
G1 X131.883 Y75.162 E.00909
;WIDTH:0.509375
G1 X131.899 Y74.974 E.00828
;WIDTH:0.464687
G1 X131.914 Y74.786 E.00747
;WIDTH:0.434678
G1 X131.635 Y74.633 E.01168
;WIDTH:0.472292
G1 X131.563 Y74.578 E.00364
;WIDTH:0.509905
G1 X131.491 Y74.523 E.00397
;WIDTH:0.547518
G1 X131.419 Y74.468 E.0043
G1 X131.239 Y73.999 E.02388
;WIDTH:0.546356
G1 X131.195 Y73.81 E.00921
G1 X131.248 Y73.636 E.00861
;WIDTH:0.504237
G1 X131.302 Y73.463 E.00787
;WIDTH:0.462118
G1 X131.355 Y73.289 E.00714
;WIDTH:0.419999
G1 X131.404 Y73.218 E.00307
G1 X131.226 Y73.034 E.00905
;WIDTH:0.463282
G1 X131.162 Y72.948 E.0042
;WIDTH:0.506565
G1 X131.098 Y72.863 E.00464
;WIDTH:0.549847
G1 X131.035 Y72.777 E.00509
G1 X131.006 Y72.276 E.02396
;WIDTH:0.541143
G1 X131.012 Y72.137 E.00655
G1 X131.118 Y71.968 E.00934
;WIDTH:0.500762
G1 X131.223 Y71.799 E.00857
;WIDTH:0.460381
G1 X131.328 Y71.63 E.0078
;WIDTH:0.419999
G1 X131.403 Y71.569 E.00341
;WIDTH:0.464231
G1 X131.331 Y71.396 E.0074
;WIDTH:0.508463
G1 X131.259 Y71.224 E.0082
;WIDTH:0.552695
G1 X131.248 Y71.196 E.00144
G1 X131.636 Y71.066 F4200
;WIDTH:0.419999
G1 F1200
G1 X131.626 Y71.007 E.0021
G1 X131.738 Y70.638 E.01363
G1 X131.926 Y70.402 E.01064
G1 X132.179 Y70.302 E.00959
G1 X132.425 Y70.25 E.0089
G1 X132.253 Y69.859 E.01507
G1 X132.278 Y69.584 E.00976
G1 X132.513 Y69.225 E.01516
G1 X132.771 Y69.053 E.01092
G1 X133.042 Y69.035 E.00958
G1 X133.292 Y69.062 E.0089
G1 X133.249 Y68.637 E.01507
G1 X133.336 Y68.414 E.00844
G1 X133.686 Y68.118 E.01619
G1 X133.991 Y68.03 E.01121
G1 X134.254 Y68.097 E.00958
G1 X134.484 Y68.2 E.0089
G1 X134.574 Y67.783 E.01507
G1 X134.696 Y67.622 E.00711
G1 X134.954 Y67.488 E.01025
G1 X135.301 Y67.406 E.0126
G1 X135.545 Y67.467 E.00888
G1 X135.881 Y67.746 E.0154
G1 X136.099 Y67.38 E.01504
G1 X136.355 Y67.233 E.01043
G1 X136.754 Y67.217 E.01407
G1 X137.055 Y67.325 E.0113
G1 X137.249 Y67.562 E.01081
G1 X137.347 Y67.76 E.0078
G1 X137.678 Y67.465 E.01566
G1 X137.917 Y67.406 E.00867
G1 X138.352 Y67.517 E.01585
G1 X138.522 Y67.622 E.00705
G1 X138.644 Y67.783 E.00712
G1 X138.753 Y68.21 E.01555
G1 X139.143 Y68.037 E.01507
G1 X139.357 Y68.044 E.00755
G1 X139.628 Y68.188 E.01084
G1 X139.882 Y68.414 E.01201
G1 X139.969 Y68.637 E.00844
G1 X139.94 Y69.077 E.01555
G1 X140.365 Y69.034 E.01507
G1 X140.533 Y69.088 E.00623
G1 X140.729 Y69.256 E.0091
G1 X140.943 Y69.594 E.01413
G1 X140.965 Y69.859 E.00939
G1 X140.802 Y70.269 E.01556
G1 X141.22 Y70.359 E.01507
G1 X141.335 Y70.437 E.00492
G1 X141.497 Y70.682 E.01035
G1 X141.596 Y71.062 E.01388
G1 X141.535 Y71.329 E.00967
G1 X141.257 Y71.665 E.01541
G1 X141.623 Y71.883 E.01505
G1 X141.781 Y72.197 E.0124
G1 X141.766 Y72.66 E.01633
G1 X141.627 Y72.898 E.00974
G1 X141.243 Y73.132 E.01588
G1 X141.538 Y73.463 E.01567
G1 X141.593 Y73.766 E.01087
G1 X141.435 Y74.234 E.01743
G1 X141.22 Y74.428 E.01024
G1 X140.793 Y74.537 E.01556
G1 X140.965 Y74.928 E.01507
G1 X140.94 Y75.203 E.00976
G1 X140.704 Y75.562 E.01516
G1 X140.533 Y75.699 E.00773
G1 X140.365 Y75.753 E.00624
G1 X139.925 Y75.725 E.01555
G1 X139.969 Y76.15 E.01507
G1 X139.886 Y76.367 E.0082
G1 X139.557 Y76.651 E.01536
G1 X139.421 Y76.723 E.00541
G1 X139.143 Y76.75 E.00985
G1 X138.734 Y76.587 E.01557
G1 X138.643 Y77.005 E.01509
G1 X138.417 Y77.239 E.01152
G1 X138.046 Y77.368 E.01383
G1 X137.751 Y77.352 E.01045
G1 X137.53 Y77.215 E.00917
G1 X137.337 Y77.041 E.00918
G1 X137.119 Y77.407 E.01504
G1 X136.836 Y77.56 E.01136
G1 X136.45 Y77.569 E.0136
G1 X136.163 Y77.462 E.01083
G1 X135.969 Y77.225 E.01081
G1 X135.871 Y77.027 E.0078
G1 X135.539 Y77.322 E.01566
G1 X135.236 Y77.378 E.01088
G1 X134.866 Y77.27 E.01362
G1 X134.618 Y77.076 E.01111
G1 X134.517 Y76.824 E.00958
G1 X134.465 Y76.577 E.0089
G1 X134.075 Y76.75 E.01507
G1 X133.861 Y76.742 E.00755
G1 X133.589 Y76.599 E.01084
G1 X133.336 Y76.372 E.01201
G1 X133.249 Y76.15 E.00844
G1 X133.277 Y75.71 E.01555
G1 X132.853 Y75.753 E.01507
G1 X132.581 Y75.63 E.01053
G1 X132.342 Y75.328 E.01361
G1 X132.246 Y75.012 E.01166
G1 X132.313 Y74.748 E.00959
G1 X132.416 Y74.518 E.0089
G1 X131.998 Y74.428 E.01507
G1 X131.782 Y74.234 E.01024
G1 X131.624 Y73.766 E.01743
G1 X131.683 Y73.458 E.01108
G1 X131.961 Y73.122 E.01541
G1 X131.595 Y72.903 E.01505
G1 X131.452 Y72.66 E.00995
G1 X131.437 Y72.198 E.01634
G1 X131.591 Y71.888 E.01219
G1 X131.975 Y71.655 E.01588
G1 X131.68 Y71.324 E.01567
G1 X131.646 Y71.125 E.00712
G1 X131.991 Y71.053 F4200
;TYPE:External perimeter
G1 F1200
G1 X132.126 Y70.714 E.01288
G1 X132.6 Y70.594 E.01729
G1 X133.115 Y70.602 E.01817
G1 X132.93 Y70.421 E.00912
G1 X132.635 Y69.856 E.02251
G1 X132.63 Y69.694 E.00569
G1 X132.853 Y69.416 E.01258
G1 X133.003 Y69.402 E.00531
G1 X133.353 Y69.443 E.01245
G1 X133.84 Y69.61 E.01817
G1 X133.72 Y69.381 E.00912
G1 X133.614 Y68.752 E.02251
G1 X133.657 Y68.599 E.00561
G1 X133.944 Y68.403 E.01226
G1 X134.104 Y68.434 E.00573
G1 X134.424 Y68.581 E.01245
G1 X134.836 Y68.89 E.01817
G1 X134.792 Y68.636 E.00912
G1 X134.886 Y68.005 E.02251
G1 X134.972 Y67.874 E.00552
G1 X135.295 Y67.775 E.01193
G1 X135.441 Y67.845 E.00572
G1 X135.797 Y68.214 E.01809
G1 X135.993 Y68.471 E.01141
G1 X136.064 Y68.194 E.01008
G1 X136.328 Y67.684 E.02026
G1 X136.446 Y67.59 E.00533
G1 X136.815 Y67.608 E.01305
G1 X136.947 Y67.777 E.00757
G1 X137.175 Y68.256 E.01874
G1 X137.217 Y68.555 E.01066
G1 X137.349 Y68.284 E.01066
G1 X137.794 Y67.83 E.02245
G1 X137.923 Y67.775 E.00494
G1 X138.274 Y67.895 E.0131
G1 X138.34 Y68.039 E.00559
G1 X138.409 Y68.385 E.01245
G1 X138.401 Y68.9 E.01817
G1 X138.581 Y68.715 E.00912
G1 X139.147 Y68.42 E.02251
