; generated by PrusaSlicer 2.6.0-alpha6+win64 on 2023-05-06 at 21:58:32 UTC

; 

; external perimeters extrusion width = 0.23mm
; perimeters extrusion width = 0.23mm
; infill extrusion width = 0.23mm
; solid infill extrusion width = 0.23mm
; top infill extrusion width = 0.20mm

;TYPE:Custom
G90 ; use absolute coordinates
M83 ; extruder relative mode
M140 S55 ; set final bed temp
;M104 S150 ; set temporary nozzle temp to prevent oozing during homing
G4 S10 ; allow partial nozzle warmup
G28 ; home all axis
G1 Z50 F240
G1 X2 Y10 F3000
M104 S175 ; set final nozzle temp
M190 S55 ; wait for bed temp to stabilize
M109 S175 ; wait for nozzle temp to stabilize
G92 E0
G21 ; set units to millimeters
G90 ; use absolute coordinates
M83 ; use relative distances for extrusion
; Filament gcode
M107
;LAYER_CHANGE
;Z:0.14
;HEIGHT:0.14
;BEFORE_LAYER_CHANGE
G92 E0
;0.14


G1 Z.14 F4200
;AFTER_LAYER_CHANGE
;0.14
G1 E-3 F3000
G1 X44.309 Y155.318 F4200
G1 E3 F2400
M204 P500
;TYPE:Skirt/Brim
;WIDTH:0.225
G1 F1200
G1 X46.233 Y154.799 E.02126
G1 X48.222 Y154.672 E.02126
G1 X50.196 Y154.941 E.02125
G1 X52.078 Y155.597 E.02126
G1 X53.793 Y156.612 E.02126
G1 X55.273 Y157.946 E.02125
G1 X56.459 Y159.548 E.02126
G1 X57.229 Y161.148 E.01894
G1 X57.742 Y163.074 E.02126
G1 X57.863 Y165.063 E.02126
G1 X57.588 Y167.037 E.02126
G1 X56.926 Y168.917 E.02126
G1 X55.906 Y170.628 E.02125
G1 X54.566 Y172.104 E.02126
G1 X52.961 Y173.285 E.02126
G1 X51.317 Y174.064 E.0194
G1 X49.494 Y174.547 E.02012
G1 X47.505 Y174.674 E.02126
G1 X45.743 Y174.453 E.01894
G1 X43.847 Y173.839 E.02126
G1 X42.11 Y172.861 E.02126
G1 X40.602 Y171.559 E.02125
G1 X39.381 Y169.984 E.02126
G1 X38.497 Y168.198 E.02126
G1 X37.985 Y166.272 E.02126
G1 X37.864 Y164.283 E.02126
G1 X38.139 Y162.309 E.02126
G1 X38.8 Y160.429 E.02126
G1 X39.821 Y158.718 E.02125
G1 X41.16 Y157.242 E.02126
G1 X42.766 Y156.061 E.02126
G1 X44.282 Y155.331 E.01795
G1 X44.366 Y155.506 F4200
G1 F1200
G1 X46.262 Y154.992 E.02095
G1 X48.212 Y154.867 E.02084
G1 X50.148 Y155.13 E.02084
G1 X51.994 Y155.772 E.02085
G1 X53.675 Y156.767 E.02084
G1 X55.127 Y158.075 E.02085
G1 X56.29 Y159.646 E.02085
G1 X57.119 Y161.415 E.02084
G1 X57.581 Y163.313 E.02084
G1 X57.668 Y165.058 E.01864
G1 X57.397 Y166.993 E.02084
G1 X56.749 Y168.837 E.02085
G1 X55.748 Y170.515 E.02084
G1 X54.434 Y171.961 E.02084
G1 X52.859 Y173.118 E.02085
G1 X51.251 Y173.881 E.01898
G1 X49.465 Y174.354 E.01971
G1 X47.515 Y174.479 E.02084
G1 X45.579 Y174.216 E.02084
G1 X43.923 Y173.659 E.01864
G1 X42.22 Y172.7 E.02085
G1 X40.742 Y171.423 E.02083
G1 X39.545 Y169.878 E.02085
G1 X38.679 Y168.127 E.02084
G1 X38.177 Y166.238 E.02085
G1 X38.059 Y164.288 E.02084
G1 X38.329 Y162.353 E.02084
G1 X38.978 Y160.509 E.02085
G1 X39.979 Y158.832 E.02083
G1 X41.293 Y157.385 E.02085
G1 X42.867 Y156.228 E.02084
G1 X44.339 Y155.519 E.01743
G1 X44.423 Y155.694 F4200
G1 F1200
G1 X46.291 Y155.185 E.02065
G1 X48.202 Y155.062 E.02043
G1 X50.1 Y155.319 E.02043
G1 X51.909 Y155.948 E.02043
G1 X53.558 Y156.923 E.02043
G1 X54.981 Y158.204 E.02042
G1 X56.121 Y159.743 E.02043
G1 X56.934 Y161.477 E.02043
G1 X57.388 Y163.338 E.02043
G1 X57.473 Y165.053 E.01832
G1 X57.207 Y166.95 E.02043
G1 X56.571 Y168.756 E.02042
G1 X55.589 Y170.401 E.02044
G1 X54.301 Y171.818 E.02043
G1 X52.758 Y172.952 E.02043
G1 X51.184 Y173.698 E.01858
G1 X49.436 Y174.161 E.01929
G1 X47.525 Y174.285 E.02043
G1 X45.627 Y174.027 E.02043
G1 X43.818 Y173.398 E.02043
G1 X42.169 Y172.424 E.02043
G1 X40.746 Y171.142 E.02043
G1 X39.606 Y169.603 E.02043
G1 X38.793 Y167.869 E.02043
G1 X38.339 Y166.008 E.02043
G1 X38.253 Y164.293 E.01832
G1 X38.519 Y162.396 E.02043
G1 X39.156 Y160.59 E.02043
G1 X40.138 Y158.945 E.02044
G1 X41.426 Y157.528 E.02043
G1 X42.969 Y156.394 E.02043
G1 X44.396 Y155.707 E.01689
G1 X44.48 Y155.882 F4200
G1 F1200
G1 X46.32 Y155.378 E.02035
G1 X48.192 Y155.256 E.02001
G1 X50.052 Y155.508 E.02002
G1 X51.824 Y156.124 E.02001
G1 X53.44 Y157.078 E.02002
G1 X54.834 Y158.333 E.02001
G1 X55.952 Y159.84 E.02002
G1 X56.749 Y161.539 E.02002
G1 X57.166 Y163.176 E.01802
G1 X57.278 Y165.049 E.02001
G1 X57.017 Y166.907 E.02001
G1 X56.393 Y168.676 E.02001
G1 X55.431 Y170.287 E.02001
G1 X54.168 Y171.675 E.02002
G1 X52.656 Y172.786 E.02001
G1 X51.117 Y173.515 E.01816
G1 X49.407 Y173.968 E.01887
G1 X47.534 Y174.09 E.02002
G1 X45.675 Y173.838 E.02001
G1 X43.902 Y173.223 E.02002
G1 X42.287 Y172.268 E.02001
G1 X40.892 Y171.013 E.02002
G1 X39.775 Y169.506 E.02001
G1 X38.977 Y167.807 E.02002
G1 X38.561 Y166.17 E.01802
G1 X38.448 Y164.297 E.02001
G1 X38.709 Y162.439 E.02001
G1 X39.334 Y160.67 E.02001
G1 X40.296 Y159.059 E.02001
G1 X41.558 Y157.671 E.02001
G1 X43.071 Y156.56 E.02002
G1 X44.453 Y155.895 E.01636
G1 X44.537 Y156.069 F4200
G1 F1200
G1 X46.349 Y155.571 E.02004
G1 X48.183 Y155.451 E.0196
G1 X50.004 Y155.697 E.0196
G1 X51.74 Y156.299 E.0196
G1 X53.322 Y157.233 E.0196
G1 X54.688 Y158.462 E.0196
G1 X55.783 Y159.938 E.0196
G1 X56.565 Y161.601 E.0196
G1 X56.974 Y163.209 E.0177
G1 X57.084 Y165.044 E.01961
G1 X56.827 Y166.863 E.0196
G1 X56.216 Y168.596 E.0196
G1 X55.273 Y170.173 E.0196
G1 X54.036 Y171.532 E.0196
G1 X52.554 Y172.619 E.0196
G1 X51.051 Y173.332 E.01774
G1 X49.378 Y173.776 E.01846
G1 X47.544 Y173.895 E.0196
G1 X45.723 Y173.649 E.0196
G1 X43.987 Y173.047 E.0196
G1 X42.405 Y172.113 E.0196
G1 X41.039 Y170.884 E.0196
G1 X39.943 Y169.408 E.01961
G1 X39.162 Y167.745 E.0196
G1 X38.753 Y166.137 E.0177
G1 X38.643 Y164.302 E.01961
G1 X38.9 Y162.483 E.0196
G1 X39.511 Y160.75 E.0196
G1 X40.454 Y159.173 E.0196
G1 X41.691 Y157.814 E.0196
G1 X43.172 Y156.727 E.0196
G1 X44.51 Y156.082 E.01584
G1 X44.595 Y156.257 F4200
G1 F1200
G1 X46.378 Y155.763 E.01974
G1 X48.173 Y155.646 E.01919
G1 X49.956 Y155.886 E.01919
G1 X51.655 Y156.475 E.01918
G1 X53.205 Y157.389 E.01919
G1 X54.542 Y158.591 E.01918
G1 X55.615 Y160.035 E.01919
G1 X56.322 Y161.504 E.01739
G1 X56.782 Y163.243 E.01919
G1 X56.889 Y165.039 E.01919
G1 X56.637 Y166.82 E.01919
G1 X56.038 Y168.516 E.01919
G1 X55.114 Y170.059 E.01918
G1 X53.903 Y171.389 E.01919
G1 X52.453 Y172.453 E.01918
G1 X50.984 Y173.148 E.01733
G1 X49.349 Y173.583 E.01805
G1 X47.554 Y173.7 E.01919
G1 X45.771 Y173.46 E.01919
G1 X44.072 Y172.871 E.01918
G1 X42.522 Y171.957 E.01919
G1 X41.185 Y170.755 E.01918
G1 X40.112 Y169.311 E.01919
G1 X39.347 Y167.683 E.01919
G1 X38.919 Y165.936 E.01919
G1 X38.838 Y164.307 E.0174
G1 X39.09 Y162.526 E.01919
G1 X39.689 Y160.83 E.01919
G1 X40.612 Y159.287 E.01918
G1 X41.823 Y157.957 E.01919
G1 X43.274 Y156.893 E.01919
G1 X44.567 Y156.27 E.01531
G1 X44.652 Y156.445 F4200
G1 F1200
G1 X46.407 Y155.956 E.01943
G1 X48.163 Y155.84 E.01877
G1 X49.908 Y156.075 E.01878
G1 X51.571 Y156.65 E.01877
G1 X53.087 Y157.544 E.01877
G1 X54.396 Y158.72 E.01877
G1 X55.363 Y159.997 E.01709
G1 X56.141 Y161.576 E.01878
G1 X56.59 Y163.277 E.01877
G1 X56.694 Y165.034 E.01877
G1 X56.447 Y166.776 E.01877
G1 X55.86 Y168.436 E.01878
G1 X54.956 Y169.946 E.01877
G1 X53.771 Y171.246 E.01876
G1 X52.351 Y172.287 E.01878
G1 X50.917 Y172.965 E.01692
G1 X49.32 Y173.39 E.01763
G1 X47.563 Y173.506 E.01878
G1 X45.819 Y173.271 E.01877
G1 X44.156 Y172.696 E.01877
G1 X42.64 Y171.802 E.01877
G1 X41.331 Y170.626 E.01877
G1 X40.281 Y169.213 E.01878
G1 X39.532 Y167.621 E.01877
G1 X39.137 Y166.069 E.01708
G1 X39.033 Y164.312 E.01877
G1 X39.28 Y162.57 E.01877
G1 X39.867 Y160.91 E.01878
G1 X40.771 Y159.401 E.01876
G1 X41.956 Y158.1 E.01877
G1 X43.376 Y157.059 E.01878
G1 X44.625 Y156.458 E.01478
G1 E-2.1 F3000
;WIPE_START
G1 F3360
G1 X45.646 Y156.17 E-.9
;WIPE_END
G1 X45.845 Y160.176 F4200
G1 E3 F2400
;TYPE:Perimeter
;WIDTH:0.224999
G1 F1200
G1 X46.055 Y160.077 E.00248
G1 X46.537 Y159.915 E.00542
G1 X47.036 Y159.804 E.00545
G1 X47.732 Y159.73 E.00747
G1 X48.487 Y159.768 E.00806
G1 X49.171 Y159.91 E.00745
G1 X49.674 Y160.078 E.00566
G1 X50.336 Y160.39 E.00781
G1 X50.944 Y160.813 E.0079
G1 X51.488 Y161.309 E.00785
G1 X51.945 Y161.892 E.0079
G1 X52.319 Y162.527 E.00786
G1 X52.583 Y163.218 E.00789
G1 X52.753 Y163.936 E.00787
G1 X52.802 Y164.672 E.00787
G1 X52.802 Y164.92 E.00265
G1 X52.704 Y165.653 E.00789
G1 X52.51 Y166.364 E.00786
G1 X52.2 Y167.037 E.0079
G1 X51.805 Y167.659 E.00786
G1 X51.315 Y168.206 E.00783
G1 X50.933 Y168.542 E.00543
G1 X50.517 Y168.839 E.00545
G1 X49.905 Y169.177 E.00746
G1 X49.194 Y169.435 E.00807
G1 X48.508 Y169.57 E.00746
G1 X47.999 Y169.61 E.00545
G1 X47.49 Y169.598 E.00543
G1 X46.763 Y169.494 E.00783
G1 X46.058 Y169.27 E.00789
G1 X45.391 Y168.956 E.00786
G1 X44.783 Y168.534 E.00789
G1 X44.238 Y168.037 E.00787
G1 X43.782 Y167.455 E.00789
G1 X43.408 Y166.819 E.00787
G1 X43.144 Y166.128 E.00789
G1 X42.973 Y165.41 E.00787
G1 X42.924 Y164.673 E.00788
G1 X42.973 Y163.936 E.00788
G1 X43.144 Y163.217 E.00788
G1 X43.408 Y162.527 E.00788
G1 X43.783 Y161.89 E.00788
G1 X44.238 Y161.309 E.00787
G1 X44.786 Y160.81 E.00791
G1 X45.391 Y160.39 E.00786
G1 X45.818 Y160.189 E.00503
G1 X45.293 Y160.221 F4200
G1 F1200
G1 X45.749 Y159.988 E.00546
G1 X46.226 Y159.8 E.00547
G1 X46.72 Y159.662 E.00547
G1 X47.224 Y159.573 E.00546
G1 X47.729 Y159.535 E.0054
G1 X48.509 Y159.574 E.00833
G1 X49.266 Y159.734 E.00825
G1 X49.745 Y159.896 E.00539
G1 X50.209 Y160.106 E.00543
G1 X50.651 Y160.362 E.00545
G1 X51.066 Y160.66 E.00545
G1 X51.449 Y160.999 E.00546
G1 X51.797 Y161.374 E.00546
G1 X52.106 Y161.782 E.00546
G1 X52.373 Y162.218 E.00545
G1 X52.595 Y162.68 E.00547
G1 X52.769 Y163.16 E.00545
G1 X52.896 Y163.656 E.00546
G1 X52.972 Y164.162 E.00546
G1 X52.997 Y164.929 E.00819
G1 X52.946 Y165.439 E.00547
G1 X52.845 Y165.941 E.00546
G1 X52.694 Y166.431 E.00547
G1 X52.495 Y166.903 E.00546
G1 X52.25 Y167.353 E.00547
G1 X51.961 Y167.777 E.00547
G1 X51.632 Y168.169 E.00546
G1 X51.265 Y168.527 E.00547
G1 X50.864 Y168.847 E.00547
G1 X50.434 Y169.125 E.00546
G1 X49.983 Y169.356 E.0054
G1 X49.25 Y169.623 E.00832
G1 X48.756 Y169.735 E.0054
G1 X48.248 Y169.799 E.00546
G1 X47.735 Y169.812 E.00547
G1 X47.224 Y169.773 E.00547
G1 X46.72 Y169.685 E.00546
G1 X46.226 Y169.546 E.00547
G1 X45.749 Y169.359 E.00546
G1 X45.293 Y169.125 E.00547
G1 X44.863 Y168.847 E.00546
G1 X44.462 Y168.527 E.00547
G1 X44.095 Y168.169 E.00547
G1 X43.766 Y167.777 E.00546
G1 X43.477 Y167.353 E.00547
G1 X43.232 Y166.903 E.00547
G1 X43.033 Y166.431 E.00546
G1 X42.882 Y165.941 E.00547
G1 X42.78 Y165.439 E.00546
G1 X42.729 Y164.929 E.00547
G1 X42.729 Y164.417 E.00546
G1 X42.78 Y163.907 E.00547
G1 X42.882 Y163.405 E.00546
G1 X43.033 Y162.915 E.00547
G1 X43.232 Y162.443 E.00546
G1 X43.477 Y161.993 E.00547
G1 X43.766 Y161.569 E.00547
G1 X44.095 Y161.177 E.00546
G1 X44.462 Y160.819 E.00547
G1 X44.863 Y160.499 E.00547
G1 X45.268 Y160.238 E.00514
G1 X45.196 Y160.052 F4200
G1 F1200
G1 X45.669 Y159.81 E.00567
G1 X46.164 Y159.615 E.00567
G1 X46.676 Y159.471 E.00567
G1 X47.2 Y159.379 E.00567
G1 X47.727 Y159.339 E.00564
G1 X48.237 Y159.365 E.00545
G1 X48.819 Y159.43 E.00625
G1 X49.318 Y159.547 E.00547
G1 X49.816 Y159.715 E.00561
G1 X50.298 Y159.933 E.00564
G1 X50.757 Y160.198 E.00565
G1 X51.187 Y160.508 E.00565
G1 X51.585 Y160.859 E.00566
G1 X51.946 Y161.249 E.00567
G1 X52.267 Y161.672 E.00566
G1 X52.544 Y162.125 E.00566
G1 X52.774 Y162.604 E.00567
G1 X52.956 Y163.103 E.00567
G1 X53.087 Y163.618 E.00567
G1 X53.166 Y164.143 E.00566
G1 X53.192 Y164.939 E.0085
G1 X53.139 Y165.468 E.00567
G1 X53.034 Y165.99 E.00568
G1 X52.877 Y166.498 E.00567
G1 X52.671 Y166.988 E.00567
G1 X52.416 Y167.455 E.00568
G1 X52.117 Y167.895 E.00567
G1 X51.775 Y168.302 E.00567
G1 X51.394 Y168.674 E.00568
G1 X50.978 Y169.005 E.00567
G1 X50.531 Y169.294 E.00568
G1 X50.061 Y169.535 E.00563
G1 X49.305 Y169.81 E.00858
G1 X48.79 Y169.928 E.00564
G1 X48.262 Y169.994 E.00568
G1 X47.73 Y170.007 E.00568
G1 X47.2 Y169.967 E.00567
G1 X46.676 Y169.875 E.00567
G1 X46.164 Y169.731 E.00567
G1 X45.669 Y169.536 E.00567
G1 X45.196 Y169.294 E.00567
G1 X44.749 Y169.005 E.00568
G1 X44.333 Y168.674 E.00567
G1 X43.952 Y168.302 E.00568
G1 X43.61 Y167.895 E.00567
G1 X43.311 Y167.455 E.00567
G1 X43.056 Y166.988 E.00568
G1 X42.85 Y166.498 E.00567
G1 X42.693 Y165.99 E.00567
G1 X42.587 Y165.468 E.00568
G1 X42.534 Y164.939 E.00567
G1 X42.534 Y164.407 E.00567
G1 X42.587 Y163.878 E.00567
G1 X42.693 Y163.356 E.00568
G1 X42.85 Y162.848 E.00567
G1 X43.056 Y162.358 E.00567
G1 X43.311 Y161.891 E.00568
G1 X43.61 Y161.451 E.00567
G1 X43.952 Y161.044 E.00567
G1 X44.333 Y160.673 E.00567
G1 X44.749 Y160.341 E.00568
G1 X45.17 Y160.069 E.00535
G1 X45.098 Y159.883 F4200
;TYPE:External perimeter
G1 F1200
G1 X45.589 Y159.632 E.00588
G1 X46.102 Y159.43 E.00588
G1 X46.633 Y159.281 E.00588
G1 X47.176 Y159.185 E.00588
G1 X47.724 Y159.144 E.00586
G1 X48.247 Y159.17 E.00559
G1 X48.853 Y159.238 E.0065
G1 X49.371 Y159.359 E.00567
G1 X49.887 Y159.533 E.00581
G1 X50.387 Y159.759 E.00585
G1 X50.863 Y160.034 E.00586
G1 X51.309 Y160.356 E.00587
G1 X51.721 Y160.72 E.00586
G1 X52.096 Y161.123 E.00587
G1 X52.428 Y161.562 E.00587
G1 X52.715 Y162.032 E.00587
G1 X52.954 Y162.528 E.00587
G1 X53.142 Y163.045 E.00587
G1 X53.278 Y163.579 E.00588
G1 X53.36 Y164.124 E.00588
G1 X53.387 Y164.949 E.0088
G1 X53.332 Y165.497 E.00587
G1 X53.223 Y166.038 E.00589
G1 X53.061 Y166.565 E.00588
G1 X52.846 Y167.073 E.00588
G1 X52.583 Y167.557 E.00588
G1 X52.272 Y168.013 E.00589
G1 X51.918 Y168.435 E.00588
G1 X51.523 Y168.82 E.00588
G1 X51.092 Y169.164 E.00588
G1 X50.629 Y169.463 E.00588
G1 X50.139 Y169.714 E.00587
G1 X49.36 Y169.997 E.00884
G1 X48.824 Y170.12 E.00587
G1 X48.277 Y170.188 E.00588
G1 X47.726 Y170.202 E.00588
G1 X47.176 Y170.161 E.00588
G1 X46.633 Y170.065 E.00588
G1 X46.102 Y169.916 E.00588
G1 X45.589 Y169.714 E.00588
G1 X45.098 Y169.463 E.00588
G1 X44.635 Y169.164 E.00588
G1 X44.204 Y168.82 E.00588
G1 X43.809 Y168.435 E.00588
G1 X43.455 Y168.013 E.00588
G1 X43.144 Y167.557 E.00589
G1 X42.88 Y167.073 E.00588
G1 X42.666 Y166.565 E.00588
G1 X42.504 Y166.038 E.00588
G1 X42.394 Y165.497 E.00589
G1 X42.34 Y164.949 E.00587
G1 X42.34 Y164.397 E.00589
G1 X42.394 Y163.849 E.00587
G1 X42.504 Y163.308 E.00589
G1 X42.666 Y162.781 E.00588
G1 X42.88 Y162.273 E.00588
G1 X43.144 Y161.789 E.00588
G1 X43.455 Y161.334 E.00588
G1 X43.809 Y160.911 E.00588
G1 X44.204 Y160.526 E.00588
G1 X44.635 Y160.182 E.00588
G1 X45.073 Y159.9 E.00556
G1 X45.271 Y159.983 F4200
G1 E-3 F3000
G1 X51.897 Y161.926 F4200
G1 E3 F2400
;TYPE:Solid infill
;WIDTH:0.225761
G1 F1200
G1 X51.039 Y161.075 E.01294
G1 X50.665 Y160.777 E.00512
G1 X50.158 Y160.464 E.00638
G1 X52.069 Y162.374 E.02893
G1 X52.187 Y162.591 E.00265
G1 X52.317 Y162.899 E.00358
G1 X49.639 Y160.221 E.04055
G1 X49.216 Y160.075 E.00479
G1 X52.462 Y163.321 E.04916
G1 X52.554 Y163.69 E.00407
G1 X48.844 Y159.979 E.05619
G1 X48.508 Y159.92 E.00365
G1 X52.616 Y164.028 E.06221
G1 X52.646 Y164.336 E.00331
G1 X48.211 Y159.9 E.06717
G1 X47.92 Y159.886 E.00312
G1 X52.656 Y164.622 E.07172
G1 X52.656 Y164.899 E.00297
G1 X47.641 Y159.883 E.07595
G1 X47.383 Y159.903 E.00277
G1 X52.632 Y165.152 E.07949
G1 X52.606 Y165.402 E.00269
G1 X47.138 Y159.934 E.08281
G1 X46.903 Y159.976 E.00256
G1 X52.559 Y165.632 E.08565
G1 X52.512 Y165.862 E.00251
G1 X46.678 Y160.028 E.08835
G1 X46.462 Y160.088 E.0024
G1 X52.447 Y166.074 E.09064
G1 X52.382 Y166.285 E.00236
G1 X46.253 Y160.156 E.09282
G1 X46.054 Y160.234 E.00229
G1 X52.302 Y166.482 E.09462
G1 X52.22 Y166.677 E.00227
G1 X45.858 Y160.315 E.09634
G1 X45.675 Y160.409 E.0022
G1 X52.129 Y166.862 E.09773
G1 X52.031 Y167.042 E.00219
G1 X45.492 Y160.503 E.09902
G1 X45.322 Y160.609 E.00215
G1 X51.93 Y167.217 E.10007
G1 X51.817 Y167.382 E.00214
G1 X45.154 Y160.718 E.10091
G1 X44.992 Y160.833 E.00213
G1 X51.705 Y167.546 E.10166
G1 X51.581 Y167.699 E.00211
G1 X44.838 Y160.956 E.10211
G1 X44.684 Y161.079 E.00211
G1 X51.455 Y167.849 E.10253
G1 X51.323 Y167.994 E.0021
G1 X44.544 Y161.215 E.10266
G1 X44.404 Y161.352 E.0021
G1 X51.183 Y168.131 E.10266
G1 X51.042 Y168.267 E.0021
G1 X44.272 Y161.497 E.10252
G1 X44.146 Y161.647 E.0021
G1 X50.889 Y168.391 E.10212
G1 X50.735 Y168.513 E.0021
G1 X44.021 Y161.8 E.10167
G1 X43.909 Y161.965 E.00214
G1 X50.573 Y168.628 E.10091
G1 X50.405 Y168.737 E.00214
G1 X43.797 Y162.129 E.10007
G1 X43.696 Y162.305 E.00217
