; generated by PrusaSlicer 2.6.0-alpha6+win64 on 2023-05-06 at 19:53:40 UTC

; 

; external perimeters extrusion width = 0.23mm
; perimeters extrusion width = 0.23mm
; infill extrusion width = 0.23mm
; solid infill extrusion width = 0.23mm
; top infill extrusion width = 0.20mm

;TYPE:Custom
G90 ; use absolute coordinates
M83 ; extruder relative mode
M140 S55 ; set final bed temp
;M104 S150 ; set temporary nozzle temp to prevent oozing during homing
G4 S10 ; allow partial nozzle warmup
G28 ; home all axis
G1 Z50 F240
G1 X2 Y10 F3000
M104 S175 ; set final nozzle temp
M190 S55 ; wait for bed temp to stabilize
M109 S175 ; wait for nozzle temp to stabilize
G92 E0
G21 ; set units to millimeters
G90 ; use absolute coordinates
M83 ; use relative distances for extrusion
; Filament gcode
M107
;LAYER_CHANGE
;Z:0.14
;HEIGHT:0.14
;BEFORE_LAYER_CHANGE
G92 E0
;0.14


G1 Z.14 F4200
;AFTER_LAYER_CHANGE
;0.14
G1 E-3 F3000
G1 X45.354 Y154.824 F4200
G1 E3 F2400
M204 P500
;TYPE:Skirt/Brim
;WIDTH:0.225
G1 F1200
G1 X45.494 Y154.783 E.00156
G1 X46.491 Y154.596 E.01082
G1 X48.226 Y154.509 E.01853
G1 X49.236 Y154.596 E.01081
G1 X50.232 Y154.783 E.01081
G1 X51.205 Y155.068 E.01081
G1 X52.145 Y155.448 E.01081
G1 X53.042 Y155.92 E.01081
G1 X53.888 Y156.48 E.01082
G1 X54.674 Y157.12 E.01081
G1 X55.392 Y157.836 E.01082
G1 X56.036 Y158.619 E.01081
G1 X56.598 Y159.463 E.01082
G1 X57.382 Y161.093 E.01929
G1 X57.692 Y162.058 E.01081
G1 X57.903 Y163.05 E.01082
G1 X58.015 Y164.057 E.01081
G1 X58.026 Y165.071 E.01082
G1 X57.935 Y166.081 E.01082
G1 X57.745 Y167.077 E.01082
G1 X57.457 Y168.049 E.01081
G1 X57.073 Y168.987 E.01081
G1 X56.598 Y169.883 E.01082
G1 X56.036 Y170.727 E.01082
G1 X55.392 Y171.51 E.01081
G1 X54.674 Y172.226 E.01082
G1 X53.289 Y173.275 E.01853
G1 X52.406 Y173.772 E.01081
G1 X51.477 Y174.179 E.01082
G1 X50.513 Y174.492 E.01081
G1 X49.522 Y174.707 E.01082
G1 X48.515 Y174.822 E.01081
G1 X47.501 Y174.837 E.01082
G1 X46.491 Y174.75 E.01081
G1 X45.494 Y174.563 E.01082
G1 X44.521 Y174.278 E.01081
G1 X43.582 Y173.898 E.01081
G1 X42.685 Y173.426 E.01081
G1 X41.839 Y172.867 E.01082
G1 X41.053 Y172.226 E.01082
G1 X40.335 Y171.51 E.01082
G1 X39.691 Y170.727 E.01081
G1 X39.129 Y169.883 E.01082
G1 X38.654 Y168.987 E.01082
G1 X38.27 Y168.049 E.01081
G1 X37.982 Y167.077 E.01081
G1 X37.791 Y166.081 E.01082
G1 X37.701 Y164.275 E.01929
G1 X37.791 Y163.265 E.01082
G1 X37.982 Y162.269 E.01082
G1 X38.27 Y161.297 E.01081
G1 X38.654 Y160.359 E.01081
G1 X39.129 Y159.463 E.01082
G1 X39.691 Y158.619 E.01082
G1 X40.335 Y157.836 E.01081
G1 X41.053 Y157.12 E.01082
G1 X41.839 Y156.48 E.01081
G1 X42.684 Y155.92 E.01081
G1 X43.582 Y155.448 E.01082
G1 X44.521 Y155.068 E.01081
G1 X45.325 Y154.832 E.00894
G1 X45.38 Y155.062 F4200
G1 F1200
G1 X46.52 Y154.789 E.0125
G1 X48.216 Y154.704 E.01811
G1 X50.184 Y154.972 E.02119
G1 X52.06 Y155.624 E.02118
G1 X53.77 Y156.635 E.02119
G1 X55.246 Y157.965 E.02119
G1 X56.429 Y159.561 E.02119
G1 X57.201 Y161.164 E.01898
G1 X57.711 Y163.084 E.02119
G1 X57.831 Y165.066 E.02118
G1 X57.555 Y167.034 E.0212
G1 X56.895 Y168.907 E.02118
G1 X55.877 Y170.613 E.02119
G1 X54.541 Y172.083 E.02119
G1 X53.188 Y173.108 E.01811
G1 X51.411 Y173.996 E.02119
G1 X49.493 Y174.514 E.02119
G1 X47.511 Y174.642 E.02119
G1 X45.543 Y174.374 E.02119
G1 X43.666 Y173.722 E.02119
G1 X41.956 Y172.711 E.02119
G1 X40.622 Y171.534 E.01898
G1 X39.406 Y169.963 E.02119
G1 X38.526 Y168.182 E.02119
G1 X38.016 Y166.262 E.02119
G1 X37.896 Y164.28 E.02118
G1 X38.172 Y162.313 E.02119
G1 X38.832 Y160.439 E.02119
G1 X39.85 Y158.733 E.02119
G1 X41.185 Y157.263 E.02118
G1 X42.786 Y156.087 E.02119
G1 X44.588 Y155.251 E.02119
G1 X45.35 Y155.069 E.00836
G1 X45.396 Y155.247 F4200
G1 F1200
G1 X46.301 Y155.019 E.00995
G1 X48.206 Y154.899 E.02036
G1 X50.136 Y155.161 E.02078
G1 X51.976 Y155.8 E.02078
G1 X53.492 Y156.675 E.01867
G1 X54.965 Y157.949 E.02077
G1 X56.157 Y159.489 E.02077
G1 X57.019 Y161.235 E.02077
G1 X57.519 Y163.117 E.02077
G1 X57.636 Y165.062 E.02078
G1 X57.365 Y166.99 E.02077
G1 X56.718 Y168.827 E.02077
G1 X55.719 Y170.499 E.02078
G1 X54.409 Y171.94 E.02077
G1 X53.086 Y172.942 E.0177
G1 X51.344 Y173.813 E.02077
G1 X49.464 Y174.321 E.02077
G1 X47.521 Y174.447 E.02077
G1 X45.591 Y174.185 E.02078
G1 X43.751 Y173.547 E.02077
G1 X42.235 Y172.671 E.01868
G1 X40.762 Y171.398 E.02077
G1 X39.57 Y169.857 E.02078
G1 X38.707 Y168.111 E.02077
G1 X38.208 Y166.229 E.02077
G1 X38.091 Y164.285 E.02077
G1 X38.362 Y162.356 E.02078
G1 X39.009 Y160.519 E.02077
G1 X40.008 Y158.847 E.02078
G1 X41.318 Y157.406 E.02077
G1 X42.888 Y156.253 E.02078
G1 X44.655 Y155.434 E.02077
G1 X45.366 Y155.255 E.00782
G1 X45.414 Y155.452 F4200
G1 F1200
G1 X46.578 Y155.174 E.01277
G1 X48.197 Y155.094 E.01729
G1 X50.088 Y155.35 E.02035
G1 X51.891 Y155.975 E.02035
G1 X53.382 Y156.836 E.01837
G1 X54.825 Y158.085 E.02036
G1 X55.993 Y159.595 E.02036
G1 X56.838 Y161.306 E.02035
G1 X57.327 Y163.151 E.02036
G1 X57.441 Y165.057 E.02037
G1 X57.175 Y166.947 E.02036
G1 X56.54 Y168.747 E.02036
G1 X55.561 Y170.385 E.02035
G1 X54.276 Y171.797 E.02036
G1 X52.984 Y172.776 E.01729
G1 X51.277 Y173.63 E.02036
G1 X49.435 Y174.129 E.02036
G1 X47.53 Y174.252 E.02036
G1 X45.639 Y173.997 E.02035
G1 X43.835 Y173.371 E.02037
G1 X42.192 Y172.4 E.02036
G1 X40.901 Y171.261 E.01836
G1 X39.734 Y169.751 E.02036
G1 X38.889 Y168.04 E.02035
G1 X38.4 Y166.195 E.02036
G1 X38.286 Y164.289 E.02037
G1 X38.552 Y162.399 E.02036
G1 X39.187 Y160.599 E.02036
G1 X40.166 Y158.961 E.02035
G1 X41.451 Y157.549 E.02036
G1 X42.989 Y156.419 E.02036
G1 X44.721 Y155.617 E.02036
G1 X45.384 Y155.459 E.00727
G1 X45.429 Y155.648 F4200
G1 F1200
G1 X46.607 Y155.367 E.01292
G1 X48.187 Y155.288 E.01687
G1 X50.04 Y155.538 E.01994
G1 X51.807 Y156.151 E.01995
G1 X53.417 Y157.101 E.01994
G1 X54.807 Y158.352 E.01995
G1 X55.922 Y159.853 E.01994
G1 X56.656 Y161.378 E.01805
G1 X57.135 Y163.185 E.01994
G1 X57.246 Y165.052 E.01995
G1 X56.985 Y166.903 E.01994
G1 X56.362 Y168.667 E.01995
G1 X55.402 Y170.271 E.01994
G1 X54.144 Y171.654 E.01994
G1 X52.883 Y172.609 E.01687
G1 X51.211 Y173.446 E.01994
G1 X49.406 Y173.936 E.01995
G1 X47.54 Y174.058 E.01995
G1 X45.687 Y173.808 E.01994
G1 X43.92 Y173.195 E.01995
G1 X42.31 Y172.245 E.01994
G1 X41.041 Y171.125 E.01805
G1 X39.898 Y169.646 E.01994
G1 X39.07 Y167.969 E.01995
G1 X38.592 Y166.161 E.01995
G1 X38.481 Y164.294 E.01995
G1 X38.742 Y162.443 E.01994
G1 X39.365 Y160.679 E.01995
G1 X40.324 Y159.075 E.01993
G1 X41.583 Y157.692 E.01995
G1 X43.091 Y156.586 E.01995
G1 X44.788 Y155.801 E.01994
G1 X45.4 Y155.655 E.00671
G1 X45.445 Y155.843 F4200
G1 F1200
G1 X46.636 Y155.56 E.01306
G1 X48.177 Y155.483 E.01646
G1 X49.992 Y155.727 E.01953
G1 X51.722 Y156.326 E.01953
G1 X53.3 Y157.257 E.01954
G1 X54.546 Y158.357 E.01773
G1 X55.665 Y159.806 E.01953
G1 X56.475 Y161.449 E.01954
G1 X56.943 Y163.219 E.01953
G1 X57.051 Y165.047 E.01953
G1 X56.795 Y166.86 E.01953
G1 X56.184 Y168.586 E.01953
G1 X55.244 Y170.158 E.01954
G1 X54.011 Y171.511 E.01953
G1 X52.781 Y172.443 E.01646
G1 X51.144 Y173.263 E.01953
G1 X49.377 Y173.743 E.01953
G1 X47.55 Y173.863 E.01953
G1 X45.735 Y173.619 E.01953
G1 X44.005 Y173.02 E.01953
G1 X42.427 Y172.09 E.01954
G1 X41.18 Y170.989 E.01774
G1 X40.061 Y169.54 E.01953
G1 X39.252 Y167.897 E.01953
G1 X38.784 Y166.127 E.01953
G1 X38.676 Y164.299 E.01953
G1 X38.932 Y162.486 E.01953
G1 X39.542 Y160.76 E.01953
G1 X40.483 Y159.188 E.01954
G1 X41.716 Y157.835 E.01953
G1 X43.193 Y156.752 E.01954
G1 X44.855 Y155.984 E.01953
G1 X45.416 Y155.85 E.00615
G1 X45.461 Y156.039 F4200
G1 F1200
G1 X46.665 Y155.753 E.0132
G1 X48.167 Y155.678 E.01604
G1 X49.944 Y155.916 E.01912
G1 X51.638 Y156.502 E.01912
G1 X53.182 Y157.412 E.01912
G1 X54.515 Y158.61 E.01912
G1 X55.585 Y160.048 E.01912
G1 X56.294 Y161.52 E.01743
G1 X56.751 Y163.253 E.01912
G1 X56.856 Y165.042 E.01912
G1 X56.605 Y166.817 E.01912
G1 X56.007 Y168.506 E.01911
G1 X55.086 Y170.044 E.01912
G1 X53.878 Y171.368 E.01912
G1 X52.679 Y172.277 E.01605
G1 X51.077 Y173.08 E.01911
G1 X49.348 Y173.55 E.01911
G1 X47.559 Y173.668 E.01912
G1 X45.783 Y173.43 E.01911
G1 X44.089 Y172.844 E.01912
G1 X42.545 Y171.934 E.01912
G1 X41.212 Y170.736 E.01912
G1 X40.142 Y169.298 E.01912
G1 X39.379 Y167.676 E.01912
G1 X38.952 Y165.936 E.01911
G1 X38.871 Y164.304 E.01743
G1 X39.122 Y162.529 E.01912
G1 X39.72 Y160.84 E.01911
G1 X40.641 Y159.302 E.01912
G1 X41.848 Y157.978 E.01911
G1 X43.294 Y156.919 E.01912
G1 X44.921 Y156.167 E.01912
G1 X45.432 Y156.046 E.0056
G1 E-2.1 F3000
;WIPE_START
G1 F3360
G1 X46.464 Y155.801 E-.9
;WIPE_END
G1 X46.727 Y159.693 F4200
G1 E3 F2400
;TYPE:Perimeter
;WIDTH:0.224999
G1 F1200
G1 X47.228 Y159.605 E.00543
G1 X47.728 Y159.567 E.00535
G1 X48.507 Y159.606 E.00832
G1 X49.257 Y159.766 E.00818
G1 X49.733 Y159.927 E.00536
G1 X50.194 Y160.135 E.00539
G1 X50.634 Y160.389 E.00542
G1 X51.046 Y160.686 E.00542
G1 X51.427 Y161.022 E.00542
G1 X51.772 Y161.395 E.00542
G1 X52.079 Y161.8 E.00542
G1 X52.344 Y162.234 E.00542
G1 X52.565 Y162.692 E.00542
G1 X52.739 Y163.17 E.00543
G1 X52.864 Y163.663 E.00543
G1 X52.94 Y164.166 E.00543
G1 X52.965 Y164.674 E.00543
G1 X52.939 Y165.183 E.00544
G1 X52.863 Y165.686 E.00543
G1 X52.738 Y166.179 E.00543
G1 X52.563 Y166.658 E.00544
G1 X52.341 Y167.117 E.00544
G1 X52.074 Y167.554 E.00546
G1 X51.761 Y167.964 E.0055
G1 X51.39 Y168.359 E.00578
G1 X50.881 Y168.793 E.00713
G1 X50.424 Y169.075 E.00573
G1 X49.73 Y169.428 E.00831
G1 X49.247 Y169.59 E.00543
G1 X48.75 Y169.703 E.00544
G1 X48.245 Y169.767 E.00543
G1 X47.736 Y169.779 E.00543
G1 X47.228 Y169.741 E.00543
G1 X46.727 Y169.653 E.00543
G1 X46.237 Y169.515 E.00543
G1 X45.763 Y169.329 E.00543
G1 X45.309 Y169.097 E.00544
G1 X44.882 Y168.82 E.00543
G1 X44.484 Y168.503 E.00543
G1 X44.119 Y168.147 E.00544
G1 X43.792 Y167.757 E.00543
G1 X43.505 Y167.336 E.00543
G1 X43.261 Y166.889 E.00543
G1 X43.064 Y166.42 E.00543
G1 X42.913 Y165.933 E.00544
G1 X42.813 Y165.434 E.00543
G1 X42.762 Y164.928 E.00542
G1 X42.762 Y164.418 E.00544
G1 X42.813 Y163.912 E.00542
G1 X42.913 Y163.413 E.00543
G1 X43.064 Y162.926 E.00544
G1 X43.261 Y162.457 E.00543
G1 X43.505 Y162.01 E.00543
G1 X43.792 Y161.589 E.00543
G1 X44.119 Y161.199 E.00543
G1 X44.484 Y160.843 E.00544
G1 X44.882 Y160.526 E.00543
G1 X45.309 Y160.249 E.00543
G1 X45.763 Y160.017 E.00544
G1 X46.237 Y159.831 E.00543
G1 X46.698 Y159.701 E.00511
G1 X47.725 Y159.372 F4200
G1 F1200
G1 X48.239 Y159.398 E.00549
G1 X48.815 Y159.463 E.00618
G1 X49.31 Y159.578 E.00542
G1 X49.805 Y159.745 E.00557
G1 X50.283 Y159.962 E.0056
G1 X50.739 Y160.225 E.00561
G1 X51.167 Y160.533 E.00562
G1 X51.563 Y160.883 E.00564
G1 X51.922 Y161.269 E.00562
G1 X52.24 Y161.69 E.00563
G1 X52.515 Y162.141 E.00563
G1 X52.744 Y162.616 E.00562
G1 X52.925 Y163.113 E.00564
G1 X53.055 Y163.624 E.00562
G1 X53.134 Y164.147 E.00564
G1 X53.16 Y164.674 E.00563
G1 X53.133 Y165.202 E.00564
G1 X53.055 Y165.724 E.00563
G1 X52.924 Y166.237 E.00565
G1 X52.743 Y166.734 E.00564
G1 X52.512 Y167.211 E.00565
G1 X52.235 Y167.663 E.00565
G1 X51.911 Y168.089 E.00571
G1 X51.526 Y168.499 E.006
G1 X50.993 Y168.953 E.00747
G1 X50.276 Y169.395 E.00898
G1 X49.801 Y169.61 E.00556
G1 X49.3 Y169.778 E.00564
G1 X48.784 Y169.896 E.00565
G1 X48.26 Y169.961 E.00563
G1 X47.731 Y169.974 E.00564
G1 X47.204 Y169.935 E.00564
G1 X46.683 Y169.843 E.00564
G1 X46.174 Y169.7 E.00564
G1 X45.682 Y169.507 E.00564
G1 X45.212 Y169.266 E.00563
G1 X44.768 Y168.979 E.00564
G1 X44.354 Y168.649 E.00565
G1 X43.976 Y168.28 E.00563
G1 X43.636 Y167.875 E.00564
G1 X43.338 Y167.438 E.00564
G1 X43.085 Y166.974 E.00564
G1 X42.88 Y166.487 E.00564
G1 X42.724 Y165.982 E.00564
G1 X42.62 Y165.463 E.00565
G1 X42.567 Y164.937 E.00564
G1 X42.567 Y164.409 E.00563
G1 X42.62 Y163.883 E.00564
G1 X42.724 Y163.364 E.00565
G1 X42.88 Y162.859 E.00564
G1 X43.085 Y162.372 E.00564
G1 X43.338 Y161.908 E.00564
G1 X43.636 Y161.471 E.00564
G1 X43.976 Y161.066 E.00564
G1 X44.354 Y160.697 E.00563
G1 X44.768 Y160.367 E.00565
G1 X45.212 Y160.08 E.00564
G1 X45.682 Y159.839 E.00563
G1 X46.174 Y159.646 E.00564
G1 X46.683 Y159.503 E.00564
G1 X47.204 Y159.411 E.00564
G1 X47.695 Y159.374 E.00525
G1 X47.723 Y159.177 F4200
G1 F1200
G1 X48.249 Y159.203 E.00562
G1 X48.849 Y159.271 E.00644
G1 X49.363 Y159.39 E.00563
G1 X49.876 Y159.564 E.00578
G1 X50.372 Y159.788 E.00581
G1 X50.845 Y160.062 E.00583
G1 X51.289 Y160.381 E.00583
G1 X51.699 Y160.743 E.00583
G1 X52.071 Y161.144 E.00583
G1 X52.401 Y161.58 E.00583
G1 X52.687 Y162.047 E.00584
G1 X52.924 Y162.541 E.00584
G1 X53.111 Y163.055 E.00583
G1 X53.246 Y163.586 E.00584
G1 X53.328 Y164.127 E.00584
G1 X53.355 Y164.947 E.00875
G1 X53.3 Y165.493 E.00585
G1 X53.192 Y166.03 E.00584
G1 X53.03 Y166.554 E.00585
G1 X52.817 Y167.059 E.00585
G1 X52.555 Y167.54 E.00584
G1 X52.246 Y167.993 E.00585
G1 X51.894 Y168.413 E.00585
G1 X51.501 Y168.796 E.00585
G1 X51.106 Y169.112 E.0054
G1 X50.368 Y169.568 E.00925
G1 X49.872 Y169.791 E.0058
G1 X49.353 Y169.966 E.00584
G1 X48.818 Y170.088 E.00585
G1 X48.274 Y170.156 E.00585
G1 X47.726 Y170.17 E.00585
G1 X47.18 Y170.129 E.00584
G1 X46.64 Y170.033 E.00585
G1 X46.112 Y169.885 E.00585
G1 X45.602 Y169.685 E.00584
G1 X45.114 Y169.435 E.00585
G1 X44.654 Y169.137 E.00585
G1 X44.225 Y168.796 E.00585
G1 X43.833 Y168.413 E.00585
G1 X43.481 Y167.993 E.00585
G1 X43.172 Y167.54 E.00585
G1 X42.91 Y167.059 E.00584
G1 X42.697 Y166.554 E.00585
G1 X42.535 Y166.03 E.00585
G1 X42.427 Y165.493 E.00584
G1 X42.372 Y164.947 E.00585
G1 X42.372 Y164.399 E.00585
G1 X42.427 Y163.854 E.00584
G1 X42.535 Y163.316 E.00585
G1 X42.697 Y162.793 E.00584
G1 X42.91 Y162.287 E.00586
G1 X43.172 Y161.806 E.00584
G1 X43.481 Y161.353 E.00585
G1 X43.833 Y160.933 E.00585
G1 X44.225 Y160.551 E.00584
G1 X44.654 Y160.209 E.00585
G1 X45.114 Y159.911 E.00585
G1 X45.602 Y159.661 E.00585
G1 X46.112 Y159.461 E.00584
G1 X46.64 Y159.313 E.00585
G1 X47.18 Y159.217 E.00585
G1 X47.693 Y159.179 E.00549
G1 X47.72 Y158.981 F4200
;TYPE:External perimeter
G1 F1200
G1 X48.258 Y159.008 E.00575
G1 X48.882 Y159.079 E.0067
G1 X49.415 Y159.203 E.00584
G1 X49.947 Y159.382 E.00599
G1 X50.461 Y159.615 E.00602
G1 X50.951 Y159.898 E.00604
G1 X51.41 Y160.228 E.00603
G1 X51.835 Y160.603 E.00605
G1 X52.22 Y161.019 E.00605
G1 X52.562 Y161.471 E.00605
G1 X52.858 Y161.954 E.00604
G1 X53.104 Y162.465 E.00605
G1 X53.297 Y162.998 E.00605
G1 X53.437 Y163.547 E.00604
G1 X53.522 Y164.108 E.00605
G1 X53.55 Y164.957 E.00906
G1 X53.493 Y165.522 E.00606
G1 X53.381 Y166.078 E.00605
G1 X53.214 Y166.62 E.00605
G1 X52.993 Y167.143 E.00606
G1 X52.722 Y167.642 E.00606
G1 X52.402 Y168.111 E.00606
G1 X52.037 Y168.546 E.00606
G1 X51.631 Y168.942 E.00605
G1 X51.218 Y169.272 E.00564
G1 X50.46 Y169.74 E.0095
G1 X49.943 Y169.973 E.00605
G1 X49.405 Y170.154 E.00605
G1 X48.852 Y170.28 E.00605
G1 X48.289 Y170.351 E.00605
G1 X47.721 Y170.365 E.00606
G1 X47.155 Y170.322 E.00605
G1 X46.596 Y170.224 E.00605
G1 X46.05 Y170.07 E.00605
G1 X45.522 Y169.863 E.00605
G1 X45.017 Y169.604 E.00605
G1 X44.54 Y169.296 E.00606
G1 X44.096 Y168.942 E.00606
G1 X43.69 Y168.546 E.00605
G1 X43.325 Y168.111 E.00606
G1 X43.005 Y167.642 E.00606
G1 X42.734 Y167.143 E.00606
G1 X42.513 Y166.62 E.00606
G1 X42.346 Y166.078 E.00605
G1 X42.233 Y165.522 E.00605
G1 X42.177 Y164.957 E.00606
G1 X42.177 Y164.389 E.00606
G1 X42.233 Y163.824 E.00606
G1 X42.346 Y163.268 E.00605
G1 X42.513 Y162.726 E.00605
G1 X42.734 Y162.203 E.00606
G1 X43.005 Y161.704 E.00606
G1 X43.325 Y161.235 E.00606
G1 X43.69 Y160.8 E.00606
G1 X44.096 Y160.404 E.00605
G1 X44.54 Y160.05 E.00606
G1 X45.017 Y159.742 E.00606
G1 X45.522 Y159.483 E.00605
G1 X46.05 Y159.276 E.00605
G1 X46.596 Y159.122 E.00605
G1 X47.155 Y159.024 E.00605
G1 X47.69 Y158.984 E.00572
G1 X47.822 Y159.154 F4200
G1 E-3 F3000
G1 X50.704 Y160.504 F4200
G1 E3 F2400
;TYPE:Solid infill
;WIDTH:0.228301
G1 F1200
G1 X51.513 Y161.313 E.01241
G1 X51.818 Y161.677 E.00515
G1 X52.097 Y162.086 E.00537
G1 X52.207 Y162.287 E.00249
G1 X50.245 Y160.325 E.0301
G1 X49.904 Y160.151 E.00415
G1 X49.716 Y160.077 E.00219
G1 X52.461 Y162.822 E.04211
G1 X52.611 Y163.252 E.00494
G1 X49.283 Y159.925 E.05104
G1 X48.903 Y159.825 E.00426
G1 X52.708 Y163.63 E.05837
