; generated by PrusaSlicer 2.5.0+win64 on 2023-04-26 at 02:42:14 UTC

; 

; external perimeters extrusion width = 0.32mm
; perimeters extrusion width = 0.32mm
; infill extrusion width = 0.32mm
; solid infill extrusion width = 0.32mm
; top infill extrusion width = 0.30mm
; first layer extrusion width = 0.34mm

M107
;TYPE:Custom
G90 ; use absolute coordinates
M83 ; extruder relative mode
M140 S55 ; set final bed temp
;M104 S150 ; set temporary nozzle temp to prevent oozing during homing
G4 S10 ; allow partial nozzle warmup
G28 ; home all axis
G1 Z50 F240
G1 X2 Y10 F3000
M104 S180 ; set final nozzle temp
M190 S55 ; wait for bed temp to stabilize
M109 S180 ; wait for nozzle temp to stabilize
G1 Z0.28 F240
G92 E0
G1 Y140 E10 F1500 ; prime the nozzle
G1 X2.3 F5000
G92 E0
G1 Y10 E10 F1200 ; prime the nozzle
G92 E0
G21 ; set units to millimeters
G90 ; use absolute coordinates
M83 ; use relative distances for extrusion
; Filament gcode
M107
;LAYER_CHANGE
;Z:0.24
;HEIGHT:0.24
;BEFORE_LAYER_CHANGE
G92 E0
;0.24


G1 Z.24 F4200
;AFTER_LAYER_CHANGE
;0.24
G1 E-3 F3000
G1 X126.697 Y67.411 F4200
G1 E3 F2400
M204 P500
;TYPE:Skirt/Brim
;WIDTH:0.34
G1 F1200
G1 X127.083 Y66.686 E.02271
G1 X127.699 Y65.765 E.03059
G1 X128.955 Y64.348 E.05233
G1 X129.761 Y63.652 E.02944
G1 X130.643 Y63.028 E.02986
G1 X131.629 Y62.468 E.03133
G1 X132.642 Y62.022 E.03059
G1 X133.694 Y61.678 E.03059
G1 X134.75 Y61.446 E.02987
G1 X135.875 Y61.313 E.03131
G1 X136.982 Y61.295 E.0306
G1 X138.085 Y61.387 E.03059
G1 X139.174 Y61.589 E.03059
G1 X140.237 Y61.898 E.03059
G1 X141.264 Y62.311 E.03059
G1 X142.245 Y62.825 E.03059
G1 X143.169 Y63.434 E.03059
G1 X144.029 Y64.131 E.03059
G1 X144.814 Y64.911 E.03059
G1 X145.519 Y65.765 E.03059
G1 X146.134 Y66.685 E.03059
G1 X147.011 Y68.505 E.05581
G1 X147.346 Y69.56 E.03059
G1 X147.575 Y70.643 E.03059
G1 X147.695 Y71.744 E.03059
G1 X147.704 Y72.851 E.03059
G1 X147.604 Y73.953 E.03059
G1 X147.394 Y75.04 E.03059
G1 X147.076 Y76.101 E.03059
G1 X146.655 Y77.125 E.03059
G1 X146.134 Y78.101 E.03059
G1 X145.519 Y79.021 E.03059
G1 X144.814 Y79.876 E.03059
G1 X144.029 Y80.655 E.03059
G1 X143.169 Y81.353 E.03059
G1 X142.245 Y81.962 E.03059
G1 X141.264 Y82.475 E.03059
G1 X140.237 Y82.889 E.03059
G1 X138.442 Y83.346 E.05118
G1 X137.343 Y83.474 E.03059
G1 X136.236 Y83.492 E.03059
G1 X135.133 Y83.4 E.03059
G1 X134.044 Y83.198 E.03059
G1 X132.981 Y82.889 E.03059
G1 X131.954 Y82.475 E.03059
G1 X130.973 Y81.962 E.03059
G1 X130.112 Y81.4 E.02841
G1 X129.189 Y80.655 E.03278
G1 X128.403 Y79.876 E.03059
G1 X127.699 Y79.022 E.03059
G1 X127.083 Y78.101 E.0306
G1 X126.207 Y76.282 E.05581
G1 X125.872 Y75.227 E.03059
G1 X125.643 Y74.144 E.03059
G1 X125.523 Y73.043 E.03059
G1 X125.514 Y71.936 E.03059
G1 X125.614 Y70.834 E.03059
G1 X125.824 Y69.747 E.03059
G1 X126.141 Y68.686 E.03059
G1 X126.555 Y67.678 E.03011
G1 X126.669 Y67.464 E.0067
G1 X126.923 Y67.599 F4200
G1 F1200
G1 X127.333 Y66.83 E.0241
G1 X127.933 Y65.934 E.0298
G1 X129.151 Y64.56 E.05074
G1 X129.935 Y63.882 E.02864
G1 X130.794 Y63.274 E.02908
G1 X131.754 Y62.728 E.03051
G1 X132.74 Y62.293 E.0298
G1 X133.765 Y61.958 E.0298
G1 X134.794 Y61.731 E.0291
G1 X135.889 Y61.601 E.0305
G1 X136.968 Y61.583 E.0298
G1 X138.042 Y61.673 E.0298
G1 X139.103 Y61.869 E.0298
G1 X140.138 Y62.169 E.0298
G1 X141.139 Y62.571 E.0298
G1 X142.094 Y63.071 E.0298
G1 X142.995 Y63.664 E.0298
G1 X143.833 Y64.343 E.0298
G1 X144.598 Y65.102 E.0298
G1 X145.284 Y65.934 E.0298
G1 X145.885 Y66.83 E.0298
G1 X146.742 Y68.61 E.05462
G1 X147.068 Y69.638 E.0298
G1 X147.291 Y70.693 E.0298
G1 X147.407 Y71.765 E.0298
G1 X147.416 Y72.844 E.0298
G1 X147.317 Y73.917 E.0298
G1 X147.112 Y74.976 E.0298
G1 X146.803 Y76.009 E.0298
G1 X146.392 Y77.006 E.0298
G1 X145.885 Y77.957 E.0298
G1 X145.284 Y78.853 E.0298
G1 X144.598 Y79.685 E.0298
G1 X143.832 Y80.444 E.0298
G1 X142.995 Y81.123 E.0298
G1 X142.094 Y81.716 E.0298
G1 X141.139 Y82.215 E.0298
G1 X140.138 Y82.618 E.0298
G1 X138.399 Y83.06 E.04959
G1 X137.328 Y83.186 E.0298
G1 X136.25 Y83.204 E.0298
G1 X135.176 Y83.114 E.0298
G1 X134.115 Y82.918 E.0298
G1 X132.242 Y82.289 E.05462
G1 X131.278 Y81.805 E.0298
G1 X130.309 Y81.186 E.03178
G1 X129.519 Y80.562 E.02782
G1 X128.741 Y79.815 E.0298
G1 X128.041 Y78.995 E.0298
G1 X127.426 Y78.109 E.0298
G1 X126.903 Y77.167 E.0298
G1 X126.476 Y76.176 E.0298
G1 X126.149 Y75.149 E.0298
G1 X125.927 Y74.094 E.0298
G1 X125.811 Y73.022 E.0298
G1 X125.802 Y71.943 E.0298
G1 X125.901 Y70.87 E.0298
G1 X126.105 Y69.811 E.0298
G1 X126.415 Y68.778 E.0298
G1 X126.818 Y67.797 E.02932
G1 X126.895 Y67.652 E.00452
G1 X127.148 Y67.788 F4200
G1 F1200
G1 X127.583 Y66.974 E.0255
G1 X128.168 Y66.102 E.029
G1 X129.348 Y64.771 E.04915
G1 X130.109 Y64.112 E.02785
G1 X130.966 Y63.506 E.029
G1 X131.879 Y62.988 E.029
G1 X132.839 Y62.564 E.029
G1 X133.837 Y62.237 E.029
G1 X134.862 Y62.012 E.029
G1 X135.904 Y61.889 E.029
G1 X136.953 Y61.871 E.02901
G1 X137.999 Y61.958 E.029
G1 X139.031 Y62.148 E.02901
G1 X140.039 Y62.44 E.029
G1 X141.013 Y62.831 E.029
G1 X141.944 Y63.317 E.029
G1 X142.821 Y63.894 E.02901
G1 X143.636 Y64.554 E.029
G1 X144.382 Y65.293 E.029
G1 X145.05 Y66.102 E.029
G1 X145.635 Y66.974 E.029
G1 X146.129 Y67.9 E.029
G1 X146.53 Y68.87 E.029
G1 X146.831 Y69.875 E.029
G1 X147.031 Y70.905 E.029
G1 X147.127 Y72.836 E.05342
G1 X147.031 Y73.881 E.029
G1 X146.831 Y74.912 E.029
G1 X146.53 Y75.917 E.029
G1 X146.129 Y76.887 E.029
G1 X145.635 Y77.813 E.029
G1 X145.05 Y78.685 E.029
G1 X144.382 Y79.494 E.029
G1 X143.636 Y80.232 E.029
G1 X142.821 Y80.893 E.029
G1 X141.944 Y81.47 E.029
G1 X141.013 Y81.956 E.029
G1 X140.039 Y82.347 E.029
G1 X138.339 Y82.778 E.04848
G1 X137.314 Y82.898 E.02853
G1 X136.264 Y82.916 E.029
G1 X135.219 Y82.829 E.029
G1 X134.186 Y82.639 E.029
G1 X133.178 Y82.347 E.029
G1 X132.204 Y81.956 E.029
G1 X131.274 Y81.47 E.029
G1 X130.397 Y80.893 E.029
G1 X128.947 Y79.614 E.05343
G1 X128.267 Y78.815 E.029
G1 X127.669 Y77.953 E.029
G1 X127.16 Y77.035 E.029
G1 X126.744 Y76.071 E.029
G1 X126.427 Y75.071 E.029
G1 X126.211 Y74.044 E.029
G1 X126.099 Y73 E.029
G1 X126.09 Y71.951 E.029
G1 X126.187 Y70.905 E.029
G1 X126.387 Y69.875 E.029
G1 X126.688 Y68.87 E.029
G1 X127.12 Y67.841 E.03084
G1 E-2.1 F3000
;WIPE_START
G1 F3360
G1 X127.583 Y66.974 E-.83346
G1 X127.597 Y66.953 E-.02154
;WIPE_END
G1 E-.045 F3000
G1 X130.778 Y69.566 F4200
G1 E3 F2400
;TYPE:Perimeter
;WIDTH:0.339999
G1 F1200
G1 X130.837 Y69.434 E.00401
G1 X131.169 Y68.861 E.01829
G1 X131.477 Y68.422 E.01481
G1 X132.029 Y67.803 E.02294
G1 X132.508 Y67.37 E.01783
G1 X132.935 Y67.047 E.0148
G1 X133.387 Y66.759 E.01482
G1 X133.965 Y66.466 E.01789
G1 X134.696 Y66.196 E.02154
G1 X135.191 Y66.059 E.01418
G1 X135.83 Y65.95 E.01793
G1 X136.545 Y65.906 E.0198
G1 X137.155 Y65.931 E.01687
G1 X138.095 Y66.076 E.02628
G1 X138.783 Y66.281 E.01984
G1 X139.304 Y66.488 E.01548
G1 X139.878 Y66.786 E.01788
G1 X140.501 Y67.204 E.02073
G1 X140.924 Y67.545 E.01501
G1 X141.386 Y67.999 E.01792
G1 X141.823 Y68.53 E.019
G1 X142.161 Y69.031 E.01671
G1 X142.469 Y69.603 E.01796
G1 X142.756 Y70.324 E.02143
G1 X142.914 Y70.858 E.01538
G1 X143.031 Y71.456 E.01684
G1 X143.093 Y72.095 E.01775
G1 X143.079 Y72.855 E.021
G1 X143.014 Y73.434 E.01612
G1 X142.801 Y74.318 E.02511
G1 X142.628 Y74.807 E.01432
G1 X142.38 Y75.353 E.01658
G1 X142.134 Y75.8 E.01412
G1 X141.741 Y76.365 E.019
G1 X141.348 Y76.829 E.01682
G1 X140.884 Y77.278 E.01785
G1 X140.283 Y77.74 E.02095
G1 X139.831 Y78.028 E.01482
G1 X139.253 Y78.321 E.01789
G1 X138.522 Y78.591 E.02154
G1 X138.027 Y78.727 E.01418
G1 X137.388 Y78.837 E.01793
G1 X136.672 Y78.881 E.01981
G1 X136.098 Y78.864 E.01588
G1 X135.453 Y78.78 E.01797
G1 X134.827 Y78.635 E.01777
G1 X134.214 Y78.426 E.01789
G1 X133.621 Y78.155 E.01802
G1 X133.039 Y77.813 E.01866
G1 X132.542 Y77.452 E.01695
G1 X132.005 Y76.965 E.02005
G1 X131.557 Y76.462 E.01861
G1 X131.232 Y76.029 E.01497
G1 X130.824 Y75.325 E.02247
G1 X130.558 Y74.726 E.01814
G1 X130.383 Y74.219 E.01481
G1 X130.204 Y73.403 E.02309
G1 X130.135 Y72.767 E.01768
G1 X130.133 Y72.189 E.01597
G1 X130.204 Y71.352 E.02321
G1 X130.349 Y70.689 E.01876
G1 X130.518 Y70.15 E.01562
G1 X130.754 Y69.621 E.016
G1 X130.5 Y69.451 F4200
G1 F1200
G1 X130.823 Y68.858 E.01868
G1 X131.204 Y68.299 E.01868
G1 X131.638 Y67.781 E.01868
G1 X132.122 Y67.309 E.01868
G1 X132.651 Y66.888 E.01868
G1 X133.218 Y66.521 E.01868
G1 X133.82 Y66.213 E.01868
G1 X134.449 Y65.966 E.01868
G1 X135.1 Y65.783 E.01868
G1 X135.766 Y65.665 E.01868
G1 X136.44 Y65.615 E.01868
G1 X137.094 Y65.631 E.01807
G1 X138.173 Y65.798 E.03019
G1 X138.888 Y66.013 E.02064
G1 X139.435 Y66.232 E.01628
G1 X140.034 Y66.544 E.01867
G1 X140.724 Y67.012 E.02303
G1 X141.125 Y67.338 E.01429
G1 X141.607 Y67.814 E.01871
G1 X142.061 Y68.368 E.01979
G1 X142.414 Y68.893 E.0175
G1 X142.735 Y69.491 E.01875
G1 X143.032 Y70.239 E.02223
G1 X143.196 Y70.801 E.01618
G1 X143.319 Y71.427 E.01763
G1 X143.381 Y72.095 E.01854
G1 X143.381 Y72.731 E.01758
G1 X143.314 Y73.404 E.01868
G1 X143.18 Y74.067 E.01868
G1 X142.981 Y74.713 E.01868
G1 X142.718 Y75.336 E.01868
G1 X142.395 Y75.929 E.01868
G1 X142.014 Y76.488 E.01868
G1 X141.58 Y77.006 E.01868
G1 X141.096 Y77.478 E.01868
G1 X140.567 Y77.899 E.01868
G1 X139.999 Y78.266 E.01868
G1 X139.398 Y78.574 E.01868
G1 X138.769 Y78.821 E.01868
G1 X138.118 Y79.004 E.01868
G1 X137.452 Y79.122 E.01868
G1 X136.778 Y79.172 E.01868
G1 X136.102 Y79.155 E.01868
G1 X135.431 Y79.071 E.01868
G1 X134.772 Y78.921 E.01868
G1 X134.132 Y78.706 E.01868
G1 X133.515 Y78.428 E.01868
G1 X132.93 Y78.09 E.01868
G1 X132.381 Y77.695 E.01868
G1 X131.874 Y77.248 E.01868
G1 X131.414 Y76.752 E.01868
G1 X131.006 Y76.213 E.01868
G1 X130.654 Y75.636 E.01868
G1 X130.36 Y75.027 E.01868
G1 X130.129 Y74.392 E.01868
G1 X129.962 Y73.737 E.01868
G1 X129.862 Y73.069 E.01868
G1 X129.828 Y72.399 E.01854
G1 X129.905 Y71.377 E.0283
G1 X130.038 Y70.72 E.01853
G1 X130.237 Y70.074 E.01868
G1 X130.476 Y69.507 E.01702
G1 X130.239 Y69.326 F4200
;TYPE:External perimeter
G1 F1200
G1 X130.576 Y68.707 E.01948
G1 X130.973 Y68.125 E.01948
G1 X131.426 Y67.585 E.01948
G1 X131.931 Y67.093 E.01948
G1 X132.482 Y66.653 E.01948
G1 X133.074 Y66.271 E.01948
G1 X133.701 Y65.949 E.01948
G1 X134.357 Y65.692 E.01948
G1 X135.036 Y65.501 E.01948
G1 X135.73 Y65.379 E.01948
G1 X136.433 Y65.326 E.01948
G1 X137.119 Y65.343 E.01896
G1 X138.251 Y65.52 E.03168
G1 X138.994 Y65.744 E.02143
G1 X139.567 Y65.975 E.01707
G1 X140.191 Y66.301 E.01946
G1 X140.903 Y66.787 E.02382
G1 X141.327 Y67.132 E.01509
G1 X141.828 Y67.628 E.01951
G1 X142.385 Y68.331 E.02477
G1 X142.668 Y68.755 E.0141
G1 X143.001 Y69.379 E.01955
G1 X143.307 Y70.154 E.02302
G1 X143.479 Y70.744 E.01697
G1 X143.606 Y71.398 E.01843
G1 X143.67 Y72.095 E.01934
G1 X143.67 Y72.746 E.01798
G1 X143.6 Y73.447 E.01948
G1 X143.46 Y74.138 E.01948
G1 X143.252 Y74.811 E.01948
G1 X142.979 Y75.461 E.01948
G1 X142.642 Y76.08 E.01948
G1 X142.244 Y76.662 E.01948
G1 X141.791 Y77.202 E.01948
G1 X141.287 Y77.694 E.01948
G1 X140.736 Y78.134 E.01948
G1 X140.144 Y78.516 E.01948
G1 X139.517 Y78.838 E.01948
G1 X138.861 Y79.095 E.01948
G1 X138.182 Y79.286 E.01948
G1 X137.488 Y79.408 E.01948
G1 X136.785 Y79.461 E.01948
G1 X136.081 Y79.443 E.01948
G1 X135.381 Y79.356 E.01948
G1 X134.694 Y79.199 E.01948
G1 X134.026 Y78.975 E.01948
G1 X133.384 Y78.685 E.01948
G1 X132.773 Y78.332 E.01948
G1 X132.201 Y77.921 E.01948
G1 X131.673 Y77.454 E.01948
G1 X131.193 Y76.938 E.01948
G1 X130.768 Y76.376 E.01948
G1 X130.4 Y75.775 E.01948
G1 X130.094 Y75.14 E.01948
G1 X129.853 Y74.477 E.01948
G1 X129.679 Y73.794 E.01948
G1 X129.574 Y73.097 E.01948
G1 X129.539 Y72.395 E.01944
G1 X129.618 Y71.338 E.02929
G1 X129.758 Y70.649 E.01943
G1 X129.965 Y69.975 E.01948
G1 X130.216 Y69.381 E.01782
G1 X130.638 Y69.296 F4200
G1 X132.003 Y69.618
;TYPE:Perimeter
G1 F1200
G1 X132.052 Y69.357 E.00736
G1 X132.246 Y69.068 E.00962
G1 X132.498 Y68.875 E.00878
G1 X132.836 Y68.811 E.00951
G1 X133.038 Y68.831 E.00559
G1 X133.049 Y68.398 E.01196
G1 X133.206 Y68.105 E.00919
G1 X133.478 Y67.888 E.00962
G1 X133.737 Y67.784 E.00771
G1 X134.003 Y67.785 E.00734
G1 X134.318 Y67.897 E.00925
G1 X134.458 Y67.494 E.01178
G1 X134.689 Y67.269 E.0089
G1 X135.013 Y67.144 E.00961
G1 X135.251 Y67.118 E.00663
G1 X135.562 Y67.209 E.00895
G1 X135.82 Y67.421 E.00923
G1 X136.003 Y67.14 E.00927
G1 X136.164 Y67.008 E.00576
G1 X136.49 Y66.908 E.00942
G1 X136.913 Y66.944 E.01173
G1 X137.208 Y67.131 E.00966
G1 X137.397 Y67.406 E.00922
G1 X137.747 Y67.166 E.01174
G1 X137.976 Y67.117 E.00646
G1 X138.417 Y67.213 E.01248
G1 X138.662 Y67.373 E.00807
G1 X138.806 Y67.576 E.00688
G1 X138.9 Y67.897 E.00925
G1 X139.308 Y67.773 E.01178
G1 X139.48 Y67.784 E.00476
G1 X139.81 Y67.937 E.01003
G1 X140.012 Y68.105 E.00725
G1 X140.168 Y68.398 E.00919
G1 X140.189 Y68.658 E.00719
G1 X140.171 Y68.822 E.00457
G1 X140.604 Y68.834 E.01196
G1 X140.719 Y68.875 E.00338
G1 X141.003 Y69.107 E.01013
G1 X141.197 Y69.439 E.01063
G1 X141.218 Y69.787 E.00963
G1 X141.106 Y70.103 E.00925
G1 X141.509 Y70.243 E.01179
G1 X141.775 Y70.553 E.0113
G1 X141.885 Y70.974 E.01204
G1 X141.793 Y71.346 E.01059
G1 X141.581 Y71.605 E.00924
G1 X141.863 Y71.787 E.00928
G1 X141.949 Y71.882 E.00351
G1 X142.084 Y72.187 E.00923
G1 X142.084 Y72.6 E.0114
G1 X141.934 Y72.925 E.00988
G1 X141.596 Y73.181 E.01172
G1 X141.837 Y73.534 E.0118
G1 X141.884 Y73.837 E.00847
G1 X141.775 Y74.234 E.01138
G1 X141.568 Y74.502 E.00935
G1 X141.29 Y74.639 E.00856
G1 X141.105 Y74.685 E.00527
G1 X141.229 Y75.093 E.01179
G1 X141.197 Y75.348 E.00708
G1 X140.972 Y75.719 E.01201
G1 X140.719 Y75.912 E.00878
G1 X140.381 Y75.976 E.00951
G1 X140.18 Y75.956 E.00559
G1 X140.168 Y76.389 E.01196
G1 X140.088 Y76.578 E.00569
G1 X139.772 Y76.877 E.01201
G1 X139.481 Y77.002 E.00878
G1 X139.215 Y77.002 E.00733
G1 X138.9 Y76.89 E.00925
G1 X138.76 Y77.293 E.01178
G1 X138.662 Y77.414 E.0043
G1 X138.361 Y77.593 E.00967
G1 X138.082 Y77.667 E.00798
G1 X137.749 Y77.621 E.00929
G1 X137.521 Y77.479 E.00743
G1 X137.398 Y77.366 E.00463
G1 X137.215 Y77.647 E.00927
G1 X137.054 Y77.779 E.00576
G1 X136.685 Y77.88 E.01057
G1 X136.318 Y77.847 E.01016
G1 X136.011 Y77.657 E.00999
G1 X135.821 Y77.381 E.00926
G1 X135.469 Y77.622 E.01179
G1 X135.172 Y77.669 E.00831
G1 X134.834 Y77.586 E.0096
G1 X134.691 Y77.519 E.00438
G1 X134.413 Y77.211 E.01146
G1 X134.317 Y76.89 E.00927
G1 X133.9 Y77.014 E.01202
G1 X133.556 Y76.943 E.00972
G1 X133.236 Y76.714 E.01086
G1 X133.05 Y76.389 E.01035
G1 X133.029 Y76.129 E.0072
G1 X133.046 Y75.965 E.00457
G1 X132.613 Y75.953 E.01198
G1 X132.307 Y75.784 E.00966
G1 X132.092 Y75.506 E.00971
G1 X131.989 Y75.093 E.01176
G1 X132.112 Y74.684 E.0118
G1 X131.709 Y74.544 E.01179
G1 X131.475 Y74.298 E.00938
G1 X131.354 Y73.972 E.00962
G1 X131.343 Y73.667 E.00843
G1 X131.425 Y73.44 E.00666
G1 X131.637 Y73.182 E.00923
G1 X131.355 Y73 E.00927
G1 X131.185 Y72.764 E.00803
G1 X131.122 Y72.469 E.00833
G1 X131.124 Y72.264 E.00568
G1 X131.284 Y71.862 E.01193
G1 X131.622 Y71.605 E.01172
G1 X131.381 Y71.253 E.0118
G1 X131.338 Y70.903 E.00975
G1 X131.443 Y70.553 E.01009
G1 X131.709 Y70.243 E.0113
G1 X132.112 Y70.102 E.01181
G1 X131.992 Y69.677 E.0122
G1 X132.288 Y69.638 F4200
G1 F1200
G1 X132.351 Y69.41 E.00652
G1 X132.467 Y69.253 E.00539
G1 X132.688 Y69.113 E.00723
G1 X133.366 Y69.155 E.01878
G1 X133.317 Y68.651 E.01401
G1 X133.328 Y68.472 E.00495
G1 X133.422 Y68.296 E.00551
G1 X133.635 Y68.13 E.00744
G1 X133.893 Y68.061 E.0074
G1 X134.52 Y68.296 E.01851
G1 X134.644 Y67.781 E.01465
G1 X134.759 Y67.578 E.00646
G1 X134.946 Y67.468 E.00598
G1 X135.234 Y67.406 E.00815
G1 X135.421 Y67.461 E.00537
G1 X135.89 Y67.878 E.01736
G1 X136.158 Y67.412 E.01484
G1 X136.312 Y67.256 E.00606
G1 X136.533 Y67.195 E.00634
G1 X136.822 Y67.218 E.008
G1 X136.999 Y67.33 E.00579
G1 X137.33 Y67.858 E.01722
G1 X137.726 Y67.51 E.01455
G1 X137.852 Y67.435 E.00406
G1 X138.127 Y67.421 E.0076
G1 X138.379 Y67.515 E.00744
G1 X138.545 Y67.7 E.00685
G1 X138.696 Y68.296 E.01699
G1 X139.186 Y68.093 E.01465
G1 X139.428 Y68.068 E.00672
G1 X139.741 Y68.244 E.00994
G1 X139.841 Y68.358 E.00419
G1 X139.903 Y68.606 E.00705
G1 X139.847 Y69.15 E.01513
G1 X140.352 Y69.101 E.01401
