; generated by PrusaSlicer 2.5.0+win64 on 2023-04-26 at 18:05:42 UTC

; 

; external perimeters extrusion width = 0.23mm
; perimeters extrusion width = 0.23mm
; infill extrusion width = 0.23mm
; solid infill extrusion width = 0.23mm
; top infill extrusion width = 0.20mm

M107
;TYPE:Custom
G90 ; use absolute coordinates
M83 ; extruder relative mode
M140 S55 ; set final bed temp
;M104 S150 ; set temporary nozzle temp to prevent oozing during homing
G4 S10 ; allow partial nozzle warmup
G28 ; home all axis
G1 Z50 F240
G1 X2 Y10 F3000
M104 S180 ; set final nozzle temp
M190 S55 ; wait for bed temp to stabilize
M109 S180 ; wait for nozzle temp to stabilize
G92 E0
G21 ; set units to millimeters
G90 ; use absolute coordinates
M83 ; use relative distances for extrusion
; Filament gcode
M107
;LAYER_CHANGE
;Z:0.16
;HEIGHT:0.16
;BEFORE_LAYER_CHANGE
G92 E0
;0.16


G1 Z.16 F4200
;AFTER_LAYER_CHANGE
;0.16
G1 E-3 F3000
G1 X171.658 Y61.529 F4200
G1 E3 F2400
M204 P500
;TYPE:Skirt/Brim
;WIDTH:0.225
G1 F1200
G1 X172.077 Y60.508 E.01345
G1 X172.607 Y59.512 E.01373
G1 X173.228 Y58.585 E.01359
G1 X173.937 Y57.724 E.01359
G1 X174.729 Y56.938 E.01359
G1 X175.595 Y56.235 E.01359
G1 X176.527 Y55.621 E.01359
G1 X178.212 Y54.81 E.02276
G1 X179.255 Y54.469 E.01337
G1 X180.362 Y54.225 E.0138
G1 X181.471 Y54.096 E.01359
G1 X182.586 Y54.078 E.01359
G1 X183.698 Y54.171 E.01359
G1 X184.795 Y54.375 E.01359
G1 X186.802 Y55.057 E.02581
G1 X187.719 Y55.522 E.01253
G1 X188.662 Y56.119 E.01359
G1 X189.54 Y56.807 E.01359
G1 X190.346 Y57.58 E.01359
G1 X191.071 Y58.428 E.01359
G1 X191.704 Y59.339 E.01351
G1 X192.25 Y60.319 E.01366
G1 X192.692 Y61.344 E.01359
G1 X193.03 Y62.407 E.01359
G1 X193.261 Y63.499 E.01359
G1 X193.382 Y64.608 E.01359
G1 X193.392 Y65.724 E.01359
G1 X193.29 Y66.835 E.01359
G1 X193.079 Y67.931 E.01359
G1 X192.76 Y69 E.01359
G1 X192.335 Y70.032 E.01359
G1 X191.81 Y71.016 E.01359
G1 X191.19 Y71.944 E.01359
G1 X190.48 Y72.805 E.01359
G1 X189.688 Y73.591 E.01359
G1 X188.822 Y74.294 E.01359
G1 X187.89 Y74.908 E.01359
G1 X186.206 Y75.719 E.02276
G1 X185.145 Y76.065 E.01359
G1 X184.055 Y76.303 E.01359
G1 X182.947 Y76.432 E.01359
G1 X181.831 Y76.45 E.01359
G1 X180.719 Y76.357 E.01359
G1 X179.622 Y76.154 E.01359
G1 X177.695 Y75.507 E.02475
G1 X176.698 Y75.006 E.01359
G1 X175.755 Y74.409 E.01359
G1 X174.877 Y73.721 E.01359
G1 X174.071 Y72.949 E.01359
G1 X173.347 Y72.101 E.01359
G1 X172.71 Y71.184 E.01359
G1 X172.168 Y70.209 E.01359
G1 X171.725 Y69.185 E.01359
G1 X171.387 Y68.122 E.01359
G1 X171.156 Y67.03 E.01359
G1 X171.035 Y65.921 E.01359
G1 X171.026 Y64.805 E.01359
G1 X171.127 Y63.694 E.01359
G1 X171.338 Y62.598 E.01359
G1 X171.649 Y61.558 E.01322
G1 X171.832 Y61.612 F4200
G1 F1200
G1 X172.251 Y60.586 E.0135
G1 X172.772 Y59.608 E.01349
G1 X173.382 Y58.696 E.01335
G1 X174.08 Y57.85 E.01335
G1 X174.859 Y57.078 E.01335
G1 X175.71 Y56.387 E.01335
G1 X176.627 Y55.784 E.01335
G1 X178.277 Y54.989 E.0223
G1 X179.303 Y54.653 E.01314
G1 X180.391 Y54.414 E.01357
G1 X181.48 Y54.287 E.01335
G1 X182.577 Y54.269 E.01335
G1 X183.67 Y54.36 E.01335
G1 X184.748 Y54.56 E.01335
G1 X186.723 Y55.231 E.0254
G1 X187.628 Y55.69 E.01235
G1 X188.555 Y56.277 E.01335
G1 X189.418 Y56.954 E.01335
G1 X190.21 Y57.713 E.01335
G1 X190.922 Y58.547 E.01335
G1 X191.544 Y59.443 E.01328
G1 X192.08 Y60.406 E.01342
G1 X192.515 Y61.413 E.01335
G1 X192.847 Y62.459 E.01335
G1 X193.073 Y63.532 E.01335
G1 X193.192 Y64.622 E.01335
G1 X193.201 Y65.719 E.01335
G1 X193.101 Y66.811 E.01335
G1 X192.893 Y67.888 E.01335
G1 X192.579 Y68.939 E.01335
G1 X192.161 Y69.953 E.01335
G1 X191.645 Y70.921 E.01335
G1 X191.035 Y71.832 E.01335
G1 X190.337 Y72.678 E.01335
G1 X189.559 Y73.451 E.01335
G1 X188.707 Y74.142 E.01335
G1 X187.791 Y74.745 E.01335
G1 X186.141 Y75.54 E.0223
G1 X185.098 Y75.88 E.01335
G1 X184.027 Y76.115 E.01335
G1 X182.937 Y76.242 E.01335
G1 X181.841 Y76.26 E.01335
G1 X180.748 Y76.169 E.01335
G1 X179.669 Y75.969 E.01335
G1 X178.616 Y75.663 E.01335
G1 X177.598 Y75.254 E.01335
G1 X176.627 Y74.745 E.01335
G1 X175.71 Y74.142 E.01335
G1 X174.208 Y72.816 E.0244
G1 X173.496 Y71.982 E.01335
G1 X172.87 Y71.081 E.01335
G1 X172.337 Y70.122 E.01335
G1 X171.903 Y69.115 E.01335
G1 X171.571 Y68.07 E.01335
G1 X171.344 Y66.997 E.01335
G1 X171.226 Y65.906 E.01335
G1 X171.216 Y64.81 E.01335
G1 X171.316 Y63.717 E.01335
G1 X171.524 Y62.641 E.01335
G1 X171.823 Y61.641 E.0127
G1 X172.006 Y61.696 F4200
G1 F1200
G1 X172.425 Y60.664 E.01356
G1 X172.937 Y59.703 E.01326
G1 X173.537 Y58.808 E.01312
G1 X174.223 Y57.976 E.01312
G1 X174.989 Y57.217 E.01312
G1 X175.826 Y56.539 E.01312
G1 X176.721 Y55.949 E.01306
G1 X178.342 Y55.168 E.0219
G1 X179.35 Y54.838 E.01292
G1 X180.419 Y54.602 E.01333
G1 X181.49 Y54.477 E.01312
G1 X182.567 Y54.459 E.01312
G1 X183.641 Y54.548 E.01312
G1 X184.701 Y54.744 E.01312
G1 X186.645 Y55.405 E.025
G1 X188.447 Y56.435 E.02527
G1 X189.295 Y57.1 E.01312
G1 X190.073 Y57.846 E.01312
G1 X190.773 Y58.666 E.01312
G1 X191.384 Y59.547 E.01306
G1 X191.91 Y60.493 E.01319
G1 X192.337 Y61.483 E.01312
G1 X192.663 Y62.51 E.01312
G1 X192.886 Y63.565 E.01312
G1 X193.002 Y64.637 E.01312
G1 X193.011 Y65.714 E.01312
G1 X192.912 Y66.788 E.01312
G1 X192.707 Y67.846 E.01312
G1 X192.398 Y68.878 E.01312
G1 X191.988 Y69.875 E.01312
G1 X191.48 Y70.825 E.01312
G1 X190.88 Y71.721 E.01312
G1 X190.194 Y72.552 E.01312
G1 X189.429 Y73.311 E.01312
G1 X188.592 Y73.99 E.01312
G1 X187.691 Y74.582 E.01312
G1 X186.075 Y75.36 E.02184
G1 X185.051 Y75.695 E.01312
G1 X183.998 Y75.926 E.01312
G1 X182.928 Y76.052 E.01312
G1 X181.85 Y76.07 E.01312
G1 X180.776 Y75.98 E.01312
G1 X179.716 Y75.784 E.01312
G1 X178.681 Y75.484 E.01312
G1 X177.681 Y75.082 E.01312
G1 X176.726 Y74.582 E.01312
G1 X175.826 Y73.99 E.01312
G1 X174.989 Y73.311 E.01312
G1 X174.223 Y72.552 E.01312
G1 X173.537 Y71.721 E.01312
G1 X172.937 Y70.826 E.01312
G1 X172.08 Y69.046 E.02405
G1 X171.754 Y68.018 E.01312
G1 X171.532 Y66.964 E.01312
G1 X171.416 Y65.892 E.01312
G1 X171.407 Y64.814 E.01312
G1 X171.505 Y63.741 E.01312
G1 X171.71 Y62.683 E.01312
G1 X171.997 Y61.725 E.01218
G1 X172.18 Y61.779 F4200
G1 F1200
G1 X172.599 Y60.743 E.01361
G1 X173.103 Y59.798 E.01303
G1 X173.692 Y58.919 E.01289
G1 X174.366 Y58.102 E.01289
G1 X175.118 Y57.357 E.01289
G1 X175.941 Y56.691 E.01289
G1 X176.821 Y56.112 E.01283
G1 X178.407 Y55.347 E.02144
G1 X179.397 Y55.023 E.01269
G1 X180.448 Y54.791 E.0131
G1 X181.499 Y54.667 E.01289
G1 X182.558 Y54.649 E.01289
G1 X183.613 Y54.737 E.01289
G1 X184.654 Y54.929 E.01289
G1 X186.567 Y55.578 E.02459
G1 X188.34 Y56.592 E.02487
G1 X189.173 Y57.246 E.01289
G1 X189.937 Y57.979 E.01289
G1 X190.624 Y58.785 E.01289
G1 X191.224 Y59.65 E.01283
G1 X191.741 Y60.58 E.01295
G1 X192.16 Y61.553 E.01289
G1 X192.48 Y62.562 E.01289
G1 X192.698 Y63.598 E.01289
G1 X192.812 Y64.651 E.01289
G1 X192.82 Y65.71 E.01289
G1 X192.723 Y66.764 E.01289
G1 X192.521 Y67.803 E.01289
G1 X192.217 Y68.817 E.01289
G1 X191.814 Y69.796 E.01289
G1 X191.315 Y70.73 E.01289
G1 X190.725 Y71.61 E.01289
G1 X190.051 Y72.426 E.01289
G1 X189.299 Y73.171 E.01289
G1 X188.477 Y73.838 E.01289
G1 X187.592 Y74.42 E.01289
G1 X186.01 Y75.181 E.02137
G1 X185.004 Y75.51 E.01289
G1 X183.97 Y75.738 E.01289
G1 X182.918 Y75.861 E.01289
G1 X181.86 Y75.879 E.01289
G1 X180.804 Y75.792 E.01289
G1 X179.763 Y75.6 E.01289
G1 X178.746 Y75.305 E.01289
G1 X177.764 Y74.91 E.01289
G1 X176.826 Y74.42 E.01289
G1 X175.941 Y73.838 E.01289
G1 X174.481 Y72.55 E.02371
G1 X173.794 Y71.744 E.01289
G1 X173.19 Y70.874 E.01289
G1 X172.677 Y69.948 E.01289
G1 X172.258 Y68.976 E.01289
G1 X171.938 Y67.967 E.01289
G1 X171.72 Y66.931 E.01289
G1 X171.606 Y65.878 E.01289
G1 X171.597 Y64.819 E.01289
G1 X171.694 Y63.765 E.01289
G1 X171.896 Y62.725 E.01289
G1 X172.171 Y61.808 E.01166
G1 X172.354 Y61.863 F4200
G1 F1200
G1 X172.773 Y60.821 E.01367
G1 X173.268 Y59.894 E.0128
G1 X173.847 Y59.03 E.01266
G1 X174.509 Y58.229 E.01266
G1 X175.248 Y57.497 E.01266
G1 X176.056 Y56.843 E.01266
G1 X176.921 Y56.274 E.0126
G1 X178.472 Y55.527 E.02097
G1 X179.445 Y55.208 E.01246
G1 X180.476 Y54.979 E.01286
G1 X181.509 Y54.858 E.01266
G1 X182.548 Y54.84 E.01266
G1 X183.584 Y54.925 E.01266
G1 X184.607 Y55.114 E.01266
G1 X186.488 Y55.752 E.02419
G1 X188.232 Y56.75 E.02446
G1 X189.05 Y57.392 E.01266
G1 X189.8 Y58.112 E.01266
G1 X190.475 Y58.903 E.01266
G1 X191.064 Y59.754 E.0126
G1 X191.571 Y60.667 E.01272
G1 X191.982 Y61.622 E.01266
G1 X192.296 Y62.614 E.01266
G1 X192.51 Y63.631 E.01266
G1 X192.621 Y64.665 E.01266
G1 X192.629 Y65.705 E.01266
G1 X192.534 Y66.74 E.01266
G1 X192.335 Y67.761 E.01266
G1 X192.037 Y68.757 E.01266
G1 X191.64 Y69.718 E.01266
G1 X191.15 Y70.635 E.01266
G1 X190.571 Y71.498 E.01266
G1 X189.908 Y72.3 E.01266
G1 X189.17 Y73.032 E.01266
G1 X188.362 Y73.686 E.01266
G1 X187.492 Y74.257 E.01266
G1 X185.945 Y75.002 E.02091
G1 X184.957 Y75.326 E.01266
G1 X183.941 Y75.549 E.01266
G1 X182.909 Y75.671 E.01266
G1 X181.869 Y75.689 E.01266
G1 X180.833 Y75.603 E.01266
G1 X179.81 Y75.415 E.01266
G1 X177.992 Y74.804 E.02336
G1 X177.063 Y74.336 E.01266
G1 X176.185 Y73.779 E.01266
G1 X175.367 Y73.137 E.01266
G1 X174.617 Y72.417 E.01266
G1 X173.943 Y71.625 E.01266
G1 X173.351 Y70.771 E.01266
G1 X172.846 Y69.861 E.01266
G1 X172.435 Y68.906 E.01266
G1 X172.121 Y67.915 E.01266
G1 X171.907 Y66.897 E.01266
G1 X171.796 Y65.864 E.01266
G1 X171.788 Y64.824 E.01266
G1 X171.884 Y63.788 E.01266
G1 X172.082 Y62.768 E.01266
G1 X172.345 Y61.891 E.01114
G1 E-2.1 F3000
;WIPE_START
G1 F3360
G1 X172.719 Y60.955 E-.855
;WIPE_END
G1 E-.045 F3000
G1 X176.06 Y62.999 F4200
G1 E3 F2400
;TYPE:Perimeter
;WIDTH:0.224999
G1 F1200
G1 X176.382 Y62.275 E.00965
G1 X176.719 Y61.695 E.00817
G1 X177.026 Y61.256 E.00651
G1 X177.585 Y60.629 E.01023
G1 X178.071 Y60.191 E.00797
G1 X178.498 Y59.868 E.00651
G1 X178.958 Y59.574 E.00666
G1 X179.541 Y59.278 E.00796
G1 X180.274 Y59.008 E.00951
G1 X180.78 Y58.869 E.00638
G1 X181.425 Y58.758 E.00798
G1 X182.151 Y58.714 E.00886
G1 X182.763 Y58.74 E.00746
G1 X183.712 Y58.886 E.01168
G1 X184.402 Y59.092 E.00877
G1 X184.932 Y59.304 E.00695
G1 X185.512 Y59.604 E.00795
G1 X186.136 Y60.023 E.00915
G1 X186.567 Y60.371 E.00675
G1 X187.034 Y60.83 E.00797
G1 X187.477 Y61.37 E.0085
G1 X187.816 Y61.872 E.00738
G1 X188.127 Y62.45 E.00799
G1 X188.417 Y63.181 E.00958
G1 X188.574 Y63.714 E.00677
G1 X188.693 Y64.321 E.00752
G1 X188.755 Y64.966 E.0079
G1 X188.755 Y65.591 E.00761
G1 X188.69 Y66.241 E.00796
G1 X188.561 Y66.882 E.00796
G1 X188.368 Y67.506 E.00796
G1 X188.114 Y68.108 E.00796
G1 X187.802 Y68.682 E.00796
G1 X187.434 Y69.222 E.00796
G1 X187.014 Y69.723 E.00796
G1 X186.546 Y70.179 E.00796
G1 X186.035 Y70.586 E.00796
G1 X185.486 Y70.941 E.00796
G1 X184.905 Y71.239 E.00796
G1 X184.296 Y71.478 E.00796
G1 X183.667 Y71.655 E.00796
G1 X183.024 Y71.768 E.00796
G1 X182.372 Y71.817 E.00796
G1 X181.727 Y71.801 E.00786
G1 X181.191 Y71.72 E.0066
G1 X180.527 Y71.592 E.00823
G1 X180.016 Y71.436 E.00651
G1 X179.485 Y71.225 E.00695
G1 X178.906 Y70.924 E.00795
G1 X178.282 Y70.506 E.00915
G1 X177.85 Y70.158 E.00675
G1 X177.384 Y69.699 E.00797
G1 X176.941 Y69.159 E.0085
G1 X176.602 Y68.656 E.00738
G1 X176.291 Y68.079 E.00799
G1 X176 Y67.348 E.00958
G1 X175.851 Y66.853 E.00629
G1 X175.724 Y66.208 E.00801
G1 X175.662 Y65.549 E.00806
G1 X175.665 Y64.909 E.00779
G1 X175.743 Y64.211 E.00855
G1 X175.89 Y63.539 E.00838
G1 X176.051 Y63.027 E.00653
G1 X175.87 Y62.957 F4200
G1 F1200
G1 X176.131 Y62.338 E.00819
G1 X176.453 Y61.747 E.00819
G1 X176.832 Y61.191 E.00819
G1 X177.264 Y60.676 E.00819
G1 X177.745 Y60.207 E.00819
G1 X178.271 Y59.787 E.00819
G1 X178.836 Y59.422 E.00819
G1 X179.434 Y59.116 E.00819
G1 X180.06 Y58.87 E.00819
G1 X180.708 Y58.688 E.00819
G1 X181.37 Y58.571 E.00819
G1 X182.041 Y58.521 E.00819
G1 X182.696 Y58.537 E.00798
G1 X183.763 Y58.703 E.01315
G1 X184.471 Y58.915 E.009
G1 X185.019 Y59.134 E.00718
G1 X185.615 Y59.444 E.00818
G1 X186.298 Y59.908 E.01005
G1 X186.7 Y60.234 E.00631
G1 X187.18 Y60.707 E.0082
G1 X187.634 Y61.262 E.00873
G1 X187.983 Y61.781 E.00761
G1 X188.302 Y62.376 E.00822
G1 X188.599 Y63.125 E.00981
G1 X188.761 Y63.677 E.007
G1 X188.883 Y64.302 E.00775
G1 X188.946 Y64.966 E.00813
G1 X188.946 Y65.601 E.00772
G1 X188.879 Y66.27 E.00819
G1 X188.746 Y66.929 E.00819
G1 X188.547 Y67.571 E.00819
G1 X188.286 Y68.191 E.00819
G1 X187.965 Y68.782 E.00819
G1 X187.586 Y69.337 E.00819
G1 X187.154 Y69.852 E.00819
G1 X186.672 Y70.322 E.00819
G1 X186.146 Y70.741 E.00819
G1 X185.582 Y71.106 E.00819
G1 X184.983 Y71.413 E.00819
G1 X184.357 Y71.659 E.00819
G1 X183.71 Y71.841 E.00819
G1 X183.047 Y71.958 E.00819
G1 X182.377 Y72.008 E.00819
G1 X181.71 Y71.991 E.00812
G1 X180.702 Y71.839 E.01242
G1 X180.06 Y71.659 E.00812
G1 X179.434 Y71.413 E.00819
G1 X178.836 Y71.106 E.00819
G1 X178.271 Y70.741 E.00819
G1 X177.745 Y70.322 E.00819
G1 X177.264 Y69.852 E.00819
G1 X176.832 Y69.337 E.00819
G1 X176.453 Y68.782 E.00819
G1 X176.131 Y68.191 E.00819
G1 X175.87 Y67.571 E.00819
G1 X175.672 Y66.929 E.00819
G1 X175.538 Y66.27 E.00819
G1 X175.472 Y65.601 E.00819
G1 X175.472 Y64.928 E.00819
G1 X175.538 Y64.259 E.00819
G1 X175.672 Y63.6 E.00819
G1 X175.861 Y62.986 E.00782
G1 X175.691 Y62.892 F4200
G1 F1200
G1 X175.959 Y62.255 E.00842
G1 X176.29 Y61.647 E.00842
G1 X176.679 Y61.076 E.00842
G1 X177.124 Y60.546 E.00842
G1 X177.619 Y60.063 E.00842
G1 X178.16 Y59.632 E.00842
G1 X178.74 Y59.257 E.00842
G1 X179.356 Y58.942 E.00842
G1 X180 Y58.689 E.00842
G1 X180.665 Y58.502 E.00842
G1 X181.346 Y58.382 E.00842
G1 X182.036 Y58.33 E.00842
G1 X182.712 Y58.347 E.00824
G1 X183.282 Y58.432 E.00701
G1 X183.815 Y58.519 E.00658
G1 X184.541 Y58.737 E.00923
G1 X185.106 Y58.964 E.00741
G1 X185.719 Y59.284 E.00841
G1 X186.417 Y59.759 E.01028
G1 X186.834 Y60.098 E.00654
G1 X187.326 Y60.585 E.00843
G1 X187.872 Y61.273 E.01069
G1 X188.151 Y61.69 E.00611
G1 X188.478 Y62.302 E.00845
G1 X188.781 Y63.069 E.01004
G1 X188.948 Y63.639 E.00723
G1 X189.073 Y64.283 E.00798
G1 X189.137 Y64.966 E.00836
G1 X189.137 Y65.61 E.00784
G1 X189.068 Y66.298 E.00842
G1 X188.931 Y66.976 E.00842
G1 X188.727 Y67.637 E.00842
G1 X188.458 Y68.274 E.00842
G1 X188.128 Y68.881 E.00842
G1 X187.738 Y69.453 E.00842
G1 X187.293 Y69.982 E.00842
G1 X186.798 Y70.465 E.00842
G1 X186.258 Y70.896 E.00842
G1 X185.677 Y71.271 E.00842
G1 X185.062 Y71.587 E.00842
G1 X184.418 Y71.84 E.00842
G1 X183.752 Y72.027 E.00842
G1 X183.071 Y72.147 E.00842
G1 X182.382 Y72.199 E.00842
G1 X181.694 Y72.181 E.00838
G1 X180.662 Y72.026 E.01271
G1 X180 Y71.84 E.00838
G1 X179.356 Y71.587 E.00842
G1 X178.74 Y71.271 E.00842
G1 X178.16 Y70.896 E.00842
G1 X177.619 Y70.465 E.00842
G1 X177.124 Y69.982 E.00842
G1 X176.679 Y69.453 E.00842
G1 X176.29 Y68.881 E.00842
G1 X175.959 Y68.274 E.00842
G1 X175.691 Y67.637 E.00842
G1 X175.487 Y66.976 E.00842
G1 X175.35 Y66.298 E.00842
G1 X175.281 Y65.61 E.00842
G1 X175.281 Y64.919 E.00842
G1 X175.35 Y64.23 E.00842
G1 X175.487 Y63.553 E.00842
G1 X175.682 Y62.921 E.00805
G1 X175.511 Y62.827 F4200
;TYPE:External perimeter
G1 F1200
G1 X175.787 Y62.172 E.00865
G1 X176.127 Y61.548 E.00865
G1 X176.527 Y60.961 E.00865
G1 X176.984 Y60.416 E.00865
G1 X177.493 Y59.92 E.00865
G1 X178.048 Y59.477 E.00865
G1 X178.645 Y59.092 E.00865
G1 X179.277 Y58.768 E.00865
G1 X179.939 Y58.508 E.00865
G1 X180.623 Y58.316 E.00865
G1 X181.322 Y58.192 E.00865
G1 X182.031 Y58.139 E.00865
G1 X182.729 Y58.156 E.0085
G1 X183.31 Y58.243 E.00716
G1 X183.867 Y58.336 E.00687
G1 X184.611 Y58.56 E.00946
G1 X185.193 Y58.795 E.00764
G1 X185.822 Y59.124 E.00865
G1 X186.536 Y59.61 E.01051
G1 X186.967 Y59.961 E.00677
G1 X187.472 Y60.462 E.00866
G1 X188.03 Y61.165 E.01092
G1 X188.318 Y61.599 E.00634
G1 X188.654 Y62.228 E.00868
G1 X188.964 Y63.012 E.01027
G1 X189.135 Y63.601 E.00746
G1 X189.263 Y64.264 E.00822
G1 X189.327 Y64.966 E.00859
G1 X189.327 Y65.62 E.00796
G1 X189.256 Y66.327 E.00865
G1 X189.116 Y67.023 E.00865
G1 X188.906 Y67.702 E.00865
G1 X188.63 Y68.357 E.00865
G1 X188.29 Y68.981 E.00865
G1 X187.89 Y69.568 E.00865
G1 X187.433 Y70.112 E.00865
G1 X186.925 Y70.608 E.00865
G1 X186.369 Y71.051 E.00865
G1 X185.772 Y71.437 E.00865
G1 X185.14 Y71.761 E.00865
G1 X184.479 Y72.021 E.00865
