; generated by PrusaSlicer 2.5.0+win64 on 2023-04-25 at 15:39:50 UTC

; 

; external perimeters extrusion width = 0.45mm
; perimeters extrusion width = 0.45mm
; infill extrusion width = 0.45mm
; solid infill extrusion width = 0.45mm
; top infill extrusion width = 0.40mm
; first layer extrusion width = 0.42mm

M107
;TYPE:Custom
G90 ; use absolute coordinates
M83 ; extruder relative mode
M140 S55 ; set final bed temp
;M104 S150 ; set temporary nozzle temp to prevent oozing during homing
G4 S10 ; allow partial nozzle warmup
G28 ; home all axis
G1 Z50 F240
G1 X2 Y10 F3000
M104 S180 ; set final nozzle temp
M190 S55 ; wait for bed temp to stabilize
M109 S180 ; wait for nozzle temp to stabilize
G1 Z0.28 F240
G92 E0
G1 Y140 E10 F1500 ; prime the nozzle
G1 X2.3 F5000
G92 E0
G1 Y10 E10 F1200 ; prime the nozzle
G92 E0
G21 ; set units to millimeters
G90 ; use absolute coordinates
M83 ; use relative distances for extrusion
; Filament gcode
M107
;LAYER_CHANGE
;Z:0.24
;HEIGHT:0.24
;BEFORE_LAYER_CHANGE
G92 E0
;0.24


G1 Z.24 F4200
;AFTER_LAYER_CHANGE
;0.24
G1 E-3 F3000
G1 X122.751 Y65.823 F4200
G1 E3 F2400
M204 P500
;TYPE:Skirt/Brim
;WIDTH:0.42
G1 F1200
G1 X123.474 Y64.476 E.05397
G1 X124.328 Y63.208 E.05397
G1 X125.304 Y62.031 E.05397
G1 X126.392 Y60.957 E.05397
G1 X128.39 Y59.446 E.08844
G1 X129.695 Y58.704 E.05299
G1 X131.093 Y58.084 E.05397
G1 X132.545 Y57.606 E.05396
G1 X134.038 Y57.274 E.05397
G1 X135.556 Y57.094 E.05397
G1 X137.084 Y57.065 E.05397
G1 X138.608 Y57.188 E.05397
G1 X140.112 Y57.463 E.05397
G1 X141.581 Y57.886 E.05397
G1 X142.831 Y58.376 E.0474
G1 X144.196 Y59.066 E.05397
G1 X145.485 Y59.887 E.05396
G1 X146.687 Y60.833 E.05397
G1 X147.788 Y61.894 E.05397
G1 X148.777 Y63.059 E.05397
G1 X149.646 Y64.317 E.05397
G1 X150.386 Y65.656 E.05397
G1 X150.988 Y67.061 E.05397
G1 X151.448 Y68.519 E.05396
G1 X151.76 Y70.016 E.05397
G1 X151.921 Y71.536 E.05397
G1 X151.93 Y73.065 E.05397
G1 X151.787 Y74.587 E.05397
G1 X151.494 Y76.087 E.05397
G1 X151.052 Y77.551 E.05397
G1 X150.466 Y78.963 E.05397
G1 X149.743 Y80.311 E.05397
G1 X148.89 Y81.579 E.05397
G1 X147.914 Y82.756 E.05397
G1 X146.826 Y83.83 E.05397
G1 X145.637 Y84.791 E.05397
G1 X144.358 Y85.628 E.05397
G1 X142.125 Y86.703 E.08747
G1 X140.673 Y87.181 E.05397
G1 X139.18 Y87.512 E.05397
G1 X137.662 Y87.693 E.05397
G1 X136.133 Y87.722 E.05397
G1 X134.61 Y87.599 E.05397
G1 X133.106 Y87.324 E.05397
G1 X131.636 Y86.901 E.05397
G1 X130.217 Y86.334 E.05396
G1 X128.86 Y85.628 E.05397
G1 X127.581 Y84.791 E.05396
G1 X126.392 Y83.83 E.05397
G1 X125.304 Y82.756 E.05397
G1 X124.328 Y81.579 E.05397
G1 X123.474 Y80.311 E.05397
G1 X122.751 Y78.963 E.05397
G1 X122.166 Y77.551 E.05397
G1 X121.724 Y76.087 E.05397
G1 X121.43 Y74.587 E.05396
G1 X121.288 Y73.065 E.05396
G1 X121.288 Y71.722 E.0474
G1 X121.43 Y70.2 E.05396
G1 X121.724 Y68.7 E.05397
G1 X122.166 Y67.236 E.05397
G1 X122.728 Y65.879 E.05185
G1 X123.069 Y66.02 F4200
G1 F1200
G1 X123.794 Y64.661 E.05438
G1 X124.627 Y63.423 E.05267
G1 X125.58 Y62.275 E.05267
G1 X126.642 Y61.227 E.05267
G1 X128.583 Y59.76 E.08585
G1 X129.855 Y59.036 E.05169
G1 X131.219 Y58.43 E.05267
G1 X132.636 Y57.963 E.05266
G1 X134.093 Y57.639 E.05268
G1 X135.574 Y57.462 E.05267
G1 X137.066 Y57.433 E.05267
G1 X138.553 Y57.553 E.05267
G1 X140.021 Y57.82 E.05267
G1 X141.455 Y58.232 E.05267
G1 X142.841 Y58.785 E.05267
G1 X144.165 Y59.473 E.05267
G1 X145.278 Y60.192 E.04675
G1 X146.45 Y61.116 E.05267
G1 X147.524 Y62.151 E.05267
G1 X148.489 Y63.289 E.05267
G1 X149.337 Y64.517 E.05267
G1 X150.058 Y65.824 E.05267
G1 X150.645 Y67.195 E.05267
G1 X151.093 Y68.619 E.05267
G1 X151.397 Y70.08 E.05267
G1 X151.554 Y71.564 E.05267
G1 X151.562 Y73.056 E.05267
G1 X151.422 Y74.541 E.05267
G1 X151.134 Y76.005 E.05267
G1 X150.702 Y77.434 E.05267
G1 X150.131 Y78.812 E.05267
G1 X149.424 Y80.126 E.05267
G1 X148.591 Y81.364 E.05267
G1 X147.638 Y82.512 E.05267
G1 X146.576 Y83.56 E.05267
G1 X145.414 Y84.497 E.05267
G1 X144.165 Y85.314 E.05267
G1 X141.999 Y86.357 E.08487
G1 X140.582 Y86.824 E.05267
G1 X139.125 Y87.148 E.05267
G1 X137.644 Y87.325 E.05267
G1 X136.152 Y87.354 E.05267
G1 X134.665 Y87.234 E.05267
G1 X133.196 Y86.967 E.05267
G1 X131.762 Y86.555 E.05267
G1 X130.377 Y86.002 E.05267
G1 X129.052 Y85.314 E.05267
G1 X127.804 Y84.497 E.05267
G1 X126.642 Y83.56 E.05267
G1 X125.58 Y82.512 E.05267
G1 X124.627 Y81.364 E.05267
G1 X123.881 Y80.27 E.04675
G1 X123.16 Y78.963 E.05267
G1 X122.573 Y77.591 E.05267
G1 X122.125 Y76.168 E.05267
G1 X121.821 Y74.707 E.05267
G1 X121.664 Y73.223 E.05267
G1 X121.656 Y71.731 E.05267
G1 X121.796 Y70.246 E.05267
G1 X122.084 Y68.782 E.05267
G1 X122.515 Y67.353 E.05267
G1 X123.046 Y66.075 E.04883
G1 E-2.1 F3000
;WIPE_START
G1 F3360
G1 X123.517 Y65.184 E-.855
;WIPE_END
G1 E-.045 F3000
G1 X127.017 Y67.76 F4200
G1 E3 F2400
;TYPE:Perimeter
;WIDTH:0.419999
G1 F1200
G1 X127.26 Y67.288 E.01873
;WIDTH:0.448946
G1 X127.536 Y66.839 E.02006
;WIDTH:0.493807
G1 X127.698 Y66.63 E.0112
;WIDTH:0.538667
G1 X128.188 Y65.968 E.03845
;WIDTH:0.538199
G1 X128.277 Y65.825 E.00783
;WIDTH:0.498799
G1 X128.365 Y65.682 E.0072
;WIDTH:0.459399
G1 X128.454 Y65.54 E.00656
;WIDTH:0.419999
G1 X128.808 Y65.139 E.01886
G1 X129.181 Y64.758 E.01883
G1 X129.568 Y64.4 E.01859
;WIDTH:0.461731
G1 X129.715 Y64.303 E.00694
;WIDTH:0.503463
G1 X129.863 Y64.207 E.00764
;WIDTH:0.545195
G1 X130.43 Y63.789 E.0333
;WIDTH:0.554373
G1 X131.011 Y63.386 E.03405
;WIDTH:0.509582
G1 X131.152 Y63.275 E.00787
;WIDTH:0.464791
G1 X131.292 Y63.163 E.0071
;WIDTH:0.419999
G1 X131.785 Y62.896 E.0198
G1 X132.238 Y62.679 E.01771
;WIDTH:0.463227
G1 X132.489 Y62.597 E.01041
;WIDTH:0.506454
G1 X132.739 Y62.515 E.01151
;WIDTH:0.539676
G1 X133.241 Y62.35 E.02468
;WIDTH:0.542053
G1 X133.913 Y62.133 E.03321
;WIDTH:0.501369
G1 X134.081 Y62.069 E.0077
;WIDTH:0.460684
G1 X134.248 Y62.006 E.00701
;WIDTH:0.419999
G1 X134.773 Y61.901 E.01889
G1 X135.296 Y61.822 E.0187
;WIDTH:0.463459
G1 X135.823 Y61.792 E.0208
;WIDTH:0.500862
G1 X136.097 Y61.798 E.01182
;WIDTH:0.538264
G1 X136.905 Y61.805 E.03769
;WIDTH:0.538114
G1 X137.158 Y61.799 E.0118
;WIDTH:0.500734
G1 X137.411 Y61.793 E.01089
;WIDTH:0.463354
G1 X137.946 Y61.825 E.02111
;WIDTH:0.419999
G1 X138.472 Y61.905 E.0188
G1 X138.989 Y62.01 E.0186
;WIDTH:0.460687
G1 X139.153 Y62.073 E.00692
;WIDTH:0.501374
G1 X139.318 Y62.136 E.00761
;WIDTH:0.542061
G1 X139.988 Y62.354 E.0331
;WIDTH:0.539674
G1 X140.491 Y62.52 E.02477
;WIDTH:0.506353
G1 X140.746 Y62.604 E.01167
;WIDTH:0.463176
G1 X141 Y62.688 E.01056
;WIDTH:0.419999
G1 X141.482 Y62.921 E.0189
G1 X141.944 Y63.173 E.01858
;WIDTH:0.464776
G1 X142.082 Y63.284 E.00699
;WIDTH:0.509553
G1 X142.22 Y63.394 E.00774
;WIDTH:0.55433
G1 X142.797 Y63.796 E.0339
;WIDTH:0.545204
G1 X143.366 Y64.216 E.03342
;WIDTH:0.503469
G1 X143.515 Y64.315 E.00775
;WIDTH:0.461734
G1 X143.665 Y64.413 E.00703
;WIDTH:0.419999
G1 X144.057 Y64.778 E.0189
G1 X144.426 Y65.157 E.01866
G1 X144.775 Y65.553 E.01863
;WIDTH:0.459634
G1 X144.869 Y65.702 E.00692
;WIDTH:0.499269
G1 X144.963 Y65.852 E.00759
;WIDTH:0.538903
G1 X145.365 Y66.431 E.0329
;WIDTH:0.538675
G1 X145.528 Y66.642 E.01245
;WIDTH:0.493757
G1 X145.691 Y66.854 E.0113
;WIDTH:0.448839
G1 X145.97 Y67.31 E.02036
;WIDTH:0.419999
G1 X146.212 Y67.783 E.01877
G1 X146.429 Y68.264 E.01861
;WIDTH:0.459961
G1 X146.474 Y68.435 E.00691
;WIDTH:0.499923
G1 X146.519 Y68.606 E.00759
;WIDTH:0.539884
G1 X146.733 Y69.277 E.03296
;WIDTH:0.539354
G1 X146.899 Y69.781 E.02479
;WIDTH:0.492197
G1 X146.976 Y70.037 E.0113
;WIDTH:0.456098
G1 X147.052 Y70.294 E.01037
;WIDTH:0.419999
G1 X147.144 Y70.82 E.01887
G1 X147.209 Y71.343 E.01859
;WIDTH:0.463094
G1 X147.201 Y71.519 E.00696
;WIDTH:0.506189
G1 X147.192 Y71.696 E.00769
;WIDTH:0.549284
G1 X147.201 Y72.4 E.03357
;WIDTH:0.551499
G1 X147.189 Y73.124 E.0347
;WIDTH:0.507666
G1 X147.198 Y73.294 E.00744
;WIDTH:0.463833
G1 X147.207 Y73.464 E.00673
;WIDTH:0.419999
G1 X147.14 Y73.996 E.01891
G1 X147.048 Y74.515 E.01863
;WIDTH:0.469087
G1 X146.985 Y74.68 E.00706
;WIDTH:0.518174
G1 X146.922 Y74.845 E.00789
;WIDTH:0.567261
G1 X146.859 Y75.01 E.00872
G1 X146.729 Y75.522 E.02607
;WIDTH:0.539901
G1 X146.512 Y76.194 E.03304
;WIDTH:0.504659
G1 X146.463 Y76.365 E.00774
;WIDTH:0.469417
G1 X146.415 Y76.537 E.00714
;WIDTH:0.434174
G1 X146.201 Y77.027 E.01962
;WIDTH:0.419999
G1 X145.958 Y77.499 E.01873
G1 X145.694 Y77.956 E.01862
;WIDTH:0.459555
G1 X145.582 Y78.092 E.00691
;WIDTH:0.499111
G1 X145.47 Y78.229 E.00758
;WIDTH:0.538667
G1 X145.03 Y78.818 E.03432
;WIDTH:0.537606
G1 X144.886 Y79.024 E.01169
;WIDTH:0.506904
G1 X144.742 Y79.23 E.01095
;WIDTH:0.476202
G1 X144.576 Y79.439 E.01085
;WIDTH:0.448101
G1 X144.41 Y79.647 E.01014
;WIDTH:0.419999
G1 X144.037 Y80.029 E.01883
G1 X143.65 Y80.387 E.01859
;WIDTH:0.461731
G1 X143.502 Y80.484 E.00694
;WIDTH:0.503463
G1 X143.355 Y80.58 E.00764
;WIDTH:0.545195
G1 X142.787 Y80.998 E.0333
;WIDTH:0.539869
G1 X142.355 Y81.303 E.02475
;WIDTH:0.520646
G1 X142.212 Y81.41 E.00803
;WIDTH:0.487097
G1 X142.069 Y81.517 E.00745
;WIDTH:0.453548
G1 X141.926 Y81.624 E.00688
;WIDTH:0.419999
G1 X141.432 Y81.89 E.0198
G1 X140.98 Y82.108 E.01771
;WIDTH:0.466772
G1 X140.81 Y82.154 E.00702
;WIDTH:0.513545
G1 X140.64 Y82.2 E.00781
;WIDTH:0.560318
G1 X140.469 Y82.247 E.0086
G1 X139.977 Y82.436 E.02572
;WIDTH:0.542052
G1 X139.304 Y82.654 E.03321
;WIDTH:0.501368
G1 X139.137 Y82.718 E.00771
;WIDTH:0.460684
G1 X138.97 Y82.781 E.00701
;WIDTH:0.419999
G1 X138.445 Y82.886 E.01889
G1 X137.921 Y82.965 E.0187
G1 X137.396 Y83.017 E.01863
;WIDTH:0.459441
G1 X137.213 Y83.006 E.00717
;WIDTH:0.498883
G1 X137.03 Y82.995 E.00786
;WIDTH:0.538406
G1 X136.161 Y82.994 E.04055
;WIDTH:0.498937
G1 X135.982 Y83.005 E.00765
;WIDTH:0.459468
G1 X135.804 Y83.016 E.00698
;WIDTH:0.419999
G1 X135.272 Y82.962 E.01887
G1 X134.746 Y82.882 E.0188
G1 X134.229 Y82.777 E.0186
;WIDTH:0.460695
G1 X134.064 Y82.714 E.00692
;WIDTH:0.501391
G1 X133.899 Y82.651 E.00761
;WIDTH:0.542087
G1 X133.229 Y82.433 E.0331
;WIDTH:0.560297
G1 X132.737 Y82.242 E.02574
G1 X132.564 Y82.194 E.00875
;WIDTH:0.513531
G1 X132.391 Y82.146 E.00794
;WIDTH:0.466765
G1 X132.218 Y82.099 E.00714
;WIDTH:0.419999
G1 X131.736 Y81.866 E.0189
G1 X131.274 Y81.613 E.01858
;WIDTH:0.453548
G1 X131.133 Y81.508 E.00678
;WIDTH:0.487097
G1 X130.992 Y81.402 E.00735
;WIDTH:0.520646
G1 X130.851 Y81.296 E.00792
;WIDTH:0.539869
G1 X130.421 Y80.99 E.0247
;WIDTH:0.545205
G1 X129.852 Y80.571 E.03342
;WIDTH:0.50347
G1 X129.702 Y80.472 E.00775
;WIDTH:0.461735
G1 X129.553 Y80.374 E.00703
;WIDTH:0.419999
G1 X129.161 Y80.009 E.0189
G1 X128.792 Y79.63 E.01866
;WIDTH:0.448922
G1 X128.629 Y79.423 E.01004
;WIDTH:0.477844
G1 X128.466 Y79.216 E.01077
;WIDTH:0.508374
G1 X128.313 Y79 E.01156
;WIDTH:0.538904
G1 X127.853 Y78.356 E.03699
;WIDTH:0.538676
G1 X127.74 Y78.217 E.00833
;WIDTH:0.499117
G1 X127.627 Y78.079 E.00766
;WIDTH:0.459558
G1 X127.515 Y77.94 E.00698
;WIDTH:0.419999
G1 X127.248 Y77.477 E.01888
G1 X127.006 Y77.004 E.01877
;WIDTH:0.434281
G1 X126.796 Y76.52 E.01932
;WIDTH:0.469482
G1 X126.748 Y76.35 E.00706
;WIDTH:0.504683
G1 X126.701 Y76.18 E.00766
;WIDTH:0.539884
G1 X126.485 Y75.51 E.03295
;WIDTH:0.567238
G1 X126.356 Y74.998 E.0261
G1 X126.292 Y74.829 E.00888
;WIDTH:0.518159
G1 X126.229 Y74.661 E.00803
;WIDTH:0.469079
G1 X126.165 Y74.493 E.00719
;WIDTH:0.419999
G1 X126.073 Y73.967 E.01887
G1 X126.008 Y73.444 E.01859
;WIDTH:0.463095
G1 X126.017 Y73.268 E.00696
;WIDTH:0.506191
G1 X126.025 Y73.091 E.00769
;WIDTH:0.549323
G1 X126.026 Y71.681 E.06727
;WIDTH:0.506215
G1 X126.018 Y71.502 E.0078
;WIDTH:0.463107
G1 X126.01 Y71.323 E.00706
;WIDTH:0.419999
G1 X126.078 Y70.791 E.01891
G1 X126.17 Y70.272 E.01863
;WIDTH:0.456078
G1 X126.246 Y70.019 E.01022
;WIDTH:0.492156
G1 X126.323 Y69.767 E.01114
;WIDTH:0.539354
G1 X126.488 Y69.265 E.02468
;WIDTH:0.539901
G1 X126.704 Y68.592 E.03306
;WIDTH:0.499934
G1 X126.75 Y68.42 E.00768
;WIDTH:0.459967
G1 X126.796 Y68.247 E.00699
;WIDTH:0.419999
G1 X126.992 Y67.814 E.01677
G1 X126.689 Y67.592 F4200
G1 F1200
G1 X126.941 Y67.104 E.01938
G1 X127.214 Y66.631 E.01927
G1 X127.554 Y66.113 E.02187
G1 X127.854 Y65.701 E.01798
G1 X128.178 Y65.296 E.01832
G1 X128.544 Y64.882 E.01951
G1 X128.931 Y64.488 E.01948
G1 X129.331 Y64.118 E.01924
G1 X129.751 Y63.766 E.01932
G1 X130.189 Y63.435 E.01939
G1 X130.644 Y63.126 E.01941
G1 X131.116 Y62.839 E.01949
G1 X131.626 Y62.564 E.02045
G1 X132.094 Y62.34 E.01835
G1 X132.599 Y62.128 E.0193
G1 X133.115 Y61.941 E.01938
G1 X133.64 Y61.78 E.0194
G1 X134.175 Y61.645 E.01946
G1 X134.718 Y61.536 E.01954
G1 X135.26 Y61.456 E.01934
G1 X135.803 Y61.402 E.01928
G1 X136.372 Y61.376 E.02012
G1 X136.941 Y61.378 E.02007
G1 X137.45 Y61.405 E.018
G1 X138 Y61.461 E.01952
G1 X138.545 Y61.544 E.01945
G1 X139.079 Y61.653 E.01925
G1 X139.61 Y61.789 E.01933
G1 X140.135 Y61.952 E.0194
G1 X140.651 Y62.141 E.01941
G1 X141.16 Y62.356 E.0195
G1 X141.658 Y62.598 E.01955
G1 X142.136 Y62.859 E.01923
G1 X142.603 Y63.145 E.01931
G1 X143.056 Y63.455 E.01938
G1 X143.494 Y63.787 E.0194
G1 X143.916 Y64.143 E.01947
G1 X144.321 Y64.52 E.01955
G1 X144.702 Y64.913 E.01931
G1 X145.063 Y65.323 E.01928
G1 X145.404 Y65.752 E.01937
G1 X145.724 Y66.199 E.0194
G1 X146.022 Y66.662 E.01945
G1 X146.298 Y67.142 E.01953
G1 X146.548 Y67.632 E.01941
G1 X146.772 Y68.129 E.01926
G1 X146.971 Y68.64 E.01934
G1 X147.145 Y69.161 E.0194
G1 X147.293 Y69.691 E.01942
G1 X147.415 Y70.23 E.0195
G1 X147.51 Y70.774 E.01952
G1 X147.577 Y71.315 E.01924
G1 X147.617 Y71.861 E.01931
G1 X147.63 Y72.41 E.01939
G1 X147.613 Y72.986 E.02035
G1 X147.573 Y73.51 E.01854
G1 X147.503 Y74.06 E.01956
G1 X147.407 Y74.597 E.01928
G1 X147.285 Y75.13 E.01929
G1 X147.135 Y75.658 E.01937
G1 X146.959 Y76.179 E.0194
G1 X146.757 Y76.691 E.01945
G1 X146.529 Y77.195 E.01954
G1 X146.277 Y77.683 E.01938
G1 X146.003 Y78.156 E.01927
G1 X145.664 Y78.674 E.02187
G1 X145.364 Y79.084 E.01792
G1 X145.039 Y79.492 E.01842
G1 X144.674 Y79.905 E.01946
G1 X144.287 Y80.299 E.01948
G1 X143.887 Y80.669 E.01924
G1 X143.467 Y81.02 E.01932
G1 X143.029 Y81.352 E.01939
G1 X142.574 Y81.661 E.01941
G1 X142.102 Y81.948 E.01948
G1 X141.592 Y82.223 E.02045
G1 X141.123 Y82.447 E.01835
G1 X140.619 Y82.659 E.0193
G1 X140.103 Y82.846 E.01938
G1 X139.578 Y83.007 E.0194
G1 X139.043 Y83.142 E.01946
G1 X138.5 Y83.251 E.01954
G1 X137.958 Y83.331 E.01934
G1 X137.415 Y83.385 E.01928
G1 X136.847 Y83.411 E.02006
G1 X136.276 Y83.408 E.02014
G1 X135.768 Y83.382 E.01799
G1 X135.217 Y83.326 E.01952
G1 X134.673 Y83.243 E.01945
G1 X134.138 Y83.134 E.01925
G1 X133.608 Y82.998 E.01933
G1 X133.083 Y82.835 E.0194
G1 X132.566 Y82.646 E.01941
G1 X132.058 Y82.431 E.0195
G1 X131.559 Y82.189 E.01955
G1 X131.081 Y81.928 E.01923
G1 X130.615 Y81.642 E.01931
G1 X130.162 Y81.332 E.01938
G1 X129.724 Y80.999 E.0194
G1 X129.302 Y80.644 E.01947
G1 X128.897 Y80.267 E.01955
G1 X128.516 Y79.874 E.01931
G1 X128.155 Y79.464 E.01928
G1 X127.814 Y79.035 E.01936
G1 X127.494 Y78.588 E.0194
G1 X127.195 Y78.125 E.01945
G1 X126.92 Y77.645 E.01953
G1 X126.67 Y77.155 E.01941
G1 X126.446 Y76.657 E.01926
G1 X126.247 Y76.147 E.01934
G1 X126.073 Y75.626 E.0194
G1 X125.925 Y75.096 E.01942
G1 X125.803 Y74.557 E.0195
G1 X125.708 Y74.012 E.01952
G1 X125.641 Y73.472 E.01924
G1 X125.6 Y72.891 E.02053
G1 X125.588 Y72.377 E.01817
G1 X125.603 Y71.827 E.01941
G1 X125.645 Y71.277 E.01948
G1 X125.715 Y70.727 E.01956
G1 X125.811 Y70.19 E.01928
G1 X125.933 Y69.657 E.01929
G1 X126.083 Y69.129 E.01937
G1 X126.258 Y68.608 E.0194
G1 X126.461 Y68.096 E.01945
G1 X126.664 Y67.646 E.01742
G1 X126.361 Y67.424 F4200
;TYPE:External perimeter
G1 F1200
G1 X126.622 Y66.919 E.02003
G1 X126.905 Y66.431 E.01991
G1 X127.255 Y65.898 E.02252
G1 X127.565 Y65.471 E.01863
G1 X127.901 Y65.052 E.01897
G1 X128.281 Y64.625 E.02016
G1 X128.68 Y64.218 E.02013
G1 X129.094 Y63.835 E.01989
G1 X129.528 Y63.473 E.01997
G1 X129.982 Y63.131 E.02004
G1 X130.452 Y62.812 E.02006
G1 X130.939 Y62.516 E.02013
G1 X131.466 Y62.232 E.0211
G1 X131.951 Y62 E.019
G1 X132.473 Y61.782 E.01995
G1 X133.006 Y61.589 E.02003
G1 X133.549 Y61.423 E.02005
G1 X134.102 Y61.284 E.02011
G1 X134.663 Y61.172 E.02019
G1 X135.223 Y61.089 E.01999
G1 X135.785 Y61.034 E.01993
