; generated by PrusaSlicer 2.5.0+win64 on 2023-04-27 at 13:35:23 UTC

; 

; external perimeters extrusion width = 0.23mm
; perimeters extrusion width = 0.23mm
; infill extrusion width = 0.23mm
; solid infill extrusion width = 0.23mm
; top infill extrusion width = 0.20mm

M107
;TYPE:Custom
G90 ; use absolute coordinates
M83 ; extruder relative mode
M140 S50 ; set final bed temp
;M104 S150 ; set temporary nozzle temp to prevent oozing during homing
G4 S10 ; allow partial nozzle warmup
G28 ; home all axis
G1 Z50 F240
G1 X2 Y10 F3000
M104 S175 ; set final nozzle temp
M190 S50 ; wait for bed temp to stabilize
M109 S175 ; wait for nozzle temp to stabilize
G92 E0
G21 ; set units to millimeters
G90 ; use absolute coordinates
M83 ; use relative distances for extrusion
; Filament gcode
M107
;LAYER_CHANGE
;Z:0.16
;HEIGHT:0.16
;BEFORE_LAYER_CHANGE
G92 E0
;0.16


G1 Z.16 F4200
;AFTER_LAYER_CHANGE
;0.16
G1 E-3 F3000
G1 X171.641 Y57.737 F4200
G1 E3 F2400
M204 P500
;TYPE:Skirt/Brim
;WIDTH:0.225
G1 F1200
G1 X172.027 Y56.793 E.01216
G1 X172.503 Y55.898 E.01208
G1 X173.061 Y55.061 E.012
G1 X173.704 Y54.277 E.01208
G1 X174.422 Y53.562 E.01208
G1 X175.209 Y52.92 E.01211
G1 X176.052 Y52.363 E.01205
G1 X176.951 Y51.89 E.01211
G1 X177.892 Y51.509 E.01209
G1 X179.566 Y51.083 E.0206
G1 X180.566 Y50.968 E.012
G1 X181.586 Y50.952 E.01216
G1 X183.39 Y51.178 E.02168
G1 X184.368 Y51.443 E.01208
G1 X185.315 Y51.803 E.01208
G1 X186.218 Y52.255 E.01204
G1 X187.078 Y52.797 E.01212
G1 X187.874 Y53.419 E.01205
G1 X188.607 Y54.119 E.01208
G1 X189.266 Y54.888 E.01207
G1 X189.847 Y55.722 E.01212
G1 X190.339 Y56.604 E.01204
G1 X190.743 Y57.533 E.01208
G1 X191.052 Y58.502 E.01212
G1 X191.263 Y59.489 E.01204
G1 X191.374 Y60.497 E.01209
G1 X191.385 Y61.507 E.01203
G1 X191.295 Y62.519 E.01211
G1 X191.103 Y63.518 E.01212
G1 X190.815 Y64.486 E.01205
G1 X190.433 Y65.421 E.01203
G1 X189.956 Y66.319 E.01213
G1 X189.394 Y67.162 E.01208
G1 X188.752 Y67.944 E.01207
G1 X188.036 Y68.657 E.01205
G1 X187.249 Y69.299 E.01211
G1 X186.405 Y69.857 E.01205
G1 X184.846 Y70.608 E.02064
G1 X183.882 Y70.921 E.01208
G1 X182.892 Y71.137 E.01208
G1 X181.885 Y71.252 E.01208
G1 X180.872 Y71.267 E.01208
G1 X179.068 Y71.041 E.02168
G1 X178.093 Y70.778 E.01204
G1 X177.143 Y70.416 E.01212
G1 X176.239 Y69.964 E.01205
G1 X175.38 Y69.422 E.01211
G1 X174.583 Y68.8 E.01205
G1 X173.849 Y68.098 E.01211
G1 X173.194 Y67.334 E.01201
G1 X172.612 Y66.5 E.01212
G1 X172.119 Y65.616 E.01207
G1 X171.715 Y64.685 E.01209
G1 X171.405 Y63.718 E.01211
G1 X171.195 Y62.73 E.01204
G1 X171.084 Y61.726 E.01205
G1 X171.073 Y60.71 E.01211
G1 X171.163 Y59.701 E.01208
G1 X171.354 Y58.702 E.01212
G1 X171.633 Y57.766 E.01165
G1 X171.858 Y57.845 F4200
G1 F1200
G1 X172.201 Y56.872 E.01231
G1 X173.216 Y55.172 E.0236
G1 X174.552 Y53.702 E.02368
G1 X176.152 Y52.526 E.02368
G1 X177.957 Y51.689 E.02372
G1 X179.594 Y51.271 E.02014
G1 X181.576 Y51.143 E.02368
G1 X183.544 Y51.409 E.02368
G1 X185.42 Y52.06 E.02368
G1 X187.13 Y53.07 E.02368
G1 X188.606 Y54.399 E.02368
G1 X189.79 Y55.994 E.02368
G1 X190.632 Y57.786 E.0236
G1 X191.075 Y59.522 E.02137
G1 X191.194 Y61.502 E.02365
G1 X190.918 Y63.475 E.02375
G1 X190.259 Y65.342 E.0236
G1 X189.239 Y67.051 E.02372
G1 X187.906 Y68.518 E.02363
G1 X186.306 Y69.694 E.02368
G1 X184.781 Y70.429 E.02019
G1 X182.864 Y70.948 E.02368
G1 X180.882 Y71.077 E.02368
G1 X178.914 Y70.811 E.02368
G1 X177.217 Y70.241 E.02134
G1 X175.487 Y69.265 E.02368
G1 X173.985 Y67.965 E.02368
G1 X172.772 Y66.396 E.02365
G1 X171.892 Y64.616 E.02368
G1 X171.383 Y62.697 E.02366
G1 X171.264 Y60.715 E.02368
G1 X171.54 Y58.744 E.02372
G1 X171.848 Y57.873 E.01101
G1 X172.026 Y57.936 F4200
G1 F1200
G1 X172.375 Y56.95 E.01247
G1 X173.371 Y55.283 E.02315
G1 X174.681 Y53.842 E.02322
G1 X176.251 Y52.688 E.02322
G1 X178.022 Y51.868 E.02327
G1 X179.623 Y51.46 E.01969
G1 X181.567 Y51.333 E.02322
G1 X183.497 Y51.594 E.02322
G1 X185.167 Y52.155 E.021
G1 X186.863 Y53.113 E.02322
G1 X188.334 Y54.386 E.0232
G1 X189.527 Y55.929 E.02325
G1 X190.388 Y57.672 E.02318
G1 X190.887 Y59.555 E.02322
G1 X191.004 Y61.498 E.0232
G1 X190.732 Y63.433 E.0233
G1 X190.085 Y65.264 E.02315
G1 X189.085 Y66.94 E.02327
G1 X187.776 Y68.378 E.02318
G1 X186.206 Y69.531 E.02322
G1 X184.715 Y70.25 E.01973
G1 X182.835 Y70.76 E.02323
G1 X180.891 Y70.887 E.02322
G1 X178.961 Y70.626 E.02322
G1 X177.12 Y69.988 E.02323
G1 X175.442 Y68.997 E.02322
G1 X174.122 Y67.832 E.021
G1 X172.932 Y66.292 E.0232
G1 X172.07 Y64.546 E.02322
G1 X171.571 Y62.664 E.02321
G1 X171.454 Y60.72 E.02322
G1 X171.726 Y58.787 E.02327
G1 X172.016 Y57.965 E.0104
G1 X172.195 Y58.028 F4200
G1 F1200
G1 X172.549 Y57.028 E.01264
G1 X173.526 Y55.394 E.0227
G1 X174.811 Y53.981 E.02277
G1 X176.351 Y52.851 E.02277
G1 X178.088 Y52.047 E.02282
G1 X179.651 Y51.648 E.01923
G1 X181.557 Y51.523 E.02277
G1 X183.45 Y51.779 E.02277
G1 X185.093 Y52.33 E.02066
G1 X186.756 Y53.27 E.02277
G1 X188.198 Y54.519 E.02275
G1 X189.367 Y56.032 E.0228
G1 X190.21 Y57.742 E.02273
G1 X190.699 Y59.588 E.02277
G1 X190.813 Y61.493 E.02275
G1 X190.546 Y63.39 E.02284
G1 X189.912 Y65.186 E.0227
G1 X188.93 Y66.828 E.02282
G1 X187.647 Y68.238 E.02273
G1 X186.107 Y69.369 E.02277
G1 X184.65 Y70.071 E.01928
G1 X182.807 Y70.571 E.02277
G1 X180.901 Y70.696 E.02277
G1 X179.008 Y70.441 E.02277
G1 X177.365 Y69.889 E.02066
G1 X175.702 Y68.949 E.02277
G1 X174.258 Y67.699 E.02277
G1 X173.092 Y66.189 E.02275
G1 X172.247 Y64.476 E.02277
G1 X171.758 Y62.631 E.02275
G1 X171.645 Y60.724 E.02277
G1 X171.912 Y58.829 E.02282
G1 X172.185 Y58.056 E.00978
G1 X172.364 Y58.119 F4200
G1 F1200
G1 X172.722 Y57.107 E.01281
G1 X173.681 Y55.505 E.02225
G1 X174.941 Y54.121 E.02232
G1 X176.45 Y53.014 E.02232
G1 X178.153 Y52.226 E.02236
G1 X179.679 Y51.837 E.01878
G1 X181.548 Y51.714 E.02232
G1 X183.403 Y51.963 E.02232
G1 X185.019 Y52.506 E.02032
G1 X186.648 Y53.428 E.02232
G1 X188.061 Y54.652 E.0223
G1 X189.207 Y56.136 E.02234
G1 X190.033 Y57.812 E.02228
G1 X190.512 Y59.622 E.02232
G1 X190.622 Y61.488 E.02229
G1 X190.36 Y63.348 E.02239
G1 X189.738 Y65.107 E.02225
G1 X188.775 Y66.717 E.02236
G1 X187.517 Y68.099 E.02227
G1 X186.007 Y69.206 E.02232
G1 X184.585 Y69.892 E.01882
G1 X182.778 Y70.383 E.02232
G1 X180.91 Y70.506 E.02232
G1 X179.055 Y70.256 E.02232
G1 X177.439 Y69.713 E.02032
G1 X175.81 Y68.792 E.02232
G1 X174.395 Y67.566 E.02232
G1 X173.252 Y66.085 E.0223
G1 X172.425 Y64.406 E.02232
G1 X171.946 Y62.598 E.0223
G1 X171.835 Y60.729 E.02232
G1 X172.098 Y58.872 E.02236
G1 X172.354 Y58.148 E.00916
G1 X172.533 Y58.211 F4200
G1 F1200
G1 X172.896 Y57.185 E.01297
G1 X173.836 Y55.617 E.0218
G1 X175.071 Y54.261 E.02187
G1 X176.55 Y53.176 E.02187
G1 X178.218 Y52.405 E.02191
G1 X179.708 Y52.026 E.01833
G1 X181.538 Y51.904 E.02187
G1 X183.356 Y52.148 E.02187
G1 X184.944 Y52.682 E.01998
G1 X186.541 Y53.585 E.02187
G1 X187.925 Y54.785 E.02184
G1 X189.046 Y56.239 E.02189
G1 X189.855 Y57.881 E.02182
G1 X190.324 Y59.655 E.02187
G1 X190.432 Y61.484 E.02184
G1 X190.174 Y63.305 E.02193
G1 X189.564 Y65.029 E.0218
G1 X188.62 Y66.606 E.02191
G1 X187.387 Y67.959 E.02182
G1 X185.908 Y69.043 E.02187
G1 X184.52 Y69.712 E.01837
G1 X182.75 Y70.194 E.02187
G1 X180.92 Y70.315 E.02187
G1 X179.102 Y70.071 E.02187
G1 X177.513 Y69.538 E.01998
G1 X175.917 Y68.634 E.02187
G1 X174.531 Y67.433 E.02187
G1 X173.412 Y65.982 E.02184
G1 X172.602 Y64.336 E.02187
G1 X172.134 Y62.565 E.02185
G1 X172.026 Y60.734 E.02187
G1 X172.284 Y58.914 E.02191
G1 X172.523 Y58.239 E.00854
G1 E-2.1 F3000
;WIPE_START
G1 F3360
G1 X172.859 Y57.289 E-.855
;WIPE_END
G1 E-.045 F3000
G1 X176.398 Y59.351 F4200
G1 E3 F2400
;TYPE:Perimeter
;WIDTH:0.224999
G1 F1200
G1 X176.597 Y58.879 E.00611
G1 X176.842 Y58.429 E.00611
G1 X177.131 Y58.006 E.00611
G1 X177.46 Y57.613 E.00611
G1 X177.827 Y57.255 E.00611
G1 X178.228 Y56.935 E.00611
G1 X178.658 Y56.657 E.00611
G1 X179.114 Y56.424 E.00611
G1 X179.591 Y56.236 E.00611
G1 X180.085 Y56.097 E.00611
G1 X180.59 Y56.008 E.00611
G1 X181.092 Y55.971 E.00601
G1 X181.876 Y56.01 E.00936
G1 X182.632 Y56.17 E.0092
G1 X183.111 Y56.332 E.00603
G1 X183.575 Y56.542 E.00607
G1 X184.017 Y56.798 E.00609
G1 X184.432 Y57.097 E.00609
G1 X184.815 Y57.435 E.0061
G1 X185.163 Y57.81 E.0061
G1 X185.472 Y58.218 E.0061
G1 X185.739 Y58.655 E.0061
G1 X185.961 Y59.116 E.0061
G1 X186.136 Y59.597 E.0061
G1 X186.262 Y60.093 E.0061
G1 X186.338 Y60.599 E.0061
G1 X186.364 Y61.109 E.00609
G1 X186.364 Y61.366 E.00306
G1 X186.313 Y61.876 E.00611
G1 X186.211 Y62.378 E.00611
G1 X186.06 Y62.868 E.00611
G1 X185.861 Y63.34 E.00611
G1 X185.616 Y63.791 E.00611
G1 X185.327 Y64.214 E.00611
G1 X184.998 Y64.607 E.00611
G1 X184.631 Y64.965 E.00611
G1 X184.23 Y65.284 E.00611
G1 X183.8 Y65.562 E.00611
G1 X183.343 Y65.796 E.00611
G1 X182.866 Y65.983 E.00611
G1 X182.373 Y66.122 E.00611
G1 X181.868 Y66.211 E.00611
G1 X181.357 Y66.249 E.00611
G1 X180.845 Y66.237 E.00611
G1 X180.336 Y66.173 E.00611
G1 X179.836 Y66.059 E.00611
G1 X179.358 Y65.898 E.00601
G1 X178.651 Y65.558 E.00936
G1 X178.228 Y65.284 E.00601
G1 X177.827 Y64.965 E.00611
G1 X177.46 Y64.607 E.00611
G1 X177.131 Y64.214 E.00611
G1 X176.842 Y63.791 E.00611
G1 X176.597 Y63.34 E.00611
G1 X176.398 Y62.868 E.00611
G1 X176.247 Y62.378 E.00611
G1 X176.145 Y61.876 E.00611
G1 X176.094 Y61.366 E.00611
G1 X176.094 Y60.854 E.00611
G1 X176.145 Y60.344 E.00611
G1 X176.247 Y59.841 E.00611
G1 X176.389 Y59.38 E.00575
G1 X176.218 Y59.286 F4200
G1 F1200
G1 X176.425 Y58.796 E.00634
G1 X176.679 Y58.329 E.00634
G1 X176.978 Y57.89 E.00634
G1 X177.32 Y57.483 E.00634
G1 X177.701 Y57.112 E.00634
G1 X178.116 Y56.78 E.00634
G1 X178.563 Y56.492 E.00634
G1 X179.036 Y56.25 E.00634
G1 X179.531 Y56.055 E.00634
G1 X180.042 Y55.911 E.00634
G1 X180.566 Y55.819 E.00634
G1 X181.09 Y55.78 E.00627
G1 X181.606 Y55.806 E.00616
G1 X182.185 Y55.871 E.00695
G1 X182.683 Y55.987 E.00609
G1 X183.181 Y56.155 E.00626
G1 X183.662 Y56.373 E.0063
G1 X184.121 Y56.638 E.00631
G1 X184.551 Y56.947 E.00632
G1 X184.948 Y57.299 E.00632
G1 X185.309 Y57.688 E.00633
G1 X185.63 Y58.111 E.00633
G1 X185.906 Y58.564 E.00633
G1 X186.136 Y59.042 E.00633
G1 X186.318 Y59.541 E.00633
G1 X186.449 Y60.055 E.00633
G1 X186.528 Y60.58 E.00633
G1 X186.554 Y61.109 E.00632
G1 X186.554 Y61.376 E.00317
G1 X186.501 Y61.904 E.00634
G1 X186.396 Y62.425 E.00634
G1 X186.239 Y62.933 E.00634
G1 X186.033 Y63.423 E.00634
G1 X185.779 Y63.89 E.00634
G1 X185.479 Y64.329 E.00634
G1 X185.138 Y64.737 E.00634
G1 X184.757 Y65.108 E.00634
G1 X184.341 Y65.439 E.00634
G1 X183.895 Y65.727 E.00634
G1 X183.422 Y65.97 E.00634
G1 X182.927 Y66.164 E.00634
G1 X182.415 Y66.308 E.00634
G1 X181.892 Y66.4 E.00634
G1 X181.362 Y66.44 E.00634
G1 X180.83 Y66.427 E.00634
G1 X180.303 Y66.361 E.00634
G1 X179.785 Y66.243 E.00634
G1 X179.286 Y66.075 E.00627
G1 X178.558 Y65.724 E.00964
G1 X178.116 Y65.439 E.00627
G1 X177.701 Y65.108 E.00634
G1 X177.32 Y64.737 E.00634
G1 X176.978 Y64.329 E.00634
G1 X176.679 Y63.89 E.00634
G1 X176.425 Y63.423 E.00634
G1 X176.218 Y62.933 E.00634
G1 X176.062 Y62.425 E.00634
G1 X175.956 Y61.904 E.00634
G1 X175.903 Y61.376 E.00634
G1 X175.903 Y60.844 E.00634
G1 X175.956 Y60.315 E.00634
G1 X176.062 Y59.794 E.00634
G1 X176.21 Y59.315 E.00598
G1 X176.039 Y59.221 F4200
G1 F1200
G1 X176.253 Y58.713 E.00656
G1 X176.516 Y58.23 E.00656
G1 X176.826 Y57.775 E.00656
G1 X177.18 Y57.353 E.00656
G1 X177.574 Y56.969 E.00656
G1 X178.005 Y56.625 E.00656
G1 X178.467 Y56.327 E.00656
G1 X178.957 Y56.076 E.00656
G1 X179.47 Y55.874 E.00656
G1 X180 Y55.725 E.00656
G1 X180.542 Y55.63 E.00656
G1 X181.088 Y55.589 E.00652
G1 X181.615 Y55.615 E.0063
G1 X182.218 Y55.683 E.00723
G1 X182.735 Y55.803 E.00632
G1 X183.25 Y55.977 E.00649
G1 X183.749 Y56.203 E.00653
G1 X184.224 Y56.478 E.00654
G1 X184.67 Y56.798 E.00655
G1 X185.082 Y57.162 E.00655
G1 X185.455 Y57.565 E.00655
G1 X185.787 Y58.003 E.00655
G1 X186.074 Y58.472 E.00655
G1 X186.312 Y58.968 E.00655
G1 X186.5 Y59.484 E.00655
G1 X186.636 Y60.017 E.00656
G1 X186.718 Y60.561 E.00656
G1 X186.745 Y61.109 E.00654
G1 X186.745 Y61.385 E.00329
G1 X186.69 Y61.933 E.00656
G1 X186.581 Y62.473 E.00656
G1 X186.419 Y62.999 E.00656
G1 X186.205 Y63.506 E.00656
G1 X185.942 Y63.99 E.00656
G1 X185.631 Y64.445 E.00656
G1 X185.278 Y64.866 E.00656
G1 X184.883 Y65.251 E.00656
G1 X184.453 Y65.594 E.00656
G1 X183.99 Y65.893 E.00656
G1 X183.5 Y66.144 E.00656
G1 X182.988 Y66.345 E.00656
G1 X182.458 Y66.494 E.00656
G1 X181.916 Y66.59 E.00656
G1 X181.367 Y66.631 E.00656
G1 X180.816 Y66.617 E.00656
G1 X180.27 Y66.549 E.00656
G1 X179.733 Y66.426 E.00656
G1 X179.214 Y66.252 E.00652
G1 X178.464 Y65.891 E.00992
G1 X178.005 Y65.594 E.00652
G1 X177.574 Y65.251 E.00656
G1 X177.18 Y64.866 E.00656
G1 X176.826 Y64.445 E.00656
G1 X176.516 Y63.99 E.00656
G1 X176.253 Y63.506 E.00656
G1 X176.039 Y62.999 E.00656
G1 X175.877 Y62.473 E.00656
G1 X175.768 Y61.933 E.00656
G1 X175.713 Y61.385 E.00656
G1 X175.713 Y60.834 E.00656
G1 X175.768 Y60.287 E.00656
G1 X175.877 Y59.747 E.00656
G1 X176.03 Y59.249 E.00621
G1 X175.86 Y59.156 F4200
;TYPE:External perimeter
G1 F1200
G1 X176.081 Y58.631 E.00679
G1 X176.353 Y58.13 E.00679
G1 X176.674 Y57.66 E.00679
G1 X177.04 Y57.223 E.00679
G1 X177.448 Y56.826 E.00679
G1 X177.893 Y56.47 E.00679
G1 X178.372 Y56.161 E.00679
G1 X178.879 Y55.902 E.00679
G1 X179.409 Y55.693 E.00679
G1 X179.957 Y55.539 E.00679
G1 X180.518 Y55.44 E.00679
G1 X181.085 Y55.398 E.00678
G1 X181.625 Y55.425 E.00644
G1 X182.252 Y55.495 E.00752
G1 X182.786 Y55.62 E.00655
G1 X183.32 Y55.8 E.00671
G1 X183.836 Y56.033 E.00675
G1 X184.327 Y56.317 E.00677
G1 X184.789 Y56.649 E.00677
G1 X185.215 Y57.026 E.00678
G1 X185.601 Y57.442 E.00678
G1 X185.945 Y57.896 E.00678
G1 X186.241 Y58.381 E.00678
G1 X186.488 Y58.894 E.00678
G1 X186.682 Y59.428 E.00678
G1 X186.823 Y59.98 E.00678
G1 X186.907 Y60.542 E.00678
G1 X186.936 Y61.109 E.00677
G1 X186.936 Y61.395 E.0034
G1 X186.879 Y61.961 E.00679
G1 X186.766 Y62.52 E.00679
G1 X186.598 Y63.064 E.00679
G1 X186.377 Y63.589 E.00679
G1 X186.105 Y64.089 E.00679
G1 X185.784 Y64.56 E.00679
G1 X185.417 Y64.996 E.00679
G1 X185.01 Y65.394 E.00679
G1 X184.564 Y65.749 E.00679
G1 X184.086 Y66.058 E.00679
G1 X183.579 Y66.318 E.00679
G1 X183.049 Y66.526 E.00679
G1 X182.5 Y66.68 E.00679
G1 X181.939 Y66.779 E.00679
G1 X181.371 Y66.822 E.00679
G1 X180.802 Y66.808 E.00679
G1 X180.237 Y66.737 E.00679
G1 X179.681 Y66.61 E.00679
G1 X179.142 Y66.429 E.00678
G1 X178.371 Y66.058 E.01021
G1 X177.893 Y65.749 E.00678
G1 X177.448 Y65.394 E.00679
G1 X177.04 Y64.996 E.00679
G1 X176.674 Y64.56 E.00679
G1 X176.353 Y64.089 E.00679
G1 X176.081 Y63.589 E.00679
G1 X175.86 Y63.064 E.00679
G1 X175.692 Y62.52 E.00679
G1 X175.579 Y61.961 E.00679
G1 X175.522 Y61.395 E.00679
G1 X175.522 Y60.825 E.00679
G1 X175.579 Y60.258 E.00679
G1 X175.692 Y59.7 E.00679
G1 X175.851 Y59.184 E.00643
G1 X176.057 Y59.121 F4200
G1 E-3 F3000
G1 X184.103 Y56.921 F4200
G1 E3 F2400
;TYPE:Solid infill
;WIDTH:0.226408
G1 F1200
G1 X184.898 Y57.716 E.0135
G1 X185.213 Y58.092 E.00589
G1 X185.494 Y58.504 E.00598
G1 X185.59 Y58.68 E.00241
G1 X183.653 Y56.743 E.0329
G1 X183.133 Y56.494 E.00692
G1 X185.843 Y59.205 E.04604
G1 X185.996 Y59.63 E.00542
G1 X182.706 Y56.34 E.05588
G1 X182.33 Y56.235 E.00469
G1 X186.098 Y60.003 E.064
G1 X186.167 Y60.343 E.00417
G1 X182 Y56.177 E.07077
G1 X181.696 Y56.144 E.00368
G1 X186.199 Y60.648 E.07649
G1 X186.221 Y60.941 E.00353
G1 X181.41 Y56.13 E.08171
G1 X181.124 Y56.116 E.00344
G1 X186.221 Y61.212 E.08657
G1 X186.209 Y61.473 E.00313
G1 X180.868 Y56.131 E.09073
G1 X180.615 Y56.15 E.00304
G1 X186.185 Y61.719 E.0946
G1 X186.15 Y61.957 E.00288
G1 X180.384 Y56.19 E.09795
G1 X180.153 Y56.231 E.00282
G1 X186.105 Y62.183 E.1011
G1 X186.054 Y62.403 E.00272
G1 X179.938 Y56.287 E.10388
G1 X179.726 Y56.347 E.00264
G1 X185.99 Y62.611 E.10639
G1 X185.926 Y62.819 E.00261
G1 X179.524 Y56.417 E.10874
G1 X179.328 Y56.493 E.00252
G1 X185.845 Y63.01 E.11068
G1 X185.765 Y63.201 E.00249
G1 X179.137 Y56.573 E.11258
G1 X178.957 Y56.665 E.00242
G1 X185.675 Y63.383 E.1141
G1 X185.579 Y63.559 E.0024
G1 X178.777 Y56.757 E.11553
G1 X178.609 Y56.86 E.00237
G1 X185.482 Y63.733 E.11674
G1 X185.372 Y63.895 E.00235
