; generated by PrusaSlicer 2.5.0+win64 on 2023-04-26 at 17:40:14 UTC

; 

; external perimeters extrusion width = 0.23mm
; perimeters extrusion width = 0.23mm
; infill extrusion width = 0.23mm
; solid infill extrusion width = 0.23mm
; top infill extrusion width = 0.20mm

M107
;TYPE:Custom
G90 ; use absolute coordinates
M83 ; extruder relative mode
M140 S55 ; set final bed temp
;M104 S150 ; set temporary nozzle temp to prevent oozing during homing
G4 S10 ; allow partial nozzle warmup
G28 ; home all axis
G1 Z50 F240
G1 X2 Y10 F3000
M104 S180 ; set final nozzle temp
M190 S55 ; wait for bed temp to stabilize
M109 S180 ; wait for nozzle temp to stabilize
G1 Z0.28 F240
G92 E0
G1 Y140 E2.5 F1500 ; prime the nozzle
G1 X2.3 F5000
G92 E0
G1 Y10 E2.5 F1200 ; prime the nozzle
G92 E0
G21 ; set units to millimeters
G90 ; use absolute coordinates
M83 ; use relative distances for extrusion
; Filament gcode
M107
;LAYER_CHANGE
;Z:0.16
;HEIGHT:0.16
;BEFORE_LAYER_CHANGE
G92 E0
;0.16


G1 Z.16 F4200
;AFTER_LAYER_CHANGE
;0.16
G1 E-3 F3000
G1 X126.605 Y67.397 F4200
G1 E3 F2400
M204 P500
;TYPE:Skirt/Brim
;WIDTH:0.225
G1 F1200
G1 X127.007 Y66.642 E.01042
G1 X127.628 Y65.714 E.01359
G1 X128.338 Y64.853 E.01359
G1 X129.129 Y64.067 E.01359
G1 X129.996 Y63.364 E.01359
G1 X130.928 Y62.75 E.01359
G1 X132.612 Y61.939 E.02276
G1 X133.656 Y61.598 E.01337
G1 X134.763 Y61.354 E.0138
G1 X135.871 Y61.225 E.01359
G1 X136.986 Y61.207 E.01359
G1 X138.098 Y61.3 E.01359
G1 X139.195 Y61.504 E.01359
G1 X141.202 Y62.186 E.02581
G1 X142.12 Y62.652 E.01253
G1 X143.062 Y63.249 E.01359
G1 X143.941 Y63.937 E.01359
G1 X144.746 Y64.709 E.01359
G1 X145.471 Y65.557 E.01359
G1 X146.104 Y66.468 E.01351
G1 X146.65 Y67.449 E.01366
G1 X147.092 Y68.473 E.01359
G1 X147.431 Y69.536 E.01359
G1 X147.661 Y70.628 E.01359
G1 X147.782 Y71.737 E.01359
G1 X147.792 Y72.853 E.01359
G1 X147.691 Y73.964 E.01359
G1 X147.479 Y75.06 E.01359
G1 X147.16 Y76.129 E.01359
G1 X146.735 Y77.161 E.01359
G1 X146.21 Y78.145 E.01359
G1 X145.59 Y79.073 E.01359
G1 X144.88 Y79.934 E.01359
G1 X144.088 Y80.72 E.01359
G1 X143.222 Y81.423 E.01359
G1 X142.29 Y82.037 E.01359
G1 X140.606 Y82.848 E.02276
G1 X139.545 Y83.194 E.01359
G1 X138.455 Y83.433 E.01359
G1 X137.347 Y83.562 E.01359
G1 X136.231 Y83.58 E.01359
G1 X135.119 Y83.486 E.01359
G1 X134.022 Y83.283 E.01359
G1 X132.096 Y82.636 E.02475
G1 X131.098 Y82.135 E.01359
G1 X130.156 Y81.538 E.01359
G1 X129.277 Y80.85 E.01359
G1 X128.472 Y80.078 E.01359
G1 X127.747 Y79.23 E.01359
G1 X127.11 Y78.313 E.01359
G1 X126.568 Y77.338 E.01359
G1 X126.125 Y76.314 E.01359
G1 X125.787 Y75.251 E.01359
G1 X125.557 Y74.159 E.01359
G1 X125.436 Y73.05 E.01359
G1 X125.426 Y71.934 E.01359
G1 X125.527 Y70.823 E.01359
G1 X125.739 Y69.727 E.01359
G1 X126.058 Y68.658 E.01359
G1 X126.478 Y67.637 E.01345
G1 X126.591 Y67.424 E.00294
G1 X126.759 Y67.513 F4200
G1 F1200
G1 X127.173 Y66.737 E.01071
G1 X127.783 Y65.825 E.01335
G1 X128.48 Y64.979 E.01335
G1 X129.259 Y64.207 E.01335
G1 X130.111 Y63.516 E.01335
G1 X131.027 Y62.913 E.01335
G1 X132.677 Y62.118 E.0223
G1 X133.703 Y61.783 E.01314
G1 X134.791 Y61.543 E.01357
G1 X135.88 Y61.416 E.01335
G1 X136.977 Y61.398 E.01335
G1 X138.07 Y61.489 E.01335
G1 X139.148 Y61.689 E.01335
G1 X141.124 Y62.36 E.0254
G1 X142.028 Y62.819 E.01235
G1 X142.955 Y63.406 E.01335
G1 X143.818 Y64.083 E.01335
G1 X144.61 Y64.842 E.01335
G1 X145.322 Y65.676 E.01335
G1 X145.944 Y66.572 E.01328
G1 X146.48 Y67.536 E.01342
G1 X146.915 Y68.543 E.01335
G1 X147.247 Y69.588 E.01335
G1 X147.474 Y70.661 E.01335
G1 X147.592 Y71.751 E.01335
G1 X147.601 Y72.848 E.01335
G1 X147.502 Y73.94 E.01335
G1 X147.293 Y75.017 E.01335
G1 X146.979 Y76.068 E.01335
G1 X146.562 Y77.082 E.01335
G1 X146.045 Y78.05 E.01335
G1 X145.435 Y78.961 E.01335
G1 X144.737 Y79.808 E.01335
G1 X143.959 Y80.58 E.01335
G1 X143.107 Y81.271 E.01335
G1 X142.191 Y81.874 E.01335
G1 X140.541 Y82.669 E.0223
G1 X139.498 Y83.009 E.01335
G1 X138.427 Y83.244 E.01335
G1 X137.338 Y83.371 E.01335
G1 X136.241 Y83.389 E.01335
G1 X135.148 Y83.298 E.01335
G1 X134.069 Y83.098 E.01335
G1 X133.016 Y82.792 E.01335
G1 X131.999 Y82.383 E.01335
G1 X131.027 Y81.874 E.01335
G1 X130.111 Y81.271 E.01335
G1 X128.608 Y79.945 E.0244
G1 X127.896 Y79.111 E.01335
G1 X127.27 Y78.21 E.01335
G1 X126.738 Y77.251 E.01335
G1 X126.303 Y76.244 E.01335
G1 X125.971 Y75.199 E.01335
G1 X125.744 Y74.126 E.01335
G1 X125.626 Y73.035 E.01335
G1 X125.616 Y71.939 E.01335
G1 X125.716 Y70.846 E.01335
G1 X125.924 Y69.77 E.01335
G1 X126.239 Y68.719 E.01335
G1 X126.651 Y67.715 E.01321
G1 X126.745 Y67.539 E.00242
G1 X126.913 Y67.629 F4200
G1 F1200
G1 X127.338 Y66.832 E.01099
G1 X127.937 Y65.937 E.01312
G1 X128.623 Y65.105 E.01312
G1 X129.389 Y64.347 E.01312
G1 X130.226 Y63.668 E.01312
G1 X131.122 Y63.078 E.01306
G1 X132.742 Y62.297 E.0219
G1 X133.75 Y61.967 E.01292
G1 X134.819 Y61.731 E.01333
G1 X135.89 Y61.606 E.01312
G1 X136.967 Y61.588 E.01312
G1 X138.042 Y61.678 E.01312
G1 X139.101 Y61.873 E.01312
G1 X141.045 Y62.534 E.025
G1 X142.847 Y63.564 E.02527
G1 X143.696 Y64.229 E.01312
G1 X144.473 Y64.975 E.01312
G1 X145.173 Y65.795 E.01312
G1 X145.784 Y66.676 E.01306
G1 X146.311 Y67.623 E.01319
G1 X146.737 Y68.612 E.01312
G1 X147.064 Y69.639 E.01312
G1 X147.286 Y70.694 E.01312
G1 X147.402 Y71.766 E.01312
G1 X147.411 Y72.843 E.01312
G1 X147.312 Y73.917 E.01312
G1 X147.107 Y74.975 E.01312
G1 X146.798 Y76.007 E.01312
G1 X146.388 Y77.004 E.01312
G1 X145.88 Y77.955 E.01312
G1 X145.28 Y78.85 E.01312
G1 X144.594 Y79.681 E.01312
G1 X143.829 Y80.44 E.01312
G1 X142.992 Y81.119 E.01312
G1 X142.091 Y81.711 E.01312
G1 X140.476 Y82.49 E.02184
G1 X139.451 Y82.824 E.01312
G1 X138.399 Y83.056 E.01312
G1 X137.328 Y83.181 E.01312
G1 X136.25 Y83.199 E.01312
G1 X135.176 Y83.109 E.01312
G1 X134.116 Y82.913 E.01312
G1 X133.081 Y82.613 E.01312
G1 X132.081 Y82.211 E.01312
G1 X131.126 Y81.711 E.01312
G1 X130.226 Y81.119 E.01312
G1 X129.389 Y80.44 E.01312
G1 X128.623 Y79.681 E.01312
G1 X127.937 Y78.85 E.01312
G1 X127.338 Y77.955 E.01312
G1 X126.48 Y76.175 E.02405
G1 X126.154 Y75.147 E.01312
G1 X125.932 Y74.093 E.01312
G1 X125.816 Y73.021 E.01312
G1 X125.807 Y71.943 E.01312
G1 X125.906 Y70.87 E.01312
G1 X126.11 Y69.812 E.01312
G1 X126.42 Y68.78 E.01312
G1 X126.825 Y67.794 E.01298
G1 X126.899 Y67.655 E.00191
G1 X127.067 Y67.745 F4200
G1 F1200
G1 X127.503 Y66.928 E.01128
G1 X128.092 Y66.048 E.01289
G1 X128.766 Y65.232 E.01289
G1 X129.518 Y64.486 E.01289
G1 X130.341 Y63.82 E.01289
G1 X131.221 Y63.241 E.01283
G1 X132.807 Y62.477 E.02144
G1 X133.798 Y62.152 E.01269
G1 X134.848 Y61.92 E.0131
G1 X135.899 Y61.797 E.01289
G1 X136.958 Y61.779 E.01289
G1 X138.013 Y61.866 E.01289
G1 X139.054 Y62.058 E.01289
G1 X140.967 Y62.708 E.02459
G1 X142.74 Y63.721 E.02487
G1 X143.573 Y64.375 E.01289
G1 X144.337 Y65.108 E.01289
G1 X145.024 Y65.914 E.01289
G1 X145.624 Y66.779 E.01283
G1 X146.141 Y67.71 E.01295
G1 X146.56 Y68.682 E.01289
G1 X146.88 Y69.691 E.01289
G1 X147.098 Y70.727 E.01289
G1 X147.212 Y71.78 E.01289
G1 X147.22 Y72.839 E.01289
G1 X147.123 Y73.893 E.01289
G1 X146.922 Y74.932 E.01289
G1 X146.618 Y75.947 E.01289
G1 X146.214 Y76.925 E.01289
G1 X145.715 Y77.859 E.01289
G1 X145.126 Y78.739 E.01289
G1 X144.451 Y79.555 E.01289
G1 X143.699 Y80.301 E.01289
G1 X142.877 Y80.967 E.01289
G1 X141.992 Y81.549 E.01289
G1 X140.41 Y82.31 E.02137
G1 X139.404 Y82.64 E.01289
G1 X138.37 Y82.867 E.01289
G1 X137.319 Y82.99 E.01289
G1 X136.26 Y83.008 E.01289
G1 X135.205 Y82.921 E.01289
G1 X134.164 Y82.729 E.01289
G1 X133.147 Y82.434 E.01289
G1 X132.164 Y82.039 E.01289
G1 X131.226 Y81.549 E.01289
G1 X130.341 Y80.967 E.01289
G1 X128.881 Y79.679 E.02371
G1 X128.194 Y78.873 E.01289
G1 X127.591 Y78.003 E.01289
G1 X127.077 Y77.077 E.01289
G1 X126.658 Y76.105 E.01289
G1 X126.338 Y75.096 E.01289
G1 X126.12 Y74.06 E.01289
G1 X126.006 Y73.007 E.01289
G1 X125.998 Y71.948 E.01289
G1 X126.095 Y70.894 E.01289
G1 X126.296 Y69.855 E.01289
G1 X126.6 Y68.84 E.01289
G1 X127.053 Y67.771 E.01413
G1 X127.22 Y67.861 F4200
G1 F1200
G1 X127.668 Y67.023 E.01157
G1 X128.247 Y66.159 E.01266
G1 X128.909 Y65.358 E.01266
G1 X129.648 Y64.626 E.01266
G1 X130.456 Y63.972 E.01266
G1 X131.321 Y63.403 E.0126
G1 X132.873 Y62.656 E.02097
G1 X133.845 Y62.337 E.01246
G1 X134.876 Y62.108 E.01286
G1 X135.909 Y61.987 E.01266
G1 X136.948 Y61.969 E.01266
G1 X137.985 Y62.055 E.01266
G1 X139.007 Y62.243 E.01266
G1 X140.888 Y62.881 E.02419
G1 X142.633 Y63.879 E.02446
G1 X143.45 Y64.521 E.01266
G1 X144.2 Y65.241 E.01266
G1 X144.875 Y66.033 E.01266
G1 X145.464 Y66.883 E.0126
G1 X145.971 Y67.797 E.01272
G1 X146.382 Y68.752 E.01266
G1 X146.696 Y69.743 E.01266
G1 X146.91 Y70.76 E.01266
G1 X147.022 Y71.794 E.01266
G1 X147.03 Y72.834 E.01266
G1 X146.934 Y73.869 E.01266
G1 X146.736 Y74.89 E.01266
G1 X146.437 Y75.886 E.01266
G1 X146.04 Y76.847 E.01266
G1 X145.55 Y77.764 E.01266
G1 X144.971 Y78.627 E.01266
G1 X144.309 Y79.429 E.01266
G1 X143.57 Y80.161 E.01266
G1 X142.762 Y80.815 E.01266
G1 X141.893 Y81.386 E.01266
G1 X140.345 Y82.131 E.02091
G1 X139.357 Y82.455 E.01266
G1 X138.342 Y82.678 E.01266
G1 X137.309 Y82.8 E.01266
G1 X136.269 Y82.818 E.01266
G1 X135.233 Y82.732 E.01266
G1 X134.211 Y82.544 E.01266
G1 X132.392 Y81.933 E.02336
G1 X131.463 Y81.466 E.01266
G1 X130.585 Y80.908 E.01266
G1 X129.767 Y80.266 E.01266
G1 X129.018 Y79.546 E.01266
G1 X128.343 Y78.754 E.01266
G1 X127.751 Y77.9 E.01266
G1 X127.247 Y76.99 E.01266
G1 X126.835 Y76.035 E.01266
G1 X126.521 Y75.044 E.01266
G1 X126.308 Y74.027 E.01266
G1 X126.196 Y72.993 E.01266
G1 X126.188 Y71.953 E.01266
G1 X126.284 Y70.918 E.01266
G1 X126.482 Y69.897 E.01266
G1 X126.781 Y68.901 E.01266
G1 X127.206 Y67.888 E.01338
G1 E-2.1 F3000
;WIPE_START
G1 F3360
G1 X127.668 Y67.023 E-.83136
G1 X127.683 Y67 E-.02364
;WIPE_END
G1 E-.045 F3000
G1 X130.722 Y69.54 F4200
G1 E3 F2400
;TYPE:Perimeter
;WIDTH:0.224999
G1 F1200
G1 X130.783 Y69.404 E.00181
G1 X131.119 Y68.824 E.00817
G1 X131.426 Y68.385 E.00651
G1 X131.986 Y67.758 E.01023
G1 X132.471 Y67.32 E.00797
G1 X132.898 Y66.997 E.00651
G1 X133.359 Y66.703 E.00666
G1 X133.942 Y66.408 E.00796
G1 X134.674 Y66.137 E.00951
G1 X135.18 Y65.998 E.00638
G1 X135.825 Y65.887 E.00798
G1 X136.552 Y65.843 E.00886
G1 X137.164 Y65.869 E.00746
G1 X138.112 Y66.016 E.01168
G1 X138.802 Y66.222 E.00877
G1 X139.332 Y66.433 E.00695
G1 X139.912 Y66.733 E.00795
G1 X140.536 Y67.152 E.00915
G1 X140.968 Y67.5 E.00675
G1 X141.434 Y67.959 E.00797
G1 X141.877 Y68.499 E.0085
G1 X142.216 Y69.001 E.00738
G1 X142.527 Y69.579 E.00799
G1 X142.817 Y70.31 E.00958
G1 X142.975 Y70.843 E.00677
G1 X143.094 Y71.45 E.00752
G1 X143.155 Y72.095 E.0079
G1 X143.155 Y72.72 E.00761
G1 X143.09 Y73.37 E.00796
G1 X142.961 Y74.011 E.00796
G1 X142.768 Y74.635 E.00796
G1 X142.514 Y75.237 E.00796
G1 X142.202 Y75.811 E.00796
G1 X141.834 Y76.351 E.00796
G1 X141.414 Y76.852 E.00796
G1 X140.946 Y77.308 E.00796
G1 X140.435 Y77.715 E.00796
G1 X139.886 Y78.07 E.00796
G1 X139.305 Y78.368 E.00796
G1 X138.696 Y78.607 E.00796
G1 X138.067 Y78.784 E.00796
G1 X137.424 Y78.897 E.00796
G1 X136.772 Y78.946 E.00796
G1 X136.127 Y78.93 E.00786
G1 X134.928 Y78.721 E.01483
G1 X134.416 Y78.565 E.00651
G1 X133.886 Y78.354 E.00695
G1 X133.306 Y78.053 E.00795
G1 X132.682 Y77.635 E.00915
G1 X132.25 Y77.287 E.00675
G1 X131.784 Y76.828 E.00797
G1 X131.341 Y76.288 E.0085
G1 X131.002 Y75.785 E.00738
G1 X130.691 Y75.208 E.00799
G1 X130.401 Y74.477 E.00958
G1 X130.251 Y73.983 E.00629
G1 X130.124 Y73.337 E.00801
G1 X130.062 Y72.678 E.00806
G1 X130.065 Y72.038 E.00779
G1 X130.143 Y71.34 E.00855
G1 X130.29 Y70.668 E.00838
G1 X130.461 Y70.126 E.00692
G1 X130.71 Y69.567 E.00745
G1 X130.531 Y69.467 F4200
G1 F1200
G1 X130.853 Y68.876 E.00819
G1 X131.232 Y68.32 E.00819
G1 X131.664 Y67.805 E.00819
G1 X132.145 Y67.336 E.00819
G1 X132.671 Y66.916 E.00819
G1 X133.236 Y66.552 E.00819
G1 X133.835 Y66.245 E.00819
G1 X134.461 Y65.999 E.00819
G1 X135.108 Y65.817 E.00819
G1 X135.77 Y65.7 E.00819
G1 X136.441 Y65.65 E.00819
G1 X137.096 Y65.666 E.00798
G1 X138.163 Y65.832 E.01315
G1 X138.872 Y66.044 E.009
G1 X139.419 Y66.263 E.00718
G1 X140.015 Y66.573 E.00818
G1 X140.698 Y67.037 E.01005
G1 X141.101 Y67.363 E.00631
G1 X141.58 Y67.837 E.0082
G1 X142.035 Y68.392 E.00873
G1 X142.383 Y68.91 E.00761
G1 X142.703 Y69.505 E.00822
G1 X142.999 Y70.254 E.00981
G1 X143.161 Y70.806 E.007
G1 X143.283 Y71.431 E.00775
G1 X143.346 Y72.095 E.00813
G1 X143.346 Y72.73 E.00772
G1 X143.279 Y73.399 E.00819
G1 X143.146 Y74.058 E.00819
G1 X142.948 Y74.701 E.00819
G1 X142.686 Y75.32 E.00819
G1 X142.365 Y75.911 E.00819
G1 X141.986 Y76.466 E.00819
G1 X141.554 Y76.982 E.00819
G1 X141.072 Y77.451 E.00819
G1 X140.547 Y77.87 E.00819
G1 X139.982 Y78.235 E.00819
G1 X139.383 Y78.542 E.00819
G1 X138.757 Y78.788 E.00819
G1 X138.11 Y78.97 E.00819
G1 X137.448 Y79.087 E.00819
G1 X136.777 Y79.137 E.00819
G1 X136.111 Y79.12 E.00812
G1 X135.102 Y78.968 E.01242
G1 X134.461 Y78.788 E.00812
G1 X133.835 Y78.542 E.00819
G1 X133.236 Y78.235 E.00819
G1 X132.671 Y77.87 E.00819
G1 X132.145 Y77.451 E.00819
G1 X131.664 Y76.982 E.00819
G1 X131.232 Y76.466 E.00819
G1 X130.853 Y75.911 E.00819
G1 X130.531 Y75.32 E.00819
G1 X130.27 Y74.701 E.00819
G1 X130.072 Y74.058 E.00819
G1 X129.939 Y73.399 E.00819
G1 X129.872 Y72.73 E.00819
G1 X129.872 Y72.057 E.00819
G1 X129.939 Y71.388 E.00819
G1 X130.072 Y70.729 E.00819
G1 X130.27 Y70.086 E.00819
G1 X130.52 Y69.494 E.00782
G1 X130.359 Y69.384 F4200
G1 F1200
G1 X130.69 Y68.777 E.00842
G1 X131.08 Y68.205 E.00842
G1 X131.524 Y67.675 E.00842
G1 X132.019 Y67.193 E.00842
G1 X132.56 Y66.761 E.00842
G1 X133.141 Y66.386 E.00842
G1 X133.756 Y66.071 E.00842
G1 X134.4 Y65.818 E.00842
G1 X135.065 Y65.631 E.00842
G1 X135.746 Y65.511 E.00842
G1 X136.436 Y65.459 E.00842
G1 X137.113 Y65.476 E.00824
G1 X138.215 Y65.649 E.01359
G1 X138.941 Y65.867 E.00923
G1 X139.506 Y66.094 E.00741
G1 X140.119 Y66.413 E.00841
G1 X140.817 Y66.888 E.01028
G1 X141.234 Y67.227 E.00654
G1 X141.726 Y67.714 E.00843
G1 X142.272 Y68.402 E.01069
G1 X142.551 Y68.819 E.00611
G1 X142.878 Y69.431 E.00845
G1 X143.182 Y70.198 E.01004
G1 X143.348 Y70.768 E.00723
G1 X143.473 Y71.412 E.00798
G1 X143.537 Y72.095 E.00836
G1 X143.537 Y72.739 E.00784
G1 X143.468 Y73.427 E.00842
G1 X143.331 Y74.105 E.00842
G1 X143.127 Y74.766 E.00842
G1 X142.858 Y75.403 E.00842
G1 X142.528 Y76.01 E.00842
G1 X142.138 Y76.582 E.00842
G1 X141.694 Y77.111 E.00842
G1 X141.199 Y77.594 E.00842
G1 X140.658 Y78.025 E.00842
G1 X140.077 Y78.401 E.00842
G1 X139.462 Y78.716 E.00842
G1 X138.818 Y78.969 E.00842
G1 X138.152 Y79.156 E.00842
G1 X137.471 Y79.276 E.00842
G1 X136.782 Y79.328 E.00842
G1 X136.094 Y79.311 E.00838
G1 X135.062 Y79.155 E.01271
G1 X134.4 Y78.969 E.00838
G1 X133.756 Y78.716 E.00842
G1 X133.141 Y78.401 E.00842
G1 X132.56 Y78.025 E.00842
G1 X132.019 Y77.594 E.00842
G1 X131.524 Y77.111 E.00842
G1 X131.08 Y76.582 E.00842
G1 X130.69 Y76.01 E.00842
G1 X130.359 Y75.403 E.00842
G1 X130.091 Y74.766 E.00842
G1 X129.887 Y74.105 E.00842
G1 X129.75 Y73.427 E.00842
G1 X129.681 Y72.739 E.00842
G1 X129.681 Y72.048 E.00842
G1 X129.75 Y71.36 E.00842
G1 X129.887 Y70.682 E.00842
G1 X130.091 Y70.021 E.00842
G1 X130.348 Y69.411 E.00805
G1 X130.187 Y69.301 F4200
;TYPE:External perimeter
G1 F1200
G1 X130.527 Y68.677 E.00865
G1 X130.927 Y68.09 E.00865
G1 X131.384 Y67.546 E.00865
G1 X131.893 Y67.049 E.00865
G1 X132.448 Y66.606 E.00865
G1 X133.045 Y66.221 E.00865
G1 X133.678 Y65.897 E.00865
G1 X134.339 Y65.637 E.00865
G1 X135.023 Y65.445 E.00865
G1 X135.723 Y65.321 E.00865
G1 X136.431 Y65.268 E.00865
G1 X137.129 Y65.285 E.0085
G1 X138.267 Y65.465 E.01402
G1 X139.011 Y65.689 E.00946
G1 X139.593 Y65.924 E.00764
G1 X140.222 Y66.253 E.00865
G1 X140.936 Y66.739 E.01051
G1 X141.367 Y67.09 E.00677
G1 X141.872 Y67.591 E.00866
G1 X142.43 Y68.294 E.01092
G1 X142.718 Y68.728 E.00634
G1 X143.054 Y69.357 E.00868
G1 X143.364 Y70.142 E.01027
G1 X143.535 Y70.73 E.00746
G1 X143.663 Y71.393 E.00822
G1 X143.727 Y72.095 E.00859
G1 X143.727 Y72.749 E.00796
G1 X143.657 Y73.456 E.00865
G1 X143.516 Y74.152 E.00865
G1 X143.306 Y74.831 E.00865
G1 X143.03 Y75.486 E.00865
G1 X142.691 Y76.11 E.00865
G1 X142.29 Y76.697 E.00865
