; generated by PrusaSlicer 2.5.0+win64 on 2023-04-26 at 22:13:21 UTC

; 

; external perimeters extrusion width = 0.23mm
; perimeters extrusion width = 0.23mm
; infill extrusion width = 0.23mm
; solid infill extrusion width = 0.23mm
; top infill extrusion width = 0.20mm

M107
;TYPE:Custom
G90 ; use absolute coordinates
M83 ; extruder relative mode
M140 S50 ; set final bed temp
;M104 S150 ; set temporary nozzle temp to prevent oozing during homing
G4 S10 ; allow partial nozzle warmup
G28 ; home all axis
G1 Z50 F240
G1 X2 Y10 F3000
M104 S175 ; set final nozzle temp
M190 S50 ; wait for bed temp to stabilize
M109 S175 ; wait for nozzle temp to stabilize
G92 E0
G21 ; set units to millimeters
G90 ; use absolute coordinates
M83 ; use relative distances for extrusion
; Filament gcode
M107
;LAYER_CHANGE
;Z:0.16
;HEIGHT:0.16
;BEFORE_LAYER_CHANGE
G92 E0
;0.16


G1 Z.16 F4200
;AFTER_LAYER_CHANGE
;0.16
G1 E-3 F3000
G1 X171.702 Y56.982 F4200
G1 E3 F2400
M204 P500
;TYPE:Skirt/Brim
;WIDTH:0.225
G1 F1200
G1 X172.658 Y55.248 E.02361
G1 X173.285 Y54.423 E.01234
G1 X174.053 Y53.605 E.01339
G1 X174.836 Y52.928 E.01234
G1 X175.683 Y52.332 E.01234
G1 X176.584 Y51.823 E.01234
G1 X177.532 Y51.407 E.01234
G1 X178.516 Y51.087 E.01234
G1 X179.528 Y50.867 E.01234
G1 X180.556 Y50.748 E.01234
G1 X181.591 Y50.733 E.01234
G1 X182.622 Y50.821 E.01234
G1 X183.64 Y51.01 E.01234
G1 X184.634 Y51.301 E.01234
G1 X185.593 Y51.688 E.01234
G1 X187.206 Y52.619 E.0222
G1 X188.022 Y53.257 E.01234
G1 X188.77 Y53.972 E.01234
G1 X189.443 Y54.758 E.01234
G1 X190.034 Y55.608 E.01234
G1 X190.539 Y56.512 E.01234
G1 X190.95 Y57.462 E.01234
G1 X191.265 Y58.448 E.01234
G1 X191.48 Y59.46 E.01234
G1 X191.594 Y60.489 E.01234
G1 X191.604 Y61.524 E.01234
G1 X191.511 Y62.555 E.01234
G1 X191.316 Y63.572 E.01234
G1 X191.021 Y64.564 E.01234
G1 X190.628 Y65.522 E.01234
G1 X190.142 Y66.436 E.01234
G1 X189.568 Y67.297 E.01234
G1 X188.91 Y68.096 E.01234
G1 X188.176 Y68.826 E.01234
G1 X187.374 Y69.48 E.01234
G1 X186.434 Y70.094 E.01339
G1 X184.634 Y70.919 E.02361
G1 X182.93 Y71.353 E.02096
G1 X181.927 Y71.469 E.01204
G1 X180.867 Y71.487 E.01264
G1 X179.835 Y71.399 E.01234
G1 X178.844 Y71.215 E.01202
G1 X177.824 Y70.919 E.01266
G1 X176.864 Y70.531 E.01234
G1 X175.948 Y70.05 E.01234
G1 X175.084 Y69.48 E.01234
G1 X173.688 Y68.248 E.0222
G1 X173.015 Y67.461 E.01234
G1 X172.432 Y66.625 E.01216
G1 X171.919 Y65.708 E.01253
G1 X171.508 Y64.758 E.01234
G1 X171.193 Y63.772 E.01234
G1 X170.978 Y62.759 E.01234
G1 X170.864 Y61.73 E.01234
G1 X170.854 Y60.695 E.01234
G1 X171.082 Y58.911 E.02144
G1 X171.692 Y57.01 E.02381
G1 X171.873 Y57.068 F4200
G1 F1200
G1 X172.816 Y55.355 E.02331
G1 X173.431 Y54.546 E.01211
G1 X174.183 Y53.745 E.0131
G1 X174.951 Y53.08 E.01211
G1 X175.782 Y52.495 E.01211
G1 X176.667 Y51.995 E.01211
G1 X177.597 Y51.586 E.01211
G1 X178.563 Y51.272 E.01211
G1 X179.556 Y51.055 E.01211
G1 X180.566 Y50.939 E.01212
G1 X181.582 Y50.923 E.01211
G1 X182.594 Y51.009 E.01211
G1 X183.593 Y51.195 E.01211
G1 X185.331 Y51.779 E.02186
G1 X186.24 Y52.234 E.01211
G1 X187.098 Y52.777 E.01211
G1 X187.899 Y53.403 E.01211
G1 X188.633 Y54.105 E.01211
G1 X189.294 Y54.877 E.01211
G1 X189.874 Y55.711 E.01211
G1 X190.369 Y56.599 E.01211
G1 X190.773 Y57.531 E.01211
G1 X191.081 Y58.499 E.01211
G1 X191.292 Y59.493 E.01211
G1 X191.403 Y60.503 E.01211
G1 X191.413 Y61.519 E.01211
G1 X191.322 Y62.531 E.01211
G1 X191.13 Y63.529 E.01211
G1 X190.84 Y64.503 E.01211
G1 X190.454 Y65.443 E.01211
G1 X189.977 Y66.34 E.01211
G1 X189.413 Y67.185 E.01211
G1 X188.767 Y67.97 E.01211
G1 X188.047 Y68.686 E.01211
G1 X187.259 Y69.328 E.01211
G1 X186.339 Y69.929 E.0131
G1 X184.568 Y70.74 E.02321
G1 X182.902 Y71.164 E.0205
G1 X181.917 Y71.279 E.01182
G1 X180.876 Y71.296 E.01241
G1 X178.89 Y71.03 E.02389
G1 X177.889 Y70.74 E.01243
G1 X176.947 Y70.359 E.01211
G1 X176.047 Y69.887 E.01211
G1 X175.199 Y69.328 E.01211
G1 X173.825 Y68.114 E.02186
G1 X172.592 Y66.521 E.02401
G1 X172.089 Y65.621 E.0123
G1 X171.685 Y64.688 E.01211
G1 X171.376 Y63.72 E.01211
G1 X171.165 Y62.726 E.01211
G1 X171.054 Y61.716 E.01211
G1 X171.045 Y60.7 E.01211
G1 X171.268 Y58.954 E.02099
G1 X171.864 Y57.097 E.02325
G1 X172.044 Y57.154 F4200
G1 F1200
G1 X172.973 Y55.462 E.02301
G1 X173.577 Y54.669 E.01189
G1 X174.313 Y53.885 E.01282
G1 X175.881 Y52.657 E.02375
G1 X177.662 Y51.765 E.02375
G1 X179.584 Y51.244 E.02374
G1 X181.572 Y51.114 E.02375
G1 X183.546 Y51.38 E.02375
G1 X185.428 Y52.032 E.02375
G1 X187.143 Y53.044 E.02375
G1 X188.624 Y54.376 E.02375
G1 X189.812 Y55.975 E.02375
G1 X190.659 Y57.777 E.02375
G1 X191.133 Y59.712 E.02375
G1 X191.223 Y61.515 E.02152
G1 X190.944 Y63.487 E.02375
G1 X190.281 Y65.365 E.02375
G1 X189.258 Y67.074 E.02375
G1 X187.917 Y68.547 E.02375
G1 X187.143 Y69.176 E.01189
G1 X186.244 Y69.764 E.01282
G1 X184.503 Y70.561 E.02282
G1 X182.873 Y70.976 E.02005
G1 X180.886 Y71.106 E.02375
G1 X178.937 Y70.845 E.02344
G1 X177.955 Y70.561 E.01219
G1 X177.03 Y70.188 E.01189
G1 X175.315 Y69.176 E.02374
G1 X173.833 Y67.844 E.02375
G1 X172.659 Y66.266 E.02345
G1 X171.863 Y64.619 E.02181
G1 X171.353 Y62.693 E.02375
G1 X171.235 Y60.705 E.02375
G1 X171.453 Y58.996 E.02054
G1 X172.035 Y57.183 E.0227
G1 X172.215 Y57.241 F4200
G1 F1200
G1 X173.131 Y55.57 E.02272
G1 X173.723 Y54.791 E.01166
G1 X174.442 Y54.024 E.01254
G1 X175.981 Y52.82 E.02329
G1 X177.727 Y51.945 E.02329
G1 X179.613 Y51.432 E.02329
G1 X181.563 Y51.304 E.02329
G1 X183.499 Y51.565 E.02329
G1 X185.345 Y52.204 E.02329
G1 X187.028 Y53.196 E.02329
G1 X188.481 Y54.502 E.02329
G1 X189.647 Y56.07 E.02329
G1 X190.479 Y57.838 E.02329
G1 X190.917 Y59.559 E.02118
G1 X191.032 Y61.51 E.02329
G1 X190.758 Y63.444 E.02329
G1 X190.107 Y65.286 E.02329
G1 X189.103 Y66.963 E.02329
G1 X187.787 Y68.407 E.02329
G1 X187.028 Y69.024 E.01166
G1 X186.148 Y69.599 E.01254
G1 X184.438 Y70.381 E.02242
G1 X182.845 Y70.787 E.0196
G1 X180.895 Y70.915 E.02329
G1 X178.984 Y70.66 E.02299
G1 X178.02 Y70.381 E.01196
G1 X177.113 Y70.016 E.01166
G1 X175.43 Y69.024 E.02329
G1 X173.976 Y67.718 E.02329
G1 X172.824 Y66.17 E.023
G1 X172.04 Y64.549 E.02147
G1 X171.541 Y62.66 E.02329
G1 X171.426 Y60.71 E.02329
G1 X171.639 Y59.039 E.02008
G1 X172.206 Y57.269 E.02215
G1 X172.387 Y57.327 F4200
G1 F1200
G1 X173.288 Y55.677 E.02242
G1 X173.869 Y54.914 E.01143
G1 X174.572 Y54.164 E.01225
G1 X176.08 Y52.983 E.02284
G1 X177.793 Y52.124 E.02284
G1 X179.641 Y51.621 E.02284
G1 X181.553 Y51.495 E.02284
G1 X183.452 Y51.749 E.02284
G1 X185.262 Y52.375 E.02284
G1 X186.913 Y53.348 E.02284
G1 X188.338 Y54.628 E.02284
G1 X189.482 Y56.165 E.02284
G1 X190.298 Y57.899 E.02284
G1 X190.729 Y59.593 E.02084
G1 X190.841 Y61.505 E.02284
G1 X190.572 Y63.402 E.02284
G1 X189.933 Y65.208 E.02284
G1 X188.948 Y66.851 E.02284
G1 X187.658 Y68.267 E.02284
G1 X186.913 Y68.872 E.01143
G1 X186.053 Y69.434 E.01225
G1 X184.373 Y70.202 E.02203
G1 X182.816 Y70.599 E.01915
G1 X180.905 Y70.725 E.02284
G1 X179.03 Y70.475 E.02255
G1 X177.195 Y69.844 E.02313
G1 X175.545 Y68.872 E.02284
G1 X174.119 Y67.591 E.02284
G1 X172.989 Y66.075 E.02256
G1 X172.218 Y64.479 E.02112
G1 X171.729 Y62.627 E.02284
G1 X171.616 Y60.714 E.02284
G1 X171.825 Y59.081 E.01963
G1 X172.377 Y57.356 E.0216
G1 X172.558 Y57.413 F4200
G1 F1200
G1 X173.446 Y55.785 E.02212
G1 X174.015 Y55.036 E.01121
G1 X174.702 Y54.304 E.01197
G1 X176.18 Y53.145 E.02239
G1 X177.858 Y52.303 E.02239
G1 X179.67 Y51.81 E.02239
G1 X181.543 Y51.685 E.02239
G1 X183.405 Y51.934 E.02239
G1 X185.18 Y52.547 E.02239
G1 X186.798 Y53.5 E.02239
G1 X188.195 Y54.754 E.02239
G1 X189.317 Y56.261 E.02239
G1 X190.117 Y57.959 E.02239
G1 X190.541 Y59.626 E.0205
G1 X190.651 Y61.5 E.02239
G1 X190.387 Y63.36 E.02239
G1 X189.759 Y65.129 E.02239
G1 X188.794 Y66.74 E.02239
G1 X187.528 Y68.127 E.02239
G1 X185.958 Y69.269 E.02315
G1 X184.308 Y70.023 E.02163
G1 X182.788 Y70.41 E.01869
G1 X180.914 Y70.535 E.02239
G1 X179.077 Y70.291 E.0221
G1 X177.278 Y69.672 E.02267
G1 X175.66 Y68.72 E.02239
G1 X174.262 Y67.465 E.02239
G1 X173.154 Y65.979 E.02211
G1 X172.395 Y64.41 E.02078
G1 X171.916 Y62.594 E.02239
G1 X171.807 Y60.719 E.02239
G1 X172.011 Y59.124 E.01918
G1 X172.549 Y57.442 E.02105
G1 E-2.1 F3000
;WIPE_START
G1 F3360
G1 X173.029 Y56.556 E-.855
;WIPE_END
G1 E-.045 F3000
G1 X176.224 Y58.7 F4200
G1 E3 F2400
;TYPE:Perimeter
;WIDTH:0.224999
G1 F1200
G1 X176.489 Y58.213 E.0066
G1 X176.801 Y57.756 E.0066
G1 X177.157 Y57.332 E.0066
G1 X177.553 Y56.945 E.0066
G1 X177.986 Y56.6 E.0066
G1 X178.452 Y56.299 E.0066
G1 X178.944 Y56.047 E.0066
G1 X179.46 Y55.844 E.0066
G1 X179.993 Y55.694 E.0066
G1 X180.538 Y55.598 E.0066
G1 X181.082 Y55.557 E.0065
G1 X181.625 Y55.585 E.00648
G1 X182.226 Y55.652 E.00721
G1 X182.744 Y55.773 E.00634
G1 X183.262 Y55.948 E.00652
G1 X183.764 Y56.175 E.00656
G1 X184.241 Y56.451 E.00658
G1 X184.69 Y56.774 E.00658
G1 X185.104 Y57.14 E.00659
G1 X185.48 Y57.545 E.00659
G1 X185.813 Y57.986 E.00659
G1 X186.101 Y58.457 E.00659
G1 X186.341 Y58.956 E.00659
G1 X186.531 Y59.476 E.0066
G1 X186.667 Y60.012 E.0066
G1 X186.749 Y60.559 E.0066
G1 X186.777 Y61.387 E.00987
G1 X186.722 Y61.938 E.0066
G1 X186.612 Y62.48 E.0066
G1 X186.449 Y63.01 E.0066
G1 X186.233 Y63.52 E.0066
G1 X185.969 Y64.006 E.0066
G1 X185.661 Y64.457 E.0065
G1 X185.101 Y65.092 E.01009
G1 X184.692 Y65.453 E.0065
G1 X184.243 Y65.776 E.0066
G1 X183.763 Y66.053 E.0066
G1 X183.258 Y66.28 E.0066
G1 X182.733 Y66.457 E.0066
G1 X182.193 Y66.58 E.0066
G1 X181.644 Y66.649 E.0066
G1 X181.09 Y66.663 E.0066
G1 X180.538 Y66.621 E.0066
G1 X179.993 Y66.525 E.0066
G1 X179.46 Y66.375 E.0066
G1 X178.944 Y66.173 E.0066
G1 X178.452 Y65.92 E.0066
G1 X177.986 Y65.62 E.0066
G1 X177.553 Y65.275 E.0066
G1 X177.157 Y64.888 E.0066
G1 X176.801 Y64.464 E.0066
G1 X176.489 Y64.006 E.0066
G1 X176.224 Y63.52 E.0066
G1 X176.009 Y63.01 E.0066
G1 X175.846 Y62.48 E.0066
G1 X175.736 Y61.938 E.0066
G1 X175.681 Y61.387 E.0066
G1 X175.681 Y60.833 E.0066
G1 X175.736 Y60.282 E.0066
G1 X175.846 Y59.739 E.0066
G1 X176.009 Y59.21 E.0066
G1 X176.213 Y58.727 E.00624
G1 X176.052 Y58.617 F4200
G1 F1200
G1 X176.326 Y58.114 E.00683
G1 X176.649 Y57.641 E.00683
G1 X177.017 Y57.202 E.00683
G1 X177.427 Y56.802 E.00683
G1 X177.875 Y56.445 E.00683
G1 X178.356 Y56.134 E.00683
G1 X178.866 Y55.873 E.00683
G1 X179.399 Y55.663 E.00683
G1 X179.95 Y55.508 E.00683
G1 X180.514 Y55.409 E.00683
G1 X181.08 Y55.366 E.00676
G1 X181.635 Y55.394 E.00662
G1 X182.259 Y55.465 E.00749
G1 X182.796 Y55.589 E.00657
G1 X183.332 Y55.771 E.00675
G1 X183.851 Y56.005 E.00679
G1 X184.345 Y56.291 E.0068
G1 X184.808 Y56.625 E.00681
G1 X185.237 Y57.003 E.00681
G1 X185.626 Y57.422 E.00682
G1 X185.971 Y57.878 E.00682
G1 X186.269 Y58.366 E.00682
G1 X186.517 Y58.882 E.00682
G1 X186.713 Y59.419 E.00682
G1 X186.854 Y59.974 E.00682
G1 X186.939 Y60.54 E.00682
G1 X186.967 Y61.396 E.01021
G1 X186.91 Y61.966 E.00683
G1 X186.797 Y62.528 E.00683
G1 X186.628 Y63.075 E.00683
G1 X186.405 Y63.603 E.00683
G1 X186.132 Y64.106 E.00683
G1 X185.812 Y64.574 E.00676
G1 X185.236 Y65.227 E.01038
G1 X184.811 Y65.602 E.00676
G1 X184.346 Y65.936 E.00683
G1 X183.85 Y66.223 E.00683
G1 X183.328 Y66.458 E.00683
G1 X182.785 Y66.641 E.00683
G1 X182.227 Y66.768 E.00683
G1 X181.658 Y66.839 E.00683
G1 X181.086 Y66.854 E.00683
G1 X180.514 Y66.811 E.00683
G1 X179.95 Y66.711 E.00683
G1 X179.399 Y66.556 E.00683
G1 X178.866 Y66.347 E.00683
G1 X178.356 Y66.086 E.00683
G1 X177.875 Y65.775 E.00683
G1 X177.427 Y65.418 E.00683
G1 X177.017 Y65.018 E.00683
G1 X176.649 Y64.579 E.00683
G1 X176.326 Y64.106 E.00683
G1 X176.052 Y63.603 E.00683
G1 X175.83 Y63.075 E.00683
G1 X175.661 Y62.528 E.00683
G1 X175.548 Y61.966 E.00683
G1 X175.49 Y61.396 E.00683
G1 X175.49 Y60.823 E.00683
G1 X175.548 Y60.253 E.00683
G1 X175.661 Y59.692 E.00683
G1 X175.83 Y59.145 E.00683
G1 X176.041 Y58.645 E.00647
G1 X175.88 Y58.534 F4200
G1 F1200
G1 X176.163 Y58.014 E.00706
G1 X176.497 Y57.525 E.00706
G1 X176.877 Y57.072 E.00706
G1 X177.301 Y56.659 E.00706
G1 X177.764 Y56.29 E.00706
G1 X178.261 Y55.969 E.00706
G1 X178.787 Y55.699 E.00706
G1 X179.338 Y55.482 E.00706
G1 X179.908 Y55.322 E.00706
G1 X180.491 Y55.219 E.00706
G1 X181.078 Y55.175 E.00701
G1 X181.644 Y55.204 E.00676
G1 X182.292 Y55.277 E.00778
G1 X182.848 Y55.406 E.0068
G1 X183.402 Y55.593 E.00697
G1 X183.938 Y55.836 E.00702
G1 X184.448 Y56.131 E.00703
G1 X184.927 Y56.476 E.00704
G1 X185.37 Y56.867 E.00704
G1 X185.772 Y57.3 E.00704
G1 X186.128 Y57.771 E.00704
G1 X186.436 Y58.275 E.00704
G1 X186.693 Y58.808 E.00705
G1 X186.895 Y59.363 E.00705
G1 X187.041 Y59.936 E.00705
G1 X187.129 Y60.521 E.00705
G1 X187.158 Y61.406 E.01055
G1 X187.099 Y61.995 E.00706
G1 X186.982 Y62.575 E.00706
G1 X186.807 Y63.14 E.00706
G1 X186.577 Y63.685 E.00706
G1 X186.294 Y64.205 E.00706
G1 X185.963 Y64.691 E.00702
G1 X185.371 Y65.362 E.01066
G1 X184.93 Y65.751 E.00701
G1 X184.45 Y66.097 E.00706
G1 X183.937 Y66.392 E.00705
G1 X183.398 Y66.636 E.00706
G1 X182.837 Y66.824 E.00706
G1 X182.26 Y66.956 E.00706
G1 X181.673 Y67.03 E.00706
G1 X181.081 Y67.044 E.00706
G1 X180.491 Y67 E.00706
G1 X179.908 Y66.897 E.00706
G1 X179.338 Y66.737 E.00706
G1 X178.787 Y66.521 E.00706
G1 X178.261 Y66.251 E.00706
G1 X177.764 Y65.93 E.00706
G1 X177.301 Y65.561 E.00706
G1 X176.877 Y65.148 E.00706
G1 X176.497 Y64.694 E.00706
G1 X176.163 Y64.205 E.00706
G1 X175.88 Y63.686 E.00706
G1 X175.65 Y63.14 E.00706
G1 X175.476 Y62.575 E.00706
G1 X175.359 Y61.995 E.00706
G1 X175.3 Y61.406 E.00706
G1 X175.3 Y60.814 E.00706
G1 X175.359 Y60.225 E.00706
G1 X175.476 Y59.645 E.00706
G1 X175.65 Y59.079 E.00706
G1 X175.869 Y58.562 E.0067
G1 X175.708 Y58.451 F4200
;TYPE:External perimeter
G1 F1200
G1 X176 Y57.915 E.00728
G1 X176.345 Y57.41 E.00728
G1 X176.737 Y56.942 E.00728
G1 X177.175 Y56.516 E.00728
G1 X177.652 Y56.135 E.00728
G1 X178.165 Y55.803 E.00728
G1 X178.709 Y55.525 E.00728
G1 X179.277 Y55.301 E.00728
G1 X179.865 Y55.136 E.00728
G1 X180.467 Y55.03 E.00728
G1 X181.075 Y54.984 E.00727
G1 X181.654 Y55.013 E.00691
G1 X182.326 Y55.089 E.00806
G1 X182.899 Y55.222 E.00702
G1 X183.471 Y55.416 E.0072
G1 X184.025 Y55.666 E.00724
G1 X184.552 Y55.971 E.00726
G1 X185.046 Y56.327 E.00726
G1 X185.503 Y56.73 E.00727
G1 X185.918 Y57.177 E.00727
G1 X186.286 Y57.663 E.00727
G1 X186.604 Y58.184 E.00727
G1 X186.868 Y58.734 E.00727
G1 X187.077 Y59.307 E.00728
G1 X187.228 Y59.898 E.00728
G1 X187.318 Y60.502 E.00728
G1 X187.349 Y61.415 E.01089
G1 X187.288 Y62.023 E.00728
G1 X187.167 Y62.622 E.00728
G1 X186.987 Y63.205 E.00728
G1 X186.749 Y63.768 E.00728
G1 X186.457 Y64.305 E.00728
G1 X186.114 Y64.809 E.00727
G1 X185.506 Y65.497 E.01094
G1 X185.049 Y65.9 E.00727
G1 X184.553 Y66.257 E.00728
G1 X184.024 Y66.562 E.00728
G1 X183.467 Y66.814 E.00728
G1 X182.888 Y67.008 E.00728
G1 X182.293 Y67.144 E.00728
G1 X181.687 Y67.22 E.00728
G1 X181.076 Y67.235 E.00728
G1 X180.467 Y67.19 E.00728
G1 X179.865 Y67.084 E.00728
G1 X179.277 Y66.918 E.00728
G1 X178.709 Y66.695 E.00728
G1 X178.165 Y66.416 E.00728
G1 X177.652 Y66.085 E.00728
G1 X177.175 Y65.704 E.00728
G1 X176.737 Y65.277 E.00728
G1 X176.345 Y64.809 E.00728
G1 X176 Y64.305 E.00728
G1 X175.708 Y63.768 E.00728
G1 X175.471 Y63.205 E.00728
G1 X175.291 Y62.622 E.00728
G1 X175.17 Y62.023 E.00728
G1 X175.109 Y61.415 E.00728
G1 X175.109 Y60.804 E.00728
G1 X175.17 Y60.197 E.00728
G1 X175.291 Y59.598 E.00728
G1 X175.471 Y59.014 E.00728
G1 X175.697 Y58.479 E.00692
G1 X175.908 Y58.436 F4200
G1 E-3 F3000
G1 X184.363 Y56.598 F4200
G1 E3 F2400
;TYPE:Solid infill
;WIDTH:0.227426
G1 F1200
G1 X185.205 Y57.44 E.01438
G1 X185.543 Y57.842 E.00635
G1 X185.846 Y58.288 E.00651
G1 X185.926 Y58.434 E.00201
G1 X183.895 Y56.403 E.03468
G1 X183.358 Y56.139 E.00722
G1 X186.195 Y58.976 E.04843
G1 X186.363 Y59.417 E.0057
G1 X182.916 Y55.97 E.05886
G1 X182.536 Y55.863 E.00477
G1 X186.48 Y59.807 E.06734
G1 X186.549 Y60.149 E.00422
G1 X182.191 Y55.791 E.07441
G1 X181.866 Y55.74 E.00397
G1 X186.597 Y60.47 E.08077
G1 X186.627 Y60.773 E.00368
G1 X181.579 Y55.725 E.08619
G1 X181.292 Y55.711 E.00347
G1 X186.634 Y61.053 E.09122
G1 X186.634 Y61.326 E.0033
G1 X181.013 Y55.706 E.09596
G1 X180.759 Y55.725 E.00308
G1 X186.614 Y61.579 E.09996
G1 X186.589 Y61.828 E.00301
