; generated by PrusaSlicer 2.5.0+win64 on 2023-04-27 at 13:46:02 UTC

; 

; external perimeters extrusion width = 0.23mm
; perimeters extrusion width = 0.23mm
; infill extrusion width = 0.23mm
; solid infill extrusion width = 0.23mm
; top infill extrusion width = 0.20mm

M107
;TYPE:Custom
G90 ; use absolute coordinates
M83 ; extruder relative mode
M140 S50 ; set final bed temp
;M104 S150 ; set temporary nozzle temp to prevent oozing during homing
G4 S10 ; allow partial nozzle warmup
G28 ; home all axis
G1 Z50 F240
G1 X2 Y10 F3000
M104 S175 ; set final nozzle temp
M190 S50 ; wait for bed temp to stabilize
M109 S175 ; wait for nozzle temp to stabilize
G92 E0
G21 ; set units to millimeters
G90 ; use absolute coordinates
M83 ; use relative distances for extrusion
; Filament gcode
M107
;LAYER_CHANGE
;Z:0.16
;HEIGHT:0.16
;BEFORE_LAYER_CHANGE
G92 E0
;0.16


G1 Z.16 F4200
;AFTER_LAYER_CHANGE
;0.16
G1 E-3 F3000
G1 X172.129 Y118.642 F4200
G1 E3 F2400
M204 P500
;TYPE:Skirt/Brim
;WIDTH:0.225
G1 F1200
G1 X172.772 Y117.859 E.01208
G1 X173.49 Y117.144 E.01208
G1 X174.277 Y116.502 E.01211
G1 X175.121 Y115.945 E.01205
G1 X176.019 Y115.472 E.01211
G1 X176.96 Y115.091 E.01209
G1 X178.634 Y114.665 E.0206
G1 X179.634 Y114.549 E.012
G1 X180.654 Y114.534 E.01216
G1 X182.458 Y114.76 E.02168
G1 X183.436 Y115.025 E.01208
G1 X184.383 Y115.385 E.01208
G1 X185.286 Y115.836 E.01204
G1 X186.146 Y116.379 E.01212
G1 X186.943 Y117.001 E.01205
G1 X187.675 Y117.701 E.01208
G1 X188.334 Y118.47 E.01207
G1 X188.915 Y119.304 E.01212
G1 X189.407 Y120.185 E.01204
G1 X189.811 Y121.115 E.01208
G1 X190.121 Y122.084 E.01212
G1 X190.331 Y123.071 E.01204
G1 X190.442 Y124.079 E.01209
G1 X190.453 Y125.089 E.01203
G1 X190.363 Y126.1 E.01211
G1 X190.172 Y127.099 E.01212
G1 X189.884 Y128.068 E.01205
G1 X189.501 Y129.002 E.01203
G1 X189.024 Y129.901 E.01213
G1 X188.462 Y130.744 E.01208
G1 X187.82 Y131.526 E.01207
G1 X187.104 Y132.239 E.01205
G1 X186.317 Y132.881 E.01211
G1 X185.474 Y133.438 E.01205
G1 X183.914 Y134.19 E.02064
G1 X182.95 Y134.503 E.01208
G1 X181.96 Y134.718 E.01208
G1 X180.954 Y134.834 E.01208
G1 X179.94 Y134.849 E.01208
G1 X178.136 Y134.623 E.02168
G1 X177.162 Y134.36 E.01204
G1 X176.211 Y133.998 E.01212
G1 X175.307 Y133.546 E.01205
G1 X174.448 Y133.004 E.01211
G1 X173.652 Y132.382 E.01205
G1 X172.917 Y131.68 E.01211
G1 X172.262 Y130.915 E.01201
G1 X171.68 Y130.081 E.01212
G1 X171.187 Y129.198 E.01207
G1 X170.783 Y128.267 E.01209
G1 X170.473 Y127.3 E.01211
G1 X170.263 Y126.312 E.01204
G1 X170.152 Y125.308 E.01205
G1 X170.141 Y124.292 E.01211
G1 X170.231 Y123.283 E.01208
G1 X170.422 Y122.284 E.01212
G1 X170.709 Y121.319 E.012
G1 X171.095 Y120.375 E.01216
G1 X171.571 Y119.48 E.01208
G1 X172.113 Y118.667 E.01165
G1 X172.277 Y118.765 F4200
G1 F1200
G1 X173.62 Y117.284 E.02384
G1 X175.22 Y116.107 E.02368
G1 X177.025 Y115.27 E.02372
G1 X178.662 Y114.853 E.02014
G1 X180.644 Y114.724 E.02368
G1 X182.612 Y114.991 E.02368
G1 X184.489 Y115.642 E.02368
G1 X186.199 Y116.652 E.02368
G1 X187.675 Y117.981 E.02368
G1 X188.858 Y119.576 E.02368
G1 X189.7 Y121.368 E.0236
G1 X190.143 Y123.104 E.02137
G1 X190.262 Y125.084 E.02365
G1 X189.986 Y127.057 E.02375
G1 X189.327 Y128.924 E.0236
G1 X188.308 Y130.633 E.02372
G1 X186.974 Y132.099 E.02363
G1 X185.374 Y133.276 E.02368
G1 X183.849 Y134.011 E.02019
G1 X181.932 Y134.53 E.02368
G1 X179.95 Y134.659 E.02368
G1 X177.982 Y134.392 E.02368
G1 X176.285 Y133.822 E.02134
G1 X174.556 Y132.846 E.02368
G1 X173.054 Y131.547 E.02368
G1 X171.84 Y129.978 E.02365
G1 X170.96 Y128.197 E.02368
G1 X170.451 Y126.279 E.02366
G1 X170.332 Y124.297 E.02368
G1 X170.608 Y122.326 E.02372
G1 X171.269 Y120.453 E.02368
G1 X172.262 Y118.791 E.02308
G1 X172.425 Y118.889 F4200
G1 F1200
G1 X173.75 Y117.423 E.02355
G1 X175.32 Y116.27 E.02322
G1 X177.09 Y115.449 E.02327
G1 X178.691 Y115.042 E.01969
G1 X180.635 Y114.915 E.02322
G1 X182.565 Y115.176 E.02322
G1 X184.235 Y115.736 E.021
G1 X185.931 Y116.694 E.02322
G1 X187.402 Y117.968 E.0232
G1 X188.595 Y119.511 E.02325
G1 X189.456 Y121.254 E.02318
G1 X189.955 Y123.137 E.02322
G1 X190.072 Y125.079 E.0232
G1 X189.8 Y127.014 E.0233
G1 X189.154 Y128.846 E.02315
G1 X188.153 Y130.521 E.02327
G1 X186.845 Y131.96 E.02318
G1 X185.275 Y133.113 E.02322
G1 X183.784 Y133.832 E.01973
G1 X181.903 Y134.341 E.02323
G1 X179.959 Y134.468 E.02322
G1 X178.029 Y134.208 E.02322
G1 X176.188 Y133.569 E.02323
G1 X174.511 Y132.579 E.02322
G1 X173.19 Y131.414 E.021
G1 X172 Y129.874 E.0232
G1 X171.138 Y128.128 E.02322
G1 X170.639 Y126.246 E.02321
G1 X170.522 Y124.301 E.02322
G1 X170.794 Y122.369 E.02327
G1 X171.443 Y120.532 E.02322
G1 X172.409 Y118.914 E.02246
G1 X172.573 Y119.012 F4200
G1 F1200
G1 X173.879 Y117.563 E.02326
G1 X175.419 Y116.433 E.02277
G1 X177.156 Y115.629 E.02282
G1 X178.719 Y115.23 E.01923
G1 X180.625 Y115.105 E.02277
G1 X182.518 Y115.36 E.02277
G1 X184.161 Y115.912 E.02066
G1 X185.824 Y116.852 E.02277
G1 X187.266 Y118.101 E.02275
G1 X188.435 Y119.614 E.0228
G1 X189.278 Y121.324 E.02273
G1 X189.768 Y123.17 E.02277
G1 X189.881 Y125.075 E.02275
G1 X189.614 Y126.972 E.02284
G1 X188.98 Y128.767 E.0227
G1 X187.998 Y130.41 E.02282
G1 X186.715 Y131.82 E.02273
G1 X185.175 Y132.95 E.02277
G1 X183.718 Y133.653 E.01928
G1 X181.875 Y134.153 E.02277
G1 X179.969 Y134.278 E.02277
G1 X178.076 Y134.023 E.02277
G1 X176.433 Y133.471 E.02066
G1 X174.77 Y132.531 E.02277
G1 X173.327 Y131.281 E.02277
G1 X172.16 Y129.771 E.02275
G1 X171.315 Y128.058 E.02277
G1 X170.827 Y126.213 E.02275
G1 X170.713 Y124.306 E.02277
G1 X170.98 Y122.411 E.02282
G1 X171.617 Y120.61 E.02277
G1 X172.557 Y119.038 E.02184
G1 X172.72 Y119.135 F4200
G1 F1200
G1 X174.009 Y117.703 E.02298
G1 X175.519 Y116.595 E.02232
G1 X177.221 Y115.808 E.02236
G1 X178.748 Y115.419 E.01878
G1 X180.616 Y115.296 E.02232
G1 X182.471 Y115.545 E.02232
G1 X184.087 Y116.088 E.02032
G1 X185.716 Y117.009 E.02232
G1 X187.13 Y118.234 E.0223
G1 X188.275 Y119.718 E.02234
G1 X189.101 Y121.394 E.02228
G1 X189.58 Y123.203 E.02232
G1 X189.691 Y125.07 E.02229
G1 X189.428 Y126.93 E.02239
G1 X188.806 Y128.689 E.02225
G1 X187.843 Y130.299 E.02236
G1 X186.585 Y131.68 E.02227
G1 X185.075 Y132.788 E.02232
G1 X183.653 Y133.473 E.01882
G1 X181.846 Y133.964 E.02232
G1 X179.978 Y134.087 E.02232
G1 X178.123 Y133.838 E.02232
G1 X176.507 Y133.295 E.02032
G1 X174.878 Y132.374 E.02232
G1 X173.463 Y131.148 E.02232
G1 X172.32 Y129.667 E.0223
G1 X171.493 Y127.988 E.02232
G1 X171.014 Y126.18 E.0223
G1 X170.904 Y124.311 E.02232
G1 X171.166 Y122.453 E.02236
G1 X171.791 Y120.689 E.02232
G1 X172.705 Y119.161 E.02122
G1 X172.868 Y119.259 F4200
G1 F1200
G1 X172.904 Y119.198 E.00084
G1 X174.139 Y117.842 E.02187
G1 X175.618 Y116.758 E.02187
G1 X177.286 Y115.987 E.02191
G1 X178.776 Y115.607 E.01833
G1 X180.606 Y115.486 E.02187
G1 X182.424 Y115.73 E.02187
G1 X184.013 Y116.264 E.01998
G1 X185.609 Y117.167 E.02187
G1 X186.993 Y118.367 E.02184
G1 X188.115 Y119.821 E.02189
G1 X188.923 Y121.463 E.02182
G1 X189.392 Y123.236 E.02187
G1 X189.5 Y125.065 E.02184
G1 X189.242 Y126.887 E.02193
G1 X188.632 Y128.611 E.0218
G1 X187.688 Y130.188 E.02191
G1 X186.455 Y131.541 E.02182
G1 X184.976 Y132.625 E.02187
G1 X183.588 Y133.294 E.01837
G1 X181.818 Y133.776 E.02187
G1 X179.988 Y133.897 E.02187
G1 X178.17 Y133.653 E.02187
G1 X176.581 Y133.12 E.01998
G1 X174.985 Y132.216 E.02187
G1 X173.6 Y131.014 E.02187
G1 X172.48 Y129.564 E.02184
G1 X171.67 Y127.918 E.02187
G1 X171.202 Y126.147 E.02185
G1 X171.094 Y124.316 E.02187
G1 X171.352 Y122.496 E.02191
G1 X171.964 Y120.767 E.02187
G1 X172.852 Y119.284 E.0206
G1 E-2.1 F3000
;WIPE_START
G1 F3360
G1 X172.904 Y119.198 E-.08503
G1 X173.515 Y118.527 E-.76997
;WIPE_END
G1 E-.045 F3000
G1 X176.199 Y121.587 F4200
G1 E3 F2400
;TYPE:Perimeter
;WIDTH:0.224999
G1 F1200
G1 X176.528 Y121.195 E.00611
G1 X176.895 Y120.837 E.00611
G1 X177.296 Y120.517 E.00611
G1 X177.726 Y120.239 E.00611
G1 X178.183 Y120.005 E.00611
G1 X178.66 Y119.818 E.00611
G1 X179.153 Y119.679 E.00611
G1 X179.658 Y119.59 E.00611
G1 X180.161 Y119.553 E.00601
G1 X180.944 Y119.592 E.00936
G1 X181.7 Y119.752 E.0092
G1 X182.179 Y119.914 E.00603
G1 X182.643 Y120.124 E.00607
G1 X183.085 Y120.38 E.00609
G1 X183.5 Y120.678 E.00609
G1 X183.883 Y121.017 E.0061
G1 X184.231 Y121.392 E.0061
G1 X184.54 Y121.8 E.0061
G1 X184.807 Y122.237 E.0061
G1 X185.029 Y122.698 E.0061
G1 X185.204 Y123.179 E.0061
G1 X185.33 Y123.675 E.0061
G1 X185.406 Y124.181 E.0061
G1 X185.432 Y124.948 E.00915
G1 X185.381 Y125.458 E.00611
G1 X185.279 Y125.96 E.00611
G1 X185.128 Y126.45 E.00611
G1 X184.929 Y126.922 E.00611
G1 X184.684 Y127.372 E.00611
G1 X184.395 Y127.796 E.00611
G1 X184.066 Y128.188 E.00611
G1 X183.699 Y128.546 E.00611
G1 X183.298 Y128.866 E.00611
G1 X182.868 Y129.144 E.00611
G1 X182.412 Y129.378 E.00611
G1 X181.934 Y129.565 E.00611
G1 X181.441 Y129.704 E.00611
G1 X180.936 Y129.793 E.00611
G1 X180.425 Y129.831 E.00611
G1 X179.913 Y129.818 E.00611
G1 X179.404 Y129.755 E.00611
G1 X178.905 Y129.641 E.00611
G1 X178.427 Y129.48 E.00601
G1 X177.719 Y129.139 E.00936
G1 X177.296 Y128.866 E.00601
G1 X176.895 Y128.546 E.00611
G1 X176.528 Y128.188 E.00611
G1 X176.199 Y127.796 E.00611
G1 X175.91 Y127.372 E.00611
G1 X175.665 Y126.922 E.00611
G1 X175.466 Y126.45 E.00611
G1 X175.315 Y125.96 E.00611
G1 X175.213 Y125.458 E.00611
G1 X175.162 Y124.948 E.00611
G1 X175.162 Y124.435 E.00611
G1 X175.213 Y123.925 E.00611
G1 X175.315 Y123.423 E.00611
G1 X175.466 Y122.933 E.00611
G1 X175.665 Y122.461 E.00611
G1 X175.91 Y122.011 E.00611
G1 X176.182 Y121.612 E.00575
G1 X176.047 Y121.472 F4200
G1 F1200
G1 X176.388 Y121.065 E.00634
G1 X176.769 Y120.694 E.00634
G1 X177.184 Y120.362 E.00634
G1 X177.631 Y120.074 E.00634
G1 X178.104 Y119.831 E.00634
G1 X178.599 Y119.637 E.00634
G1 X179.111 Y119.493 E.00634
G1 X179.634 Y119.401 E.00634
G1 X180.158 Y119.362 E.00627
G1 X180.674 Y119.387 E.00616
G1 X181.253 Y119.453 E.00695
G1 X181.751 Y119.568 E.00609
G1 X182.249 Y119.737 E.00626
G1 X182.73 Y119.954 E.0063
G1 X183.189 Y120.22 E.00631
G1 X183.619 Y120.529 E.00632
G1 X184.017 Y120.88 E.00632
G1 X184.377 Y121.269 E.00633
G1 X184.698 Y121.692 E.00633
G1 X184.974 Y122.145 E.00633
G1 X185.205 Y122.624 E.00633
G1 X185.386 Y123.122 E.00633
G1 X185.517 Y123.637 E.00633
G1 X185.596 Y124.162 E.00633
G1 X185.623 Y124.957 E.00949
G1 X185.57 Y125.486 E.00634
G1 X185.464 Y126.007 E.00634
G1 X185.308 Y126.515 E.00634
G1 X185.101 Y127.005 E.00634
G1 X184.847 Y127.472 E.00634
G1 X184.547 Y127.911 E.00634
G1 X184.206 Y128.318 E.00634
G1 X183.825 Y128.689 E.00634
G1 X183.41 Y129.021 E.00634
G1 X182.963 Y129.309 E.00634
G1 X182.49 Y129.552 E.00634
G1 X181.995 Y129.746 E.00634
G1 X181.484 Y129.89 E.00634
G1 X180.96 Y129.982 E.00634
G1 X180.43 Y130.022 E.00634
G1 X179.899 Y130.009 E.00634
G1 X179.371 Y129.943 E.00634
G1 X178.853 Y129.824 E.00634
G1 X178.355 Y129.657 E.00627
G1 X177.626 Y129.306 E.00964
G1 X177.184 Y129.021 E.00627
G1 X176.769 Y128.689 E.00634
G1 X176.388 Y128.318 E.00634
G1 X176.047 Y127.911 E.00634
G1 X175.747 Y127.472 E.00634
G1 X175.493 Y127.005 E.00634
G1 X175.286 Y126.515 E.00634
G1 X175.13 Y126.007 E.00634
G1 X175.024 Y125.486 E.00634
G1 X174.972 Y124.957 E.00634
G1 X174.972 Y124.426 E.00634
G1 X175.024 Y123.897 E.00634
G1 X175.13 Y123.376 E.00634
G1 X175.286 Y122.868 E.00634
G1 X175.493 Y122.378 E.00634
G1 X175.747 Y121.911 E.00634
G1 X176.03 Y121.497 E.00598
G1 X175.894 Y121.357 F4200
G1 F1200
G1 X176.248 Y120.935 E.00656
G1 X176.643 Y120.551 E.00656
G1 X177.073 Y120.207 E.00656
G1 X177.536 Y119.908 E.00656
G1 X178.025 Y119.657 E.00656
G1 X178.538 Y119.456 E.00656
G1 X179.068 Y119.307 E.00656
G1 X179.61 Y119.211 E.00656
G1 X180.156 Y119.171 E.00652
G1 X180.684 Y119.197 E.0063
G1 X181.287 Y119.265 E.00723
G1 X181.803 Y119.385 E.00632
G1 X182.318 Y119.559 E.00649
G1 X182.817 Y119.785 E.00653
G1 X183.292 Y120.059 E.00654
G1 X183.738 Y120.38 E.00655
G1 X184.15 Y120.744 E.00655
G1 X184.523 Y121.147 E.00655
G1 X184.855 Y121.585 E.00655
G1 X185.142 Y122.054 E.00655
G1 X185.38 Y122.55 E.00655
G1 X185.568 Y123.066 E.00655
G1 X185.704 Y123.599 E.00656
G1 X185.786 Y124.143 E.00656
G1 X185.813 Y124.967 E.00983
G1 X185.758 Y125.515 E.00656
G1 X185.649 Y126.054 E.00656
G1 X185.487 Y126.581 E.00656
G1 X185.273 Y127.088 E.00656
G1 X185.01 Y127.571 E.00656
G1 X184.7 Y128.026 E.00656
G1 X184.346 Y128.448 E.00656
G1 X183.952 Y128.833 E.00656
G1 X183.521 Y129.176 E.00656
G1 X183.059 Y129.475 E.00656
G1 X182.569 Y129.726 E.00656
G1 X182.056 Y129.927 E.00656
G1 X181.526 Y130.076 E.00656
G1 X180.984 Y130.172 E.00656
G1 X180.435 Y130.213 E.00656
G1 X179.884 Y130.199 E.00656
G1 X179.338 Y130.131 E.00656
G1 X178.801 Y130.008 E.00656
G1 X178.283 Y129.834 E.00652
G1 X177.533 Y129.473 E.00992
G1 X177.073 Y129.176 E.00652
G1 X176.643 Y128.833 E.00656
G1 X176.248 Y128.448 E.00656
G1 X175.894 Y128.026 E.00656
G1 X175.584 Y127.571 E.00656
G1 X175.321 Y127.088 E.00656
G1 X175.107 Y126.581 E.00656
G1 X174.945 Y126.054 E.00656
G1 X174.836 Y125.515 E.00656
G1 X174.781 Y124.967 E.00656
G1 X174.781 Y124.416 E.00656
G1 X174.836 Y123.868 E.00656
G1 X174.945 Y123.329 E.00656
G1 X175.107 Y122.803 E.00656
G1 X175.321 Y122.295 E.00656
G1 X175.584 Y121.812 E.00656
G1 X175.878 Y121.382 E.00621
G1 X175.742 Y121.241 F4200
;TYPE:External perimeter
G1 F1200
G1 X176.108 Y120.805 E.00679
G1 X176.516 Y120.407 E.00679
G1 X176.962 Y120.052 E.00679
G1 X177.44 Y119.743 E.00679
G1 X177.947 Y119.483 E.00679
G1 X178.477 Y119.275 E.00679
G1 X179.026 Y119.121 E.00679
G1 X179.587 Y119.022 E.00679
G1 X180.153 Y118.98 E.00678
G1 X180.693 Y119.006 E.00644
G1 X181.32 Y119.077 E.00752
G1 X181.855 Y119.201 E.00655
G1 X182.388 Y119.382 E.00671
G1 X182.904 Y119.615 E.00675
G1 X183.396 Y119.899 E.00677
G1 X183.857 Y120.231 E.00677
G1 X184.283 Y120.607 E.00678
G1 X184.67 Y121.024 E.00678
G1 X185.013 Y121.478 E.00678
G1 X185.309 Y121.963 E.00678
G1 X185.556 Y122.476 E.00678
G1 X185.75 Y123.01 E.00678
G1 X185.891 Y123.561 E.00678
G1 X185.976 Y124.124 E.00678
G1 X186.004 Y124.976 E.01017
G1 X185.947 Y125.543 E.00679
G1 X185.834 Y126.101 E.00679
G1 X185.666 Y126.646 E.00679
G1 X185.445 Y127.171 E.00679
G1 X185.173 Y127.671 E.00679
G1 X184.852 Y128.142 E.00679
G1 X184.486 Y128.578 E.00679
G1 X184.078 Y128.976 E.00679
G1 X183.632 Y129.331 E.00679
G1 X183.154 Y129.64 E.00679
G1 X182.647 Y129.9 E.00679
G1 X182.117 Y130.108 E.00679
G1 X181.568 Y130.262 E.00679
G1 X181.008 Y130.361 E.00679
G1 X180.439 Y130.404 E.00679
G1 X179.87 Y130.389 E.00679
G1 X179.305 Y130.319 E.00679
G1 X178.749 Y130.192 E.00679
G1 X178.211 Y130.011 E.00678
G1 X177.439 Y129.639 E.01021
G1 X176.962 Y129.331 E.00678
G1 X176.516 Y128.976 E.00679
G1 X176.108 Y128.578 E.00679
G1 X175.742 Y128.142 E.00679
G1 X175.421 Y127.671 E.00679
G1 X175.149 Y127.171 E.00679
G1 X174.928 Y126.646 E.00679
G1 X174.76 Y126.101 E.00679
G1 X174.647 Y125.543 E.00679
G1 X174.59 Y124.976 E.00679
G1 X174.59 Y124.407 E.00679
G1 X174.647 Y123.84 E.00679
G1 X174.76 Y123.282 E.00679
G1 X174.928 Y122.737 E.00679
G1 X175.149 Y122.212 E.00679
G1 X175.421 Y121.712 E.00679
G1 X175.725 Y121.266 E.00643
G1 X175.941 Y121.266 F4200
G1 E-3 F3000
G1 X183.171 Y120.503 F4200
G1 E3 F2400
;TYPE:Solid infill
;WIDTH:0.226408
G1 F1200
G1 X183.966 Y121.298 E.0135
G1 X184.281 Y121.674 E.00589
G1 X184.562 Y122.085 E.00598
G1 X184.658 Y122.262 E.00241
G1 X182.721 Y120.324 E.0329
G1 X182.201 Y120.076 E.00692
G1 X184.911 Y122.787 E.04604
G1 X185.064 Y123.211 E.00542
G1 X181.775 Y119.922 E.05588
G1 X181.398 Y119.817 E.00469
G1 X185.166 Y123.585 E.064
G1 X185.235 Y123.925 E.00417
G1 X181.068 Y119.759 E.07077
G1 X180.764 Y119.726 E.00368
G1 X185.268 Y124.229 E.07649
G1 X185.289 Y124.522 E.00353
G1 X180.478 Y119.712 E.08171
G1 X180.192 Y119.697 E.00344
G1 X185.289 Y124.794 E.08657
G1 X185.277 Y125.054 E.00313
G1 X179.936 Y119.713 E.09073
G1 X179.683 Y119.732 E.00304
G1 X185.253 Y125.301 E.0946
G1 X185.219 Y125.539 E.00288
G1 X179.452 Y119.772 E.09795
G1 X179.221 Y119.812 E.00282
G1 X185.173 Y125.765 E.1011
G1 X185.122 Y125.985 E.00272
G1 X179.006 Y119.869 E.10388
G1 X178.794 Y119.929 E.00264
G1 X185.058 Y126.193 E.10639
G1 X184.994 Y126.4 E.00261
