; generated by PrusaSlicer 2.5.0+win64 on 2023-05-05 at 20:37:55 UTC

; 

; external perimeters extrusion width = 0.23mm
; perimeters extrusion width = 0.23mm
; infill extrusion width = 0.23mm
; solid infill extrusion width = 0.23mm
; top infill extrusion width = 0.20mm

M107
;TYPE:Custom
G90 ; use absolute coordinates
M83 ; extruder relative mode
M140 S55 ; set final bed temp
;M104 S150 ; set temporary nozzle temp to prevent oozing during homing
G4 S10 ; allow partial nozzle warmup
G28 ; home all axis
G1 Z50 F240
G1 X2 Y10 F3000
M104 S175 ; set final nozzle temp
M190 S55 ; wait for bed temp to stabilize
M109 S175 ; wait for nozzle temp to stabilize
G92 E0
G21 ; set units to millimeters
G90 ; use absolute coordinates
M83 ; use relative distances for extrusion
; Filament gcode
M107
;LAYER_CHANGE
;Z:0.14
;HEIGHT:0.14
;BEFORE_LAYER_CHANGE
G92 E0
;0.14


G1 Z.14 F4200
;AFTER_LAYER_CHANGE
;0.14
G1 E-3 F3000
G1 X47.072 Y135.758 F4200
G1 E3 F2400
M204 P500
;TYPE:Skirt/Brim
;WIDTH:0.225
G1 F1200
G1 X48.749 Y135.311 E.01851
G1 X50.501 Y135.203 E.01872
G1 X52.239 Y135.443 E.01872
G1 X53.896 Y136.024 E.01872
G1 X55.372 Y136.898 E.01831
G1 X56.677 Y138.069 E.0187
G1 X57.628 Y139.318 E.01674
G1 X58.403 Y140.871 E.01852
G1 X58.862 Y142.565 E.01872
G1 X58.975 Y144.336 E.01893
G1 X58.74 Y146.056 E.01851
G1 X58.174 Y147.694 E.01849
G1 X57.261 Y149.241 E.01916
G1 X56.099 Y150.53 E.01851
G1 X54.853 Y151.475 E.01668
G1 X53.263 Y152.263 E.01893
G1 X51.586 Y152.71 E.01851
G1 X49.834 Y152.818 E.01872
G1 X48.095 Y152.577 E.01872
G1 X46.439 Y151.997 E.01872
G1 X44.962 Y151.123 E.01831
G1 X43.657 Y149.952 E.0187
G1 X42.706 Y148.703 E.01674
G1 X41.931 Y147.15 E.01852
G1 X41.477 Y145.477 E.01849
G1 X41.359 Y143.704 E.01895
G1 X41.594 Y141.965 E.01873
G1 X42.161 Y140.326 E.01849
G1 X42.949 Y138.952 E.0169
G1 X44.109 Y137.608 E.01893
G1 X45.481 Y136.545 E.01851
G1 X47.045 Y135.771 E.01861
G1 X47.131 Y135.945 F4200
G1 F1200
G1 X48.778 Y135.504 E.01819
G1 X50.491 Y135.397 E.01831
G1 X52.191 Y135.632 E.01831
G1 X53.811 Y136.199 E.01831
G1 X55.255 Y137.054 E.0179
G1 X56.532 Y138.199 E.01829
G1 X57.464 Y139.424 E.01642
G1 X58.222 Y140.943 E.01811
G1 X58.67 Y142.599 E.01829
G1 X58.78 Y144.331 E.01852
G1 X58.55 Y146.013 E.01811
G1 X57.996 Y147.615 E.01808
G1 X57.103 Y149.127 E.01873
G1 X55.966 Y150.387 E.0181
G1 X54.752 Y151.309 E.01627
G1 X53.196 Y152.08 E.01852
G1 X51.557 Y152.517 E.0181
G1 X49.844 Y152.623 E.01831
G1 X48.143 Y152.388 E.01831
G1 X46.523 Y151.821 E.01831
G1 X45.079 Y150.967 E.0179
G1 X43.803 Y149.822 E.01829
G1 X42.87 Y148.597 E.01642
G1 X42.113 Y147.078 E.01811
G1 X41.668 Y145.442 E.01808
G1 X41.554 Y143.709 E.01852
G1 X41.784 Y142.007 E.01832
G1 X42.339 Y140.406 E.01808
G1 X43.108 Y139.066 E.01648
G1 X44.242 Y137.751 E.01852
G1 X45.583 Y136.712 E.0181
G1 X47.104 Y135.958 E.01811
G1 X47.19 Y136.132 F4200
G1 F1200
G1 X48.807 Y135.697 E.01786
G1 X50.481 Y135.592 E.01789
G1 X52.143 Y135.821 E.01789
G1 X53.726 Y136.375 E.01789
G1 X55.138 Y137.21 E.01749
G1 X56.386 Y138.328 E.01788
G1 X57.301 Y139.529 E.0161
G1 X58.041 Y141.015 E.0177
G1 X58.478 Y142.633 E.01787
G1 X58.585 Y144.326 E.0181
G1 X58.36 Y145.971 E.0177
G1 X57.818 Y147.536 E.01767
G1 X56.945 Y149.014 E.01831
G1 X55.833 Y150.244 E.01768
G1 X54.65 Y151.143 E.01585
G1 X53.129 Y151.896 E.0181
G1 X51.528 Y152.324 E.01768
G1 X49.853 Y152.429 E.01789
G1 X48.191 Y152.2 E.01789
G1 X46.608 Y151.646 E.01789
G1 X45.196 Y150.811 E.01749
G1 X43.948 Y149.692 E.01788
G1 X43.034 Y148.491 E.0161
G1 X42.294 Y147.006 E.0177
G1 X41.86 Y145.407 E.01767
G1 X41.749 Y143.714 E.0181
G1 X41.975 Y142.05 E.01792
G1 X42.517 Y140.485 E.01766
G1 X43.266 Y139.179 E.01606
G1 X44.375 Y137.894 E.0181
G1 X45.684 Y136.878 E.01768
G1 X47.163 Y136.145 E.0176
G1 X47.249 Y136.319 F4200
G1 F1200
G1 X48.836 Y135.89 E.01753
G1 X50.471 Y135.787 E.01748
G1 X52.095 Y136.01 E.01748
G1 X53.642 Y136.551 E.01748
G1 X55.021 Y137.366 E.01709
G1 X56.241 Y138.458 E.01746
G1 X57.137 Y139.635 E.01578
G1 X57.859 Y141.087 E.0173
G1 X58.286 Y142.666 E.01745
G1 X58.391 Y144.322 E.01769
G1 X58.17 Y145.928 E.0173
G1 X57.64 Y147.456 E.01725
G1 X56.786 Y148.9 E.01789
G1 X55.701 Y150.101 E.01727
G1 X54.548 Y150.976 E.01544
G1 X53.063 Y151.713 E.01769
G1 X51.499 Y152.131 E.01727
G1 X49.863 Y152.234 E.01748
G1 X48.24 Y152.011 E.01748
G1 X46.693 Y151.47 E.01748
G1 X45.313 Y150.655 E.01709
G1 X44.094 Y149.563 E.01746
G1 X43.198 Y148.386 E.01578
G1 X42.475 Y146.934 E.0173
G1 X42.052 Y145.372 E.01725
G1 X41.943 Y143.719 E.01767
G1 X42.165 Y142.092 E.01751
G1 X42.695 Y140.564 E.01725
G1 X43.424 Y139.293 E.01563
G1 X44.507 Y138.037 E.01769
G1 X45.786 Y137.044 E.01727
G1 X47.222 Y136.332 E.0171
G1 X47.311 Y136.522 F4200
G1 F1200
G1 X47.519 Y136.425 E.00245
G1 X48.865 Y136.082 E.01481
G1 X50.462 Y135.982 E.01707
G1 X52.047 Y136.199 E.01707
G1 X53.557 Y136.726 E.01707
G1 X54.78 Y137.433 E.01507
G1 X55.992 Y138.477 E.01707
G1 X56.973 Y139.741 E.01706
G1 X57.684 Y141.174 E.01707
G1 X58.097 Y142.72 E.01707
G1 X58.196 Y144.317 E.01707
G1 X57.976 Y145.901 E.01706
G1 X57.446 Y147.411 E.01707
G1 X56.628 Y148.786 E.01707
G1 X55.568 Y149.958 E.01685
G1 X54.447 Y150.81 E.01502
G1 X53.015 Y151.523 E.01706
G1 X51.469 Y151.938 E.01707
G1 X49.873 Y152.039 E.01707
G1 X48.288 Y151.822 E.01707
G1 X46.777 Y151.294 E.01707
G1 X45.401 Y150.478 E.01707
G1 X44.214 Y149.406 E.01707
G1 X43.263 Y148.119 E.01707
G1 X42.586 Y146.669 E.01707
G1 X42.209 Y145.115 E.01707
G1 X42.139 Y143.704 E.01507
G1 X42.359 Y142.119 E.01706
G1 X42.888 Y140.61 E.01707
G1 X43.706 Y139.235 E.01706
G1 X44.781 Y138.049 E.01707
G1 X46.069 Y137.1 E.01707
G1 X47.284 Y136.535 E.01429
G1 X47.365 Y136.711 F4200
G1 F1200
G1 X47.586 Y136.608 E.00259
G1 X49.084 Y136.246 E.01644
G1 X50.452 Y136.176 E.01461
G1 X51.999 Y136.388 E.01665
G1 X53.473 Y136.902 E.01665
G1 X54.671 Y137.594 E.01475
G1 X55.853 Y138.613 E.01665
G1 X56.809 Y139.847 E.01665
G1 X57.503 Y141.245 E.01665
G1 X57.905 Y142.754 E.01665
G1 X58.001 Y144.312 E.01665
G1 X57.786 Y145.858 E.01665
G1 X57.268 Y147.331 E.01665
G1 X56.47 Y148.672 E.01665
G1 X55.436 Y149.815 E.01644
G1 X54.345 Y150.644 E.01461
G1 X52.948 Y151.34 E.01665
G1 X51.44 Y151.746 E.01665
G1 X49.882 Y151.845 E.01665
G1 X48.336 Y151.633 E.01665
G1 X46.862 Y151.119 E.01665
G1 X45.664 Y150.427 E.01475
G1 X44.482 Y149.408 E.01665
G1 X43.525 Y148.174 E.01665
G1 X42.832 Y146.775 E.01665
G1 X42.429 Y145.267 E.01665
G1 X42.334 Y143.709 E.01665
G1 X42.549 Y142.163 E.01665
G1 X43.066 Y140.69 E.01665
G1 X43.865 Y139.349 E.01665
G1 X44.913 Y138.192 E.01665
G1 X46.17 Y137.266 E.01665
G1 X47.338 Y136.723 E.01374
G1 X47.42 Y136.899 F4200
G1 F1200
G1 X47.653 Y136.791 E.00274
G1 X48.923 Y136.468 E.01398
G1 X50.442 Y136.371 E.01624
G1 X51.951 Y136.577 E.01624
G1 X53.388 Y137.078 E.01624
G1 X54.561 Y137.755 E.01444
G1 X55.713 Y138.749 E.01624
G1 X56.646 Y139.952 E.01624
G1 X57.321 Y141.317 E.01624
G1 X57.713 Y142.788 E.01624
G1 X57.806 Y144.307 E.01624
G1 X57.596 Y145.815 E.01624
G1 X57.091 Y147.251 E.01624
G1 X56.311 Y148.558 E.01624
G1 X55.303 Y149.672 E.01603
G1 X54.243 Y150.477 E.01419
G1 X52.881 Y151.157 E.01624
G1 X51.411 Y151.553 E.01624
G1 X49.892 Y151.65 E.01624
G1 X48.384 Y151.444 E.01624
G1 X46.946 Y150.943 E.01624
G1 X45.774 Y150.266 E.01444
G1 X44.621 Y149.271 E.01624
G1 X43.689 Y148.068 E.01624
G1 X43.013 Y146.704 E.01624
G1 X42.621 Y145.233 E.01624
G1 X42.529 Y143.714 E.01624
G1 X42.739 Y142.206 E.01624
G1 X43.244 Y140.77 E.01624
G1 X44.023 Y139.462 E.01624
G1 X45.046 Y138.335 E.01624
G1 X46.272 Y137.433 E.01624
G1 X47.393 Y136.912 E.01318
G1 X47.47 Y137.073 F4200
G1 F1200
G1 X47.538 Y137.04 E.00081
G1 X48.952 Y136.661 E.01561
G1 X50.433 Y136.566 E.01582
G1 X51.902 Y136.766 E.01582
G1 X53.303 Y137.253 E.01582
G1 X54.451 Y137.916 E.01413
G1 X55.574 Y138.885 E.01582
G1 X56.482 Y140.058 E.01582
G1 X57.14 Y141.388 E.01582
G1 X57.521 Y142.821 E.01582
G1 X57.611 Y144.302 E.01582
G1 X57.406 Y145.771 E.01582
G1 X56.913 Y147.171 E.01582
G1 X56.153 Y148.445 E.01582
G1 X55.17 Y149.529 E.01561
G1 X54.142 Y150.311 E.01378
G1 X52.815 Y150.974 E.01582
G1 X51.382 Y151.36 E.01582
G1 X49.902 Y151.455 E.01582
G1 X48.432 Y151.255 E.01582
G1 X47.031 Y150.767 E.01582
G1 X45.754 Y150.012 E.01582
G1 X44.653 Y149.019 E.01582
G1 X43.77 Y147.827 E.01582
G1 X43.14 Y146.483 E.01582
G1 X42.79 Y145.042 E.01582
G1 X42.724 Y143.718 E.01413
G1 X42.929 Y142.249 E.01582
G1 X43.421 Y140.85 E.01582
G1 X44.181 Y139.576 E.01582
G1 X45.179 Y138.478 E.01582
G1 X46.374 Y137.599 E.01582
G1 X47.443 Y137.086 E.01265
G1 E-2.1 F3000
;WIPE_START
G1 F3360
G1 X47.538 Y137.04 E-.08978
G1 X48.41 Y136.806 E-.76522
;WIPE_END
G1 E-.045 F3000
G1 X49.035 Y140.641 F4200
G1 E3 F2400
;TYPE:Perimeter
;WIDTH:0.224999
G1 F1200
G1 X49.726 Y140.484 E.00756
G1 X50.423 Y140.465 E.00744
G1 X50.951 Y140.543 E.00569
G1 X51.629 Y140.771 E.00763
G1 X52.242 Y141.125 E.00755
G1 X52.773 Y141.593 E.00755
G1 X53.2 Y142.157 E.00755
G1 X53.507 Y142.795 E.00755
G1 X53.682 Y143.481 E.00755
G1 X53.717 Y144.188 E.00755
G1 X53.612 Y144.887 E.00755
G1 X53.37 Y145.553 E.00755
G1 X53 Y146.156 E.00755
G1 X52.519 Y146.675 E.00755
G1 X51.944 Y147.088 E.00755
G1 X51.299 Y147.38 E.00755
G1 X50.609 Y147.537 E.00755
G1 X49.902 Y147.555 E.00755
G1 X49.205 Y147.432 E.00755
G1 X48.546 Y147.173 E.00755
G1 X47.951 Y146.789 E.00756
G1 X47.45 Y146.303 E.00744
G1 X47.138 Y145.87 E.00569
G1 X46.827 Y145.226 E.00763
G1 X46.653 Y144.54 E.00755
G1 X46.617 Y143.833 E.00755
G1 X46.723 Y143.133 E.00755
G1 X46.965 Y142.468 E.00755
G1 X47.334 Y141.864 E.00755
G1 X47.815 Y141.345 E.00755
G1 X48.39 Y140.932 E.00755
G1 X49.008 Y140.654 E.00723
G1 X48.973 Y140.455 F4200
G1 F1200
G1 X49.701 Y140.289 E.00797
G1 X50.435 Y140.27 E.00783
G1 X50.997 Y140.353 E.00606
G1 X51.71 Y140.592 E.00802
G1 X52.356 Y140.965 E.00797
G1 X52.916 Y141.46 E.00797
G1 X53.367 Y142.055 E.00797
G1 X53.691 Y142.728 E.00797
G1 X53.876 Y143.451 E.00797
G1 X53.913 Y144.197 E.00797
G1 X53.801 Y144.936 E.00797
G1 X53.546 Y145.638 E.00797
G1 X53.157 Y146.275 E.00797
G1 X52.649 Y146.822 E.00797
G1 X52.042 Y147.258 E.00797
G1 X51.362 Y147.565 E.00797
G1 X50.634 Y147.731 E.00797
G1 X49.887 Y147.75 E.00797
G1 X49.152 Y147.62 E.00797
G1 X48.456 Y147.348 E.00797
G1 X47.829 Y146.942 E.00797
G1 X47.302 Y146.431 E.00783
G1 X46.969 Y145.971 E.00606
G1 X46.643 Y145.293 E.00802
G1 X46.459 Y144.569 E.00797
G1 X46.422 Y143.823 E.00797
G1 X46.533 Y143.085 E.00797
G1 X46.788 Y142.383 E.00797
G1 X47.178 Y141.746 E.00797
G1 X47.686 Y141.199 E.00797
G1 X48.292 Y140.763 E.00797
G1 X48.945 Y140.468 E.00765
G1 X48.91 Y140.27 F4200
G1 F1200
G1 X49.677 Y140.095 E.00838
G1 X50.447 Y140.074 E.00821
G1 X51.042 Y140.162 E.00642
G1 X51.79 Y140.413 E.00841
G1 X52.471 Y140.806 E.00838
G1 X53.06 Y141.326 E.00838
G1 X53.534 Y141.953 E.00838
G1 X53.875 Y142.661 E.00838
G1 X54.069 Y143.422 E.00838
G1 X54.108 Y144.207 E.00838
G1 X53.991 Y144.984 E.00838
G1 X53.723 Y145.723 E.00838
G1 X53.313 Y146.393 E.00838
G1 X52.778 Y146.969 E.00838
G1 X52.14 Y147.428 E.00838
G1 X51.424 Y147.751 E.00838
G1 X50.658 Y147.926 E.00838
G1 X49.872 Y147.945 E.00838
G1 X49.098 Y147.809 E.00838
G1 X48.367 Y147.522 E.00838
G1 X47.707 Y147.095 E.00838
G1 X47.154 Y146.559 E.00821
G1 X46.801 Y146.071 E.00642
G1 X46.459 Y145.36 E.00841
G1 X46.265 Y144.599 E.00838
G1 X46.226 Y143.814 E.00838
G1 X46.343 Y143.037 E.00838
G1 X46.612 Y142.298 E.00838
G1 X47.022 Y141.628 E.00838
G1 X47.556 Y141.052 E.00838
G1 X48.194 Y140.593 E.00838
G1 X48.883 Y140.282 E.00806
G1 X48.848 Y140.084 F4200
;TYPE:External perimeter
G1 F1200
G1 X49.652 Y139.9 E.0088
G1 X50.458 Y139.879 E.0086
G1 X51.088 Y139.972 E.00679
G1 X51.871 Y140.235 E.00881
G1 X52.585 Y140.647 E.0088
G1 X53.204 Y141.193 E.0088
G1 X53.702 Y141.851 E.0088
G1 X54.059 Y142.594 E.0088
G1 X54.263 Y143.393 E.0088
G1 X54.304 Y144.217 E.0088
G1 X54.181 Y145.032 E.0088
G1 X53.899 Y145.808 E.0088
G1 X53.469 Y146.511 E.0088
G1 X52.908 Y147.116 E.0088
G1 X52.238 Y147.597 E.0088
G1 X51.486 Y147.937 E.0088
G1 X50.682 Y148.12 E.0088
G1 X49.858 Y148.141 E.0088
G1 X49.045 Y147.998 E.0088
G1 X48.278 Y147.696 E.0088
G1 X47.585 Y147.249 E.0088
G1 X47.006 Y146.687 E.0086
G1 X46.633 Y146.171 E.00679
G1 X46.275 Y145.427 E.00881
G1 X46.071 Y144.628 E.0088
G1 X46.03 Y143.804 E.0088
G1 X46.153 Y142.988 E.0088
G1 X46.435 Y142.213 E.0088
G1 X46.865 Y141.509 E.0088
G1 X47.427 Y140.905 E.0088
G1 X48.096 Y140.423 E.0088
G1 X48.821 Y140.096 E.00848
G1 X48.998 Y140.216 F4200
G1 E-3 F3000
G1 X52.051 Y141.082 F4200
G1 E3 F2400
;TYPE:Solid infill
;WIDTH:0.22993
G1 F1200
G1 X52.674 Y141.705 E.00964
G1 X53.075 Y142.234 E.00725
G1 X53.218 Y142.532 E.00362
G1 X51.622 Y140.935 E.02469
G1 X51.177 Y140.773 E.00518
G1 X53.41 Y143.006 E.03454
G1 X53.507 Y143.386 E.00428
G1 X50.788 Y140.667 E.04205
G1 X50.456 Y140.618 E.00367
G1 X53.547 Y143.708 E.0478
G1 X53.562 Y144.006 E.00326
G1 X50.174 Y140.618 E.0524
G1 X49.898 Y140.625 E.00301
G1 X53.555 Y144.282 E.05656
G1 X53.518 Y144.528 E.00272
G1 X49.643 Y140.652 E.05993
G1 X49.413 Y140.705 E.00258
G1 X53.481 Y144.773 E.06292
G1 X53.418 Y144.993 E.0025
G1 X49.183 Y140.758 E.0655
G1 X48.972 Y140.83 E.00243
G1 X53.342 Y145.2 E.06759
G1 X53.267 Y145.407 E.00241
G1 X48.778 Y140.918 E.06943
G1 X48.583 Y141.006 E.00234
G1 X53.172 Y145.595 E.07098
G1 X53.065 Y145.771 E.00225
G1 X48.4 Y141.105 E.07215
G1 X48.235 Y141.224 E.00222
G1 X52.958 Y145.946 E.07304
G1 X52.842 Y146.113 E.00222
G1 X48.071 Y141.342 E.07379
G1 X47.907 Y141.461 E.00221
G1 X52.706 Y146.259 E.07421
G1 X52.57 Y146.406 E.00219
G1 X47.771 Y141.608 E.07421
G1 X47.635 Y141.754 E.00219
G1 X52.433 Y146.553 E.07421
G1 X52.271 Y146.673 E.00221
G1 X47.499 Y141.901 E.07381
G1 X47.451 Y141.953 E.00078
G1 X47.382 Y142.066 E.00145
G1 X52.107 Y146.791 E.07308
G1 X51.943 Y146.91 E.00222
G1 X47.275 Y142.242 E.0722
G1 X47.167 Y142.417 E.00225
G1 X51.761 Y147.011 E.07105
G1 X51.566 Y147.099 E.00234
G1 X47.071 Y142.604 E.06952
G1 X46.996 Y142.811 E.00241
G1 X51.371 Y147.187 E.06767
G1 X51.163 Y147.261 E.00242
G1 X46.92 Y143.018 E.06562
G1 X46.855 Y143.236 E.00248
G1 X50.933 Y147.313 E.06306
G1 X50.703 Y147.366 E.00258
G1 X46.818 Y143.481 E.06008
G1 X46.781 Y143.727 E.00272
G1 X50.449 Y147.395 E.05673
G1 X50.173 Y147.402 E.00302
G1 X46.772 Y144.001 E.0526
G1 X46.787 Y144.298 E.00326
G1 X49.894 Y147.405 E.04805
G1 X49.55 Y147.344 E.00381
G1 X46.823 Y144.617 E.04218
G1 X46.92 Y144.996 E.00428
G1 X49.194 Y147.271 E.03517
G1 X48.729 Y147.088 E.00547
G1 X47.104 Y145.463 E.02513
G1 X47.264 Y145.795 E.00403
G1 X47.553 Y146.195 E.00539
G1 X48.308 Y146.95 E.01168
M106 S255
;LAYER_CHANGE
;Z:0.26
;HEIGHT:0.12
;BEFORE_LAYER_CHANGE
G92 E0
;0.26


G1 Z.26 F4200
;AFTER_LAYER_CHANGE
;0.26
G1 X53.831 Y143.828
;TYPE:Perimeter
;WIDTH:0.224999
G1 F938
G1 X53.849 Y144.194 E.00343
G1 X53.739 Y144.92 E.00686
G1 X53.488 Y145.61 E.00686
G1 X53.106 Y146.236 E.00686
G1 X52.606 Y146.774 E.00686
G1 X52.01 Y147.203 E.00686
G1 X51.341 Y147.505 E.00686
G1 X50.626 Y147.668 E.00686
G1 X49.892 Y147.686 E.00686
G1 X49.169 Y147.559 E.00686
G1 X48.486 Y147.291 E.00686
G1 X47.869 Y146.892 E.00686
G1 X47.343 Y146.38 E.00686
G1 X46.93 Y145.773 E.00686
G1 X46.645 Y145.097 E.00686
G1 X46.498 Y144.369 E.00694
G1 X46.484 Y143.835 E.00499
G1 X46.595 Y143.101 E.00694
G1 X46.846 Y142.411 E.00686
G1 X47.229 Y141.785 E.00686
G1 X47.728 Y141.247 E.00686
G1 X48.324 Y140.818 E.00686
G1 X48.993 Y140.516 E.00686
G1 X49.71 Y140.353 E.00687
G1 X50.429 Y140.333 E.00672
G1 X50.981 Y140.414 E.00521
G1 X51.683 Y140.65 E.00693
G1 X52.319 Y141.017 E.00686
G1 X52.869 Y141.503 E.00686
G1 X53.313 Y142.088 E.00686
G1 X53.631 Y142.75 E.00686
G1 X53.812 Y143.461 E.00686
G1 X53.829 Y143.798 E.00315
G1 X54.03 Y143.818 F4200
G1 F938
G1 X54.049 Y144.204 E.00362
G1 X53.933 Y144.969 E.00723
G1 X53.669 Y145.697 E.00723
G1 X53.265 Y146.357 E.00723
G1 X52.739 Y146.924 E.00723
G1 X52.11 Y147.376 E.00723
G1 X51.405 Y147.694 E.00723
G1 X50.65 Y147.867 E.00723
G1 X49.877 Y147.886 E.00723
G1 X49.115 Y147.752 E.00723
G1 X48.394 Y147.469 E.00723
G1 X47.744 Y147.049 E.00723
G1 X47.19 Y146.509 E.00723
G1 X46.754 Y145.869 E.00723
G1 X46.453 Y145.156 E.00723
